vaithak/rl_training/csvs/data_obs_m20_keyboard_4_env_0.csv
timestamp,dt,base_ang_vel_0,base_ang_vel_1,base_ang_vel_2,projected_gravity_0,projected_gravity_1,projected_gravity_2,velocity_commands_0,velocity_commands_1,velocity_commands_2,joint_pos_0,joint_pos_1,joint_pos_2,joint_pos_3,joint_pos_4,joint_pos_5,joint_pos_6,joint_pos_7,joint_pos_8,joint_pos_9,joint_pos_10,joint_pos_11,joint_pos_12,joint_pos_13,joint_pos_14,joint_pos_15,joint_vel_0,joint_vel_1,joint_vel_2,joint_vel_3,joint_vel_4,joint_vel_5,joint_vel_6,joint_vel_7,joint_vel_8,joint_vel_9,joint_vel_10,joint_vel_11,joint_vel_12,joint_vel_13,joint_vel_14,joint_vel_15,actions_0,actions_1,actions_2,actions_3,actions_4,actions_5,actions_6,actions_7,actions_8,actions_9,actions_10,actions_11,actions_12,actions_13,actions_14,actions_15
1760540643.679545,0.02,0.0332106314599514,0.016448115929961205,-0.25224336981773376,0.012326576747000217,0.006461719051003456,-0.99990314245224,0.0,0.0,-1.0,-0.1653771698474884,0.04479295015335083,-0.020364880561828613,0.1518116444349289,0.00713503360748291,-0.016043424606323242,-0.09958065301179886,0.013926804065704346,-0.01892256736755371,0.13703615963459015,-0.014995813369750977,0.08157134056091309,0.0,0.0,0.0,0.0,-0.029710454866290092,0.01921834982931614,-0.021185604855418205,0.047976717352867126,0.027600398287177086,-0.06132885441184044,0.01684618927538395,0.01956639252603054,-0.04370100423693657,0.024949543178081512,-0.001235000672750175,-0.0018681202782317996,-0.1768966168165207,0.0026063304394483566,-0.11707998812198639,0.19736847281455994,0.007096972316503525,0.30508893728256226,-0.9688444137573242,0.6378844380378723,0.07725615054368973,-0.09985857456922531,-0.2415795922279358,0.14173990488052368,0.14317312836647034,-0.078582264482975,-0.36661195755004883,0.4387205243110657,-0.7509683966636658,0.03559103235602379,-1.1827173233032227,0.5847207903862
1760540643.735179,0.02,-0.05369768291711807,0.022768869996070862,-0.21440020203590393,0.014638051390647888,0.008983088657259941,-0.9998524785041809,0.0,0.0,-1.0,-0.18375957012176514,0.05483955144882202,-0.029014110565185547,0.14938884973526,0.01420360803604126,-0.021560311317443848,-0.09834933280944824,0.027569293975830078,-0.029750466346740723,0.13172592222690582,-0.01136714220046997,0.06919032335281372,0.0,0.0,0.0,0.0,-0.05158880352973938,0.0319729708135128,-0.038817599415779114,-0.039417341351509094,-0.030833786353468895,0.10148916393518448,-0.005624219309538603,0.03532068431377411,-0.017097512260079384,-0.021641230210661888,0.00524439662694931,-0.032251086086034775,-0.19331975281238556,0.04668256267905235,-0.24811998009681702,0.23058100044727325,0.24324822425842285,0.22470423579216003,-1.0305646657943726,-0.22855660319328308,0.34422022104263306,-0.15927264094352722,0.5602848529815674,-0.13880819082260132,0.1836232990026474,-0.47970932722091675,-0.058094173669815063,0.32910674810409546,-0.9467222690582275,0.3828011453151703,-1.2351431846618652,0.8941278457641602
1760540643.7908585,0.02,-0.003842722624540329,-0.021603913977742195,-0.19964879751205444,0.01360448356717825,0.01146172359585762,-0.9998417496681213,0.0,0.0,-1.0,-0.19994288682937622,0.07086235284805298,-0.056764423847198486,0.13227948546409607,0.00788348913192749,0.0032423734664916992,-0.09878803044557571,0.036747515201568604,-0.03397369384765625,0.12119195610284805,-0.008059144020080566,0.051137566566467285,0.0,0.0,0.0,0.0,-0.031883977353572845,0.048410531133413315,-0.0976080447435379,-0.03730335459113121,-0.009545156732201576,0.046535857021808624,0.003896296489983797,0.01692735217511654,-0.003546289401128888,-0.022481076419353485,0.005563851911574602,-0.03533414006233215,-0.18052589893341064,0.0020216431003063917,-0.22172342240810394,0.3033915162086487,0.5894009470939636,0.13623091578483582,-0.969363808631897,-1.4425050020217896,0.8509597778320312,-0.1815224140882492,1.7190699577331543,-0.40530768036842346,0.07464355230331421,-0.3465057909488678,0.1941678524017334,0.40148288011550903,-1.0011746883392334,0.7312151193618774,-1.1605576276779175,1.440869688987732
1760540643.8460407,0.02,0.02596694976091385,-0.046799153089523315,-0.2136281132698059,0.010348816402256489,0.010022585280239582,-0.999896228313446,0.0,0.0,-1.0,-0.19436918199062347,0.07513421773910522,-0.06998473405838013,0.11963238567113876,0.011283576488494873,0.012284636497497559,-0.09372113645076752,0.03758561611175537,-0.03434181213378906,0.11256550252437592,-0.003593623638153076,0.03540545701980591,0.0,0.0,0.0,0.0,0.03553042188286781,-0.004979263991117477,-0.012353929691016674,-0.0350203812122345,0.02005636692047119,0.024628156796097755,0.015130926854908466,-0.005453779362142086,0.003277087351307273,-0.02160661667585373,0.01009649783372879,-0.025228727608919144,-0.2661980986595154,0.09628146886825562,-0.1476232409477234,0.3573355972766876,1.0429134368896484,0.05906209349632263,-0.5768420696258545,-2.8066840171813965,1.1890347003936768,-0.19903011620044708,2.8794543743133545,-0.6210290789604187,0.050915639847517014,-0.2417549341917038,0.291606605052948,0.37117332220077515,-0.9859950542449951,1.0297009944915771,-0.9807882905006409,1.6826039552688599
1760540643.901188,0.02,0.002940736711025238,-0.0630345419049263,-0.23431895673274994,0.005572754889726639,0.008952969685196877,-0.9999443888664246,0.0,0.0,-1.0,-0.164213627576828,0.05899930000305176,-0.049647390842437744,0.1060318723320961,0.023680508136749268,0.007782340049743652,-0.08703797310590744,0.03270787000656128,-0.033280372619628906,0.09928770363330841,0.0016230344772338867,0.02075362205505371,0.0,0.0,0.0,0.0,0.09098484367132187,-0.05163843557238579,0.06807517260313034,-0.036326318979263306,0.03384902700781822,-0.029357288032770157,0.01525582280009985,-0.017241695895791054,0.006388842593878508,-0.037442680448293686,0.00968051329255104,-0.02721661888062954,-0.27999696135520935,0.013327136635780334,-0.11911351978778839,0.41627994179725647,0.980976402759552,0.016545623540878296,-0.1892234981060028,-3.295457363128662,1.1997241973876953,-0.18318437039852142,3.382786512374878,-0.757394015789032,0.08333756029605865,-0.1499154418706894,0.1707945168018341,0.18177781999111176,-1.0240143537521362,1.2704535722732544,-0.9872676730155945,1.8564633131027222
1760540643.955886,0.02,0.00872868299484253,-0.03987673670053482,-0.26472726464271545,0.0017099948599934578,0.007316120900213718,-0.9999717473983765,0.0,0.0,-1.0,-0.12175203114748001,0.03767019510269165,-0.016936838626861572,0.09180539846420288,0.0359576940536499,0.0004678964614868164,-0.0784885510802269,0.024750053882598877,-0.026925325393676758,0.08414008468389511,0.003786146640777588,0.009825706481933594,0.0,0.0,0.0,0.0,0.10588005930185318,-0.04991186410188675,0.07862831652164459,-0.04833080992102623,0.033281173557043076,-0.031113291159272194,0.01939023844897747,-0.02176382951438427,0.01914225146174431,-0.04160330817103386,0.00023747161321807653,-0.018841441720724106,-0.2511049211025238,0.09182169288396835,-0.12578611075878143,0.4599669873714447,0.6880818605422974,0.0828525722026825,0.0011871755123138428,-2.838395833969116,0.9582088589668274,-0.09646496921777725,3.014254093170166,-0.6565504670143127,0.14791902899742126,-0.03480706363916397,0.04564794898033142,0.06666300445795059,-0.8865416049957275,1.4623578786849976,-0.9375098943710327,1.9853655099868774
1760540644.0088315,0.02,0.01949441432952881,-0.01659289561212063,-0.27348628640174866,-0.0003254732582718134,0.005179659463465214,-0.9999865293502808,0.0,0.0,-1.0,-0.08226664364337921,0.02378833293914795,0.008623242378234863,0.07599189132452011,0.040760159492492676,-0.0001068115234375,-0.06932687759399414,0.01765131950378418,-0.0158766508102417,0.07050992548465729,-0.0008642077445983887,0.002708137035369873,0.0,0.0,0.0,0.0,0.08911765366792679,-0.025562254711985588,0.05296077951788902,-0.040276702493429184,0.008145648054778576,-0.0035480246879160404,0.021217389032244682,-0.015395539812743664,0.028007835149765015,-0.03454010933637619,-0.018816765397787094,-0.012661886401474476,-0.26087796688079834,0.1535242646932602,-0.16941849887371063,0.4762797951698303,0.48184293508529663,0.13348335027694702,0.028796643018722534,-1.904526948928833,0.6680141091346741,-0.12824317812919617,2.10782790184021,-0.48086658120155334,0.20014841854572296,-0.021618403494358063,-0.05071453005075455,0.03467239439487457,-0.8610919117927551,1.4586759805679321,-1.0358741283416748,2.020033597946167
1760540644.0631542,0.02,0.00880479533225298,0.0016709258779883385,-0.26941680908203125,-0.0006900280714035034,0.004101729951798916,-0.9999913573265076,0.0,0.0,-1.0,-0.056973446160554886,0.020245611667633057,0.022130370140075684,0.05981319025158882,0.03891521692276001,0.0049839019775390625,-0.06203562766313553,0.014839529991149902,-0.004175782203674316,0.05959596112370491,-0.011185824871063232,-0.0005242824554443359,0.0,0.0,0.0,0.0,0.048414360731840134,-0.00016111653530970216,0.022793643176555634,-0.04292471334338188,-0.00705912709236145,0.01399802602827549,0.01605307310819626,-0.0027542959433048964,0.026756156235933304,-0.026262516155838966,-0.028900552541017532,-0.005497538950294256,-0.29570111632347107,0.24572952091693878,-0.2116885483264923,0.4585178792476654,0.3654572367668152,0.15986022353172302,-0.029088616371154785,-1.0540037155151367,0.4771153926849365,-0.13629762828350067,1.1452510356903076,-0.3118245601654053,0.22697967290878296,-0.03532806783914566,-0.03019598126411438,0.08474478125572205,-0.955508291721344,1.3834609985351562,-1.0946624279022217,1.9255328178405762
1760540644.1190195,0.02,0.00045806868001818657,0.007916171103715897,-0.2562233805656433,-0.00010283139999955893,0.003657680470496416,-0.9999933242797852,0.0,0.0,-1.0,-0.047010909765958786,0.023142755031585693,0.025972485542297363,0.04305573180317879,0.030840814113616943,0.018265128135681152,-0.05642617121338844,0.01711493730545044,0.0041062235832214355,0.05773868039250374,-0.02566659450531006,0.004729568958282471,0.0,0.0,0.0,0.0,0.011860447935760021,0.010893723927438259,0.0027914501260966063,-0.0458080992102623,-0.022485820576548576,0.027891112491488457,0.0113891726359725,0.010506476275622845,0.014597482047975063,-0.0012778047239407897,-0.03740702196955681,0.01624533161520958,-0.27204445004463196,0.2254442423582077,-0.22791388630867004,0.39433392882347107,0.3095531165599823,0.09791168570518494,-0.12462292611598969,-0.4352863132953644,0.3428046703338623,-0.1464781016111374,0.3853307068347931,-0.20868337154388428,0.21947002410888672,-0.017380110919475555,-0.026045404374599457,0.19967029988765717,-0.942331850528717,1.2932857275009155,-1.1118862628936768,1.6749036312103271
1760540644.1750164,0.02,-0.030668605118989944,0.02166854217648506,-0.23978294432163239,0.0013860065955668688,0.00591517798602581,-0.9999815225601196,0.0,0.0,-1.0,-0.054095447063446045,0.028786778450012207,0.023575663566589355,0.024151243269443512,0.018346667289733887,0.03831279277801514,-0.054593153297901154,0.02466404438018799,0.006762981414794922,0.06018400564789772,-0.03740614652633667,0.0166856050491333,0.0,0.0,0.0,0.0,-0.02884683944284916,0.01669158786535263,-0.011391159147024155,-0.05291026830673218,-0.031017828732728958,0.03975725919008255,0.002501749200746417,0.022359898313879967,0.0036589845549315214,0.0037138615734875202,-0.022428667172789574,0.025560369715094566,-0.17415297031402588,0.1614028513431549,-0.22164416313171387,0.2941116988658905,0.15845394134521484,0.02742883563041687,-0.27434879541397095,0.020818721503019333,0.24787181615829468,-0.077544204890728,-0.1011890172958374,-0.1643613874912262,0.16816549003124237,-0.03261590749025345,-0.01320311427116394,0.36050117015838623,-0.8202080726623535,1.1913225650787354,-1.0757460594177246,1.3193975687026978
1760540644.2297337,0.02,-0.005740012973546982,0.04928203672170639,-0.23724611103534698,0.004700304940342903,0.008012883365154266,-0.9999568462371826,0.0,0.0,-1.0,-0.07152427732944489,0.03544646501541138,0.017459988594055176,0.006785865873098373,0.003161489963531494,0.06633007526397705,-0.05252383276820183,0.03440910577774048,0.007757842540740967,0.06311402469873428,-0.04262888431549072,0.02890622615814209,0.0,0.0,0.0,0.0,-0.040653593838214874,0.014294171705842018,-0.015416160225868225,-0.03503566235303879,-0.03492734953761101,0.07232537865638733,0.009682021103799343,0.02503686025738716,0.002237263834103942,0.01101627666503191,-0.009065239690244198,0.03058796189725399,-0.1110837459564209,0.17100682854652405,-0.19899259507656097,0.24551086127758026,-0.12103003263473511,-0.02216210961341858,-0.5291318297386169,0.5404168963432312,0.07552389055490494,0.08882979303598404,-0.4493230879306793,-0.10750894248485565,0.040768276900053024,0.027518652379512787,-0.07356806099414825,0.5946186780929565,-0.6261953115463257,0.9200824499130249,-1.0381877422332764,0.9635151028633118
1760540644.2822962,0.02,0.03835384175181389,0.07003001868724823,-0.25848162174224854,0.009881434962153435,0.006107760593295097,-0.9999325275421143,0.0,0.0,-1.0,-0.08497627079486847,0.03863859176635742,0.015003800392150879,0.002145871054381132,-0.009129881858825684,0.0928581953048706,-0.04496164619922638,0.04267603158950806,0.00389784574508667,0.07214172929525375,-0.04159480333328247,0.046002984046936035,0.0,0.0,0.0,0.0,-0.02963499166071415,0.004805692937225103,-0.002706081373617053,0.0010753271635621786,-0.028365371748805046,0.05933750420808792,0.020819205790758133,0.01564766652882099,-0.012605425901710987,0.02570630982518196,0.003586903680115938,0.04241428151726723,-0.06059303879737854,0.16143181920051575,-0.23206208646297455,0.08572956174612045,-0.4359535574913025,0.03058984875679016,-0.9005347490310669,1.3339927196502686,-0.2196284532546997,0.28526771068573,-1.0904501676559448,0.07371141761541367,-0.10239660739898682,0.16989798843860626,-0.1393299102783203,0.8425504565238953,-0.5613776445388794,0.5696287751197815,-0.9477013945579529,0.5158207416534424
1760540644.335243,0.02,0.07480199635028839,0.08176129311323166,-0.2597036361694336,0.016082927584648132,0.0012457366101443768,-0.9998698830604553,0.0,0.0,-1.0,-0.0947602391242981,0.04123622179031372,0.014971256256103516,0.018163016065955162,-0.01654297113418579,0.10475337505340576,-0.0392039455473423,0.05124354362487793,-0.011646151542663574,0.08554963767528534,-0.036646902561187744,0.0669594407081604,0.0,0.0,0.0,0.0,-0.018728632479906082,0.004558134824037552,0.009528246708214283,0.061654042452573776,-0.013178372755646706,0.010340009815990925,0.007182281464338303,0.017620716243982315,-0.03599052131175995,0.03646958991885185,0.01695050485432148,0.052851952612400055,-0.08170574903488159,0.09006846696138382,-0.2179810106754303,0.08338882774114609,-0.5737411975860596,0.15762558579444885,-1.1967517137527466,2.1170475482940674,-0.378214955329895,0.4280034005641937,-1.8798296451568604,0.301814466714859,-0.1853589564561844,0.147548109292984,-0.17827367782592773,0.9204183220863342,-0.5606560707092285,0.3223203122615814,-0.8722729086875916,0.09406118094921112
1760540644.3911126,0.02,0.042836833745241165,0.0488852858543396,-0.2488093227148056,0.021017316728830338,-0.002630125731229782,-0.9997756481170654,0.0,0.0,-1.0,-0.10480371117591858,0.04331791400909424,0.014321565628051758,0.050041187554597855,-0.017194032669067383,0.09457480907440186,-0.046766847372055054,0.05303770303726196,-0.02114236354827881,0.09748327732086182,-0.026455700397491455,0.08501040935516357,0.0,0.0,0.0,0.0,-0.02662992849946022,0.003130948171019554,-0.0026268602814525366,0.08951043337583542,0.0016123006353154778,-0.041504085063934326,-0.03350388631224632,-0.0026476075872778893,-0.0182239580899477,0.0261357631534338,0.028411684557795525,0.03176606446504593,-0.09392611682415009,-0.03296748176217079,-0.20532634854316711,-0.07027055323123932,-0.17675790190696716,0.05092582106590271,-1.3800245523452759,1.9457452297210693,-0.2555364966392517,0.37292730808258057,-2.04933762550354,0.29585304856300354,-0.16621693968772888,0.02282116562128067,-0.28602418303489685,0.7507336139678955,-0.9625121355056763,-0.14871832728385925,-0.8209019303321838,-0.4571530222892761
1760540644.444777,0.02,0.010034598410129547,0.004850739613175392,-0.24902862310409546,0.022305479273200035,-0.004604016896337271,-0.9997406005859375,0.0,0.0,-1.0,-0.1165088638663292,0.04407161474227905,0.0072748661041259766,0.08682781457901001,-0.012579083442687988,0.06541132926940918,-0.06590724736452103,0.04549908638000488,-0.024753093719482422,0.10711699724197388,-0.01816779375076294,0.08919644355773926,0.0,0.0,0.0,0.0,-0.033360887318849564,5.982397124171257e-05,-0.01952590048313141,0.08839347213506699,0.012061496265232563,-0.07411779463291168,-0.056932445615530014,-0.025881752371788025,-0.005388944875448942,0.018868036568164825,0.02341984026134014,0.0019978531636297703,-0.08052533119916916,-0.0932452529668808,-0.19826458394527435,0.041954368352890015,0.04191827401518822,0.1010071337223053,-1.348281979560852,1.4701628684997559,-0.1134989783167839,0.26402997970581055,-1.6602859497070312,0.21921518445014954,-0.15380248427391052,0.04697223752737045,-0.4798435568809509,0.5958414077758789,-0.8195493817329407,-0.36072853207588196,-0.7975507378578186,-0.25147420167922974
1760540644.4977465,0.02,-0.03264341503381729,-0.021643085405230522,-0.25908443331718445,0.021327689290046692,-0.0032271118834614754,-0.9997673034667969,0.0,0.0,-1.0,-0.13218122720718384,0.04489928483963013,-0.0036844611167907715,0.11701639741659164,-0.00567173957824707,0.031543612480163574,-0.08974109590053558,0.02656632661819458,-0.011771321296691895,0.11325614899396896,-0.011960208415985107,0.0854039192199707,0.0,0.0,0.0,0.0,-0.043034300208091736,0.0007683198782615364,-0.024427054449915886,0.06443782895803452,0.015221153385937214,-0.07678233087062836,-0.0597638301551342,-0.049621205776929855,0.029628068208694458,0.010765481740236282,0.015631331130862236,-0.016294896602630615,-0.10475100576877594,-0.08810850232839584,-0.2333245575428009,0.10011857748031616,-0.03254521265625954,0.17143514752388,-1.2226080894470215,1.09395170211792,-0.04301207512617111,0.1205705776810646,-1.043660044670105,0.1783607006072998,-0.013175252825021744,0.016354486346244812,-0.498821496963501,0.49330514669418335,-0.7991064190864563,-0.3288462460041046,-0.9480442404747009,0.0019089728593826294
1760540644.5526981,0.02,-0.06358727812767029,-0.034901488572359085,-0.2761315405368805,0.018765119835734367,0.0010699201375246048,-0.9998233318328857,0.0,0.0,-1.0,-0.15149067342281342,0.045576632022857666,-0.015360772609710693,0.13503162562847137,0.002312898635864258,-0.001415848731994629,-0.10881892591714859,0.0025577545166015625,0.009285151958465576,0.11682908982038498,-0.00822073221206665,0.07344979047775269,0.0,0.0,0.0,0.0,-0.051542479544878006,-0.0005885034915991127,-0.02524702250957489,0.031117528676986694,0.018029047176241875,-0.07123471051454544,-0.039147548377513885,-0.05684676393866539,0.04360846430063248,0.006499056704342365,0.00975718628615141,-0.03563876077532768,-0.12563258409500122,-0.03319690376520157,-0.2894386947154999,0.1775093674659729,-0.06799823045730591,0.23200258612632751,-1.0401990413665771,0.7405791282653809,0.021595485508441925,-0.02899663895368576,-0.46320563554763794,0.14158543944358826,0.11667047441005707,-0.03450966626405716,-0.4532643258571625,0.41081446409225464,-0.7421568036079407,-0.1052912250161171,-1.1749241352081299,0.3483724594116211
1760540644.6077764,0.02,0.024674955755472183,-0.009459197521209717,-0.2485031634569168,0.015844300389289856,0.004353783093392849,-0.9998649954795837,0.0,0.0,-1.0,-0.1695733368396759,0.048184216022491455,-0.027076900005340576,0.1404234617948532,0.003977656364440918,-0.007730066776275635,-0.11218026280403137,-0.008335649967193604,0.013409316539764404,0.12159858644008636,-0.007028341293334961,0.05715745687484741,0.0,0.0,0.0,0.0,-0.031451452523469925,0.01802968792617321,-0.032631613314151764,0.013696287758648396,-0.004388666711747646,0.02701605297625065,0.021194349974393845,0.037395525723695755,-0.07038135081529617,0.022186487913131714,-0.0015215253224596381,-0.027737349271774292,-0.16746219992637634,0.07193675637245178,-0.15242166817188263,0.23447392880916595,0.16857966780662537,0.30410346388816833,-0.8293206691741943,0.29366812109947205,0.1233673170208931,-0.17328600585460663,0.028720691800117493,0.10987932235002518,0.2191745489835739,-0.12190764397382736,-0.32834476232528687,0.3493509888648987,-0.6894303560256958,0.18217042088508606,-1.4225870370864868,0.735114336013794
1760540644.6617916,0.02,-0.02136882022023201,-0.028702443465590477,-0.19420397281646729,0.01407868042588234,0.00632156478241086,-0.9998809099197388,0.0,0.0,-1.0,-0.18436995148658752,0.06052917242050171,-0.04723215103149414,0.12797009944915771,-0.0029531121253967285,0.0135117769241333,-0.10938654839992523,0.007975995540618896,-0.0038619041442871094,0.12448219209909439,-0.01241910457611084,0.05244410037994385,0.0,0.0,0.0,0.0,-0.03652004525065422,0.0414128340780735,-0.06941043585538864,-0.03499579802155495,-0.017212236300110817,0.04125220328569412,0.004392147529870272,0.03915802016854286,-0.027672773227095604,0.004489578772336245,-0.01904297061264515,-0.002795247361063957,-0.17279069125652313,0.03930037468671799,-0.2839948534965515,0.25267645716667175,0.4528595507144928,0.24435976147651672,-0.917991042137146,-0.6911606192588806,0.431852251291275,-0.21472643315792084,0.7315725088119507,-0.2502501904964447,0.21802151203155518,-0.3200095295906067,-0.042130738496780396,0.37849920988082886,-0.984455406665802,0.4990643560886383,-1.3802814483642578,1.0902611017227173
1760540644.717084,0.02,-0.026432979851961136,-0.03988844156265259,-0.20125435292720795,0.010952435433864594,0.0092388316988945,-0.9998973608016968,0.0,0.0,-1.0,-0.19265300035476685,0.07167398929595947,-0.06784558296203613,0.11247013509273529,-0.0017071962356567383,0.02437746524810791,-0.10806607455015182,0.01963341236114502,-0.012943148612976074,0.12054958194494247,-0.016617774963378906,0.045979976654052734,0.0,0.0,0.0,0.0,-0.010170556604862213,0.022594163194298744,-0.04720964655280113,-0.03678108751773834,0.012316225096583366,0.016674211248755455,0.00555573171004653,0.02350386045873165,-0.016216933727264404,-0.012436780147254467,-0.009221945889294147,-0.00711067533120513,-0.2002313882112503,-0.04647473618388176,-0.24107031524181366,0.2906261682510376,0.7417609691619873,0.06551232933998108,-0.811120867729187,-2.0857911109924316,0.9506080746650696,-0.1422039419412613,1.9665584564208984,-0.5782848596572876,0.11069495975971222,-0.19632111489772797,0.25901803374290466,0.4937828779220581,-1.0205670595169067,0.8296802639961243,-1.319746971130371,1.537272334098816
1760540644.7707207,0.02,0.0072229038923978806,-0.049022987484931946,-0.22872565686702728,0.006791695952415466,0.010069177486002445,-0.9999262690544128,0.0,0.0,-1.0,-0.17743560671806335,0.06501871347427368,-0.06037449836730957,0.09882237762212753,0.008203864097595215,0.025190114974975586,-0.10285778343677521,0.023089051246643066,-0.018807649612426758,0.11215810477733612,-0.014760732650756836,0.03572642803192139,0.0,0.0,0.0,0.0,0.05954695865511894,-0.03155876323580742,0.041026629507541656,-0.027927124872803688,0.04379680007696152,-0.026503359898924828,0.01847938634455204,0.0007630125037394464,-0.008576327003538609,-0.02058066800236702,0.008281501941382885,-0.015185276977717876,-0.294537752866745,-0.28428027033805847,-0.16018198430538177,0.3641173839569092,1.0712960958480835,0.01768028736114502,-0.3618817925453186,-3.2474775314331055,1.164056420326233,-0.16174498200416565,3.072028398513794,-0.7561066150665283,0.09297128021717072,-0.13207261264324188,0.24258902668952942,0.3583635687828064,-1.031132459640503,1.1681463718414307,-1.0673855543136597,1.7096450328826904
1760540644.8231575,0.02,-0.0024104639887809753,-0.039332326501607895,-0.25288182497024536,0.0027790383901447058,0.010923020541667938,-0.9999364614486694,0.0,0.0,-1.0,-0.14359986782073975,0.04471457004547119,-0.028119206428527832,0.08290042728185654,0.01833897829055786,0.02122020721435547,-0.09610909223556519,0.019275426864624023,-0.02161848545074463,0.09668108075857162,-0.008810997009277344,0.023116767406463623,0.0,0.0,0.0,0.0,0.09620952606201172,-0.053444910794496536,0.08864587545394897,-0.04327952489256859,0.031877756118774414,-0.0027026606258004904,0.01945541612803936,-0.016039177775382996,0.0006687844870612025,-0.04088057205080986,0.01489559281617403,-0.023230446502566338,-0.274954617023468,0.1402023285627365,-0.0984177365899086,0.4260213375091553,0.903712272644043,0.04644930362701416,-0.03296497464179993,-3.3518362045288086,1.0997356176376343,-0.04032319039106369,3.1371476650238037,-0.716114342212677,0.15494179725646973,-0.05137655884027481,0.09276863932609558,0.1442476212978363,-0.9540247917175293,1.6506993770599365,-0.7396931052207947,1.8592257499694824
1760540644.8788033,0.02,0.01657959632575512,-0.033244553953409195,-0.26649734377861023,-0.000179672846570611,0.008730233646929264,-0.9999618530273438,0.0,0.0,-1.0,-0.10087054967880249,0.02629876136779785,0.0036925077438354492,0.07019758969545364,0.030704915523529053,0.015506625175476074,-0.08552487194538116,0.013543188571929932,-0.016279101371765137,0.0823381170630455,-0.006312251091003418,0.012738585472106934,0.0,0.0,0.0,0.0,0.1039898544549942,-0.040034156292676926,0.06925850361585617,-0.03584493696689606,0.03194933757185936,-0.03344540670514107,0.02483152598142624,-0.013324570842087269,0.014863662421703339,-0.037981655448675156,-0.0013509889831766486,-0.0196185614913702,-0.265786737203598,0.05683166906237602,-0.15629775822162628,0.4578077495098114,0.6184004545211792,0.05256772041320801,0.04246976971626282,-2.5283758640289307,0.8218957781791687,-0.148060604929924,2.606966495513916,-0.6631573438644409,0.17940747737884521,-0.00029990915209054947,-0.03896963596343994,0.05596405267715454,-0.9247363209724426,1.3817228078842163,-1.1249525547027588,1.9541192054748535
1760540644.9349873,0.02,0.022724587470293045,-0.012242453172802925,-0.2706054747104645,-0.0019054582808166742,0.0067489417269825935,-0.9999753832817078,0.0,0.0,-1.0,-0.06618817150592804,0.017702758312225342,0.022947192192077637,0.05546744167804718,0.03647357225418091,0.014933466911315918,-0.07558321207761765,0.01019662618637085,-0.007605075836181641,0.06878731399774551,-0.009400904178619385,0.004694640636444092,0.0,0.0,0.0,0.0,0.07505252957344055,-0.011536376550793648,0.03629763796925545,-0.03507455065846443,0.011470808647572994,-0.0015914961695671082,0.0239191222935915,-0.005637850612401962,0.021464545279741287,-0.032920368015766144,-0.012386503629386425,-0.015637895092368126,-0.28454431891441345,0.13100366294384003,-0.2030312567949295,0.46732455492019653,0.40090489387512207,0.14424613118171692,0.04857945442199707,-1.6247256994247437,0.5645495057106018,-0.11697550863027573,1.6962690353393555,-0.4540223479270935,0.21856757998466492,0.011399469338357449,-0.03363878279924393,0.05808241665363312,-0.9222851991653442,1.4355292320251465,-1.1305032968521118,1.9823815822601318
1760540644.9899771,0.02,0.0046214088797569275,0.0012446139007806778,-0.2637004256248474,-0.00226468313485384,0.006083449348807335,-0.9999789595603943,0.0,0.0,-1.0,-0.047517143189907074,0.017924129962921143,0.030719280242919922,0.04002383351325989,0.034348487854003906,0.020234227180480957,-0.06793423742055893,0.01101076602935791,-0.00024235248565673828,0.060348521918058395,-0.018770217895507812,0.0028555989265441895,0.0,0.0,0.0,0.0,0.03221459314227104,0.006894942373037338,0.010573486797511578,-0.04160608723759651,-0.00886180717498064,0.01081800740212202,0.017130617052316666,0.006196160335093737,0.015293017029762268,-0.017685987055301666,-0.027405282482504845,-0.0014887377619743347,-0.2916804850101471,0.23048293590545654,-0.22127759456634521,0.4305371344089508,0.26067984104156494,0.12291142344474792,-0.033056408166885376,-0.8137953877449036,0.38920295238494873,-0.12163489311933517,0.8212428092956543,-0.3022245168685913,0.21868880093097687,-0.003661193884909153,-0.044040076434612274,0.12995432317256927,-0.964726984500885,1.3473926782608032,-1.1282496452331543,1.8634514808654785
1760540645.0457332,0.02,-0.01462220586836338,0.01301573682576418,-0.24682408571243286,-0.0014497844967991114,0.006808318197727203,-0.9999758005142212,0.0,0.0,-1.0,-0.04563259333372116,0.02280658483505249,0.030684232711791992,0.02342439815402031,0.024705171585083008,0.03399312496185303,-0.06281671673059464,0.016936540603637695,0.0034275054931640625,0.061901357024908066,-0.03319281339645386,0.012510836124420166,0.0,0.0,0.0,0.0,-0.008626083843410015,0.015130087733268738,-0.005441983230412006,-0.046575408428907394,-0.02686969004571438,0.02682494930922985,0.009898068383336067,0.019330358132719994,0.004524606745690107,0.006942422594875097,-0.036759451031684875,0.02703229896724224,-0.22580865025520325,0.20750825107097626,-0.2341831475496292,0.3491744101047516,0.1733570694923401,0.061779528856277466,-0.15753450989723206,-0.2031669020652771,0.2686723470687866,-0.10724898427724838,0.184139221906662,-0.20747193694114685,0.19848820567131042,-0.050937920808792114,-0.028411030769348145,0.2807201147079468,-0.8703038096427917,1.2667313814163208,-1.1309814453125,1.5495189428329468
1760540645.100742,0.02,-0.030430525541305542,0.04466085135936737,-0.23112662136554718,0.0013109766878187656,0.010464318096637726,-0.9999443888664246,0.0,0.0,-1.0,-0.06188257783651352,0.03051280975341797,0.02594470977783203,0.0046919421292841434,0.01041722297668457,0.05672657489776611,-0.061680298298597336,0.02733290195465088,0.004281103610992432,0.06369274109601974,-0.04359918832778931,0.026587307453155518,0.0,0.0,0.0,0.0,-0.043690238147974014,0.020528217777609825,-0.013809590600430965,-0.039872970432043076,-0.03294681757688522,0.054309915751218796,0.005160934757441282,0.02816751040518284,0.0027350184973329306,0.0069413199089467525,-0.019683919847011566,0.029558224603533745,-0.14337550103664398,0.1959521323442459,-0.22813037037849426,0.27834174036979675,-0.10004296898841858,-0.0017900168895721436,-0.38163840770721436,0.3454945981502533,0.14740151166915894,0.027331270277500153,-0.18030580878257751,-0.16664853692054749,0.11877173185348511,-0.12393581867218018,-0.017438799142837524,0.4872364401817322,-0.6989791989326477,1.118890404701233,-1.1131739616394043,1.1838737726211548
1760540645.155588,0.02,0.011128559708595276,0.06644131988286972,-0.243917778134346,0.0061612254939973354,0.01074254885315895,-0.9999232888221741,0.0,0.0,-1.0,-0.0771375447511673,0.03547263145446777,0.024737119674682617,-0.005149591248482466,-0.0038015246391296387,0.0833977460861206,-0.05631594732403755,0.03736376762390137,0.006365597248077393,0.06988584250211716,-0.04746764898300171,0.04312664270401001,0.0,0.0,0.0,0.0,-0.034444864839315414,0.009083042852580547,0.0028558813501149416,-0.01524448674172163,-0.03462369740009308,0.064002625644207,0.01707661896944046,0.024709759280085564,0.0031116732861846685,0.01848476566374302,-0.007274680770933628,0.039213720709085464,-0.05071147903800011,0.18870499730110168,-0.19401031732559204,0.14326845109462738,-0.4570385217666626,-0.012129336595535278,-0.7485074996948242,1.043086051940918,-0.1058143600821495,0.2187635749578476,-0.5503730773925781,-0.0785798728466034,-0.01570892706513405,-0.05487778037786484,-0.07238703966140747,0.7599241137504578,-0.5479859709739685,0.7802058458328247,-1.0509284734725952,0.7692997455596924
1760540645.2102518,0.02,0.05793031305074692,0.08091160655021667,-0.26248833537101746,0.012158701196312904,0.006978653371334076,-0.9999017119407654,0.0,0.0,-1.0,-0.08798779547214508,0.038117170333862305,0.025792360305786133,0.00423069903627038,-0.014099538326263428,0.1003870964050293,-0.0472092367708683,0.04743832349777222,-0.0013332366943359375,0.08195541054010391,-0.04486960172653198,0.06290417909622192,0.0,0.0,0.0,0.0,-0.025273462757468224,0.0038562954869121313,0.005146730225533247,0.04316903278231621,-0.020630864426493645,0.027535295113921165,0.020508917048573494,0.020782137289643288,-0.020988814532756805,0.03472646698355675,0.012171543203294277,0.054283689707517624,-0.09399830549955368,0.14074958860874176,-0.22128979861736298,0.14616911113262177,-0.7394002676010132,0.09074574708938599,-1.119667649269104,1.9402008056640625,-0.3356049358844757,0.40836620330810547,-1.359036922454834,0.15012648701667786,-0.13345059752464294,0.05007722228765488,-0.12348946183919907,0.9173679947853088,-0.47072386741638184,0.4892471134662628,-0.896207869052887,0.24744977056980133
1760540645.2641122,0.02,0.05422751232981682,0.05248217657208443,-0.2589474618434906,0.01718192547559738,0.002553053665906191,-0.9998491406440735,0.0,0.0,-1.0,-0.09788580983877182,0.03929615020751953,0.02623307704925537,0.03266202658414841,-0.017750263214111328,0.09711968898773193,-0.04591098427772522,0.05227309465408325,-0.010316967964172363,0.09508667886257172,-0.033538758754730225,0.08082777261734009,0.0,0.0,0.0,0.0,-0.02521360293030739,0.0009045676561072469,0.0009221720392815769,0.08507629483938217,-0.005148266442120075,-0.026336902752518654,-0.009110921993851662,0.005375581327825785,-0.019769392907619476,0.031446970999240875,0.03198138251900673,0.03488921374082565,-0.08820317685604095,0.02225862257182598,-0.20630894601345062,-0.0574776791036129,-0.3791935443878174,0.04708656668663025,-1.3251038789749146,2.03464412689209,-0.2948770523071289,0.3959874212741852,-1.8677476644515991,0.24286633729934692,-0.13777880370616913,0.017490588128566742,-0.2072017639875412,0.7946913838386536,-0.841439962387085,0.0667850598692894,-0.8282853960990906,-0.3815698027610779
1760540645.3182395,0.02,0.02369719184935093,0.010687178000807762,-0.2531518042087555,0.018844593316316605,-0.0004041544161736965,-0.9998223185539246,0.0,0.0,-1.0,-0.10880385339260101,0.03900253772735596,0.021432161331176758,0.07037051767110825,-0.015927016735076904,0.07320809364318848,-0.056724775582551956,0.049821555614471436,-0.019473671913146973,0.10630381852388382,-0.022282779216766357,0.08619487285614014,0.0,0.0,0.0,0.0,-0.03057904541492462,-0.00289347255602479,-0.013850584626197815,0.09505167603492737,0.0053566815331578255,-0.06435529887676239,-0.03893693909049034,-0.013926724903285503,-0.018260469660162926,0.022990085184574127,0.02906513772904873,0.0058227479457855225,-0.09009110182523727,-0.05735918506979942,-0.1881324052810669,-0.0032574639189988375,0.0549655519425869,0.07967662811279297,-1.3167489767074585,1.6212708950042725,-0.17949432134628296,0.299416184425354,-1.7912696599960327,0.2226962149143219,-0.1657835841178894,0.044120125472545624,-0.43290603160858154,0.6402360796928406,-0.7629460096359253,-0.22494903206825256,-0.7537089586257935,-0.3847447633743286
1760540645.3731785,0.02,-0.02193211391568184,-0.014529531821608543,-0.2580640912055969,0.018207145854830742,-8.987216278910637e-05,-0.9998342394828796,0.0,0.0,-1.0,-0.12326271086931229,0.03878539800643921,0.012262821197509766,0.10510925948619843,-0.01061183214187622,0.04059958457946777,-0.07599245756864548,0.036281585693359375,-0.015269279479980469,0.1139528900384903,-0.014505505561828613,0.08402770757675171,0.0,0.0,0.0,0.0,-0.040048737078905106,-0.0009983503259718418,-0.020403269678354263,0.07809621095657349,0.01271775271743536,-0.07658646255731583,-0.05301344022154808,-0.03839045390486717,0.011658886447548866,0.013589084148406982,0.01932358369231224,-0.009442820213735104,-0.09515544772148132,-0.08080854266881943,-0.20196127891540527,0.0754731222987175,0.11039087176322937,0.16023388504981995,-1.2181918621063232,1.2243576049804688,-0.08061238378286362,0.16359196603298187,-1.3235929012298584,0.19220685958862305,-0.07682031393051147,0.0525335855782032,-0.5071185231208801,0.5412366390228271,-0.7393937706947327,-0.30298879742622375,-0.8176860213279724,-0.11078153550624847
1760540645.4310753,0.02,-0.055983901023864746,-0.03282135725021362,-0.2691144049167633,0.015966348350048065,0.003485186491161585,-0.9998664259910583,0.0,0.0,-1.0,-0.14146435260772705,0.039364397525787354,0.0011572837829589844,0.12964984774589539,-0.003622293472290039,0.0076885223388671875,-0.09549089521169662,0.015354454517364502,8.159875869750977e-05,0.11844611912965775,-0.009821414947509766,0.0758318305015564,0.0,0.0,0.0,0.0,-0.04834644868969917,0.00027769297594204545,-0.02551264874637127,0.04911835864186287,0.015442374162375927,-0.072245754301548,-0.04479455575346947,-0.05166054517030716,0.03269343078136444,0.008244268596172333,0.01065836101770401,-0.024838535115122795,-0.15242648124694824,-0.052304964512586594,-0.2518799901008606,0.13936114311218262,0.02419152483344078,0.21794530749320984,-1.0834072828292847,0.9177071452140808,-0.01530950516462326,0.024808473885059357,-0.7774088382720947,0.16982942819595337,0.0477881096303463,0.015492564998567104,-0.48174038529396057,0.45023298263549805,-0.7386267185211182,-0.18306365609169006,-1.0220296382904053,0.18338920176029205
1760540645.484292,0.02,0.044608812779188156,0.02263806201517582,-0.2548452913761139,0.01489438395947218,0.00437704985961318,-0.9998794794082642,0.0,0.0,-1.0,-0.15727365016937256,0.043080806732177734,-0.008970379829406738,0.14646939933300018,0.0061689019203186035,-0.021634936332702637,-0.09847717732191086,0.009599268436431885,-0.0038368701934814453,0.12521913647651672,-0.008595407009124756,0.06623512506484985,0.0,0.0,0.0,0.0,-0.028580820187926292,0.01662359945476055,-0.019498560577630997,0.04210996627807617,0.026037609204649925,-0.05690421536564827,0.02264227159321308,0.026136502623558044,-0.046806640923023224,0.025531431660056114,-0.0012433705851435661,-0.009454373270273209,-0.17083284258842468,0.016037670895457268,-0.1458764225244522,0.2073102742433548,0.05437856540083885,0.28747132420539856,-0.9040464162826538,0.5715790390968323,0.083042211830616,-0.11139126867055893,-0.2654803395271301,0.13366267085075378,0.16115188598632812,-0.06035151332616806,-0.3674897253513336,0.3878728151321411,-0.7080770134925842,0.08846011012792587,-1.2332632541656494,0.6035298705101013
1760540645.5375423,0.02,-0.05596137046813965,-0.00678977370262146,-0.2066868394613266,0.015567943453788757,0.007477142848074436,-0.999850869178772,0.0,0.0,-1.0,-0.17543019354343414,0.05274629592895508,-0.021678030490875244,0.13928206264972687,0.0030968189239501953,-0.0067942142486572266,-0.09775623679161072,0.024070262908935547,-0.017406105995178223,0.12344571202993393,-0.010550320148468018,0.058634936809539795,0.0,0.0,0.0,0.0,-0.04931075870990753,0.03240599483251572,-0.05316346511244774,-0.05091558024287224,-0.030005542561411858,0.08515126258134842,-0.006042547523975372,0.03683238849043846,-0.025954728946089745,-0.010693748481571674,-0.010008606128394604,-0.019427258521318436,-0.182716965675354,0.027722543105483055,-0.26324066519737244,0.23625393211841583,0.30986300110816956,0.2170127034187317,-0.964773416519165,-0.28140905499458313,0.3258169889450073,-0.17733125388622284,0.4210115969181061,-0.14425459504127502,0.19440966844558716,-0.3975624740123749,-0.08100974559783936,0.3028808832168579,-0.9125455617904663,0.39762964844703674,-1.2776480913162231,0.8959833979606628
1760540645.5900624,0.02,-0.006646191701292992,-0.032563965767621994,-0.2012336403131485,0.01331847533583641,0.00995442271232605,-0.9998617768287659,0.0,0.0,-1.0,-0.19056034088134766,0.06706422567367554,-0.050373613834381104,0.12284652143716812,-0.0015253424644470215,0.013005375862121582,-0.09755869954824448,0.034287989139556885,-0.025530695915222168,0.11945327371358871,-0.014007747173309326,0.04860818386077881,0.0,0.0,0.0,0.0,-0.029627904295921326,0.04077713564038277,-0.09142111986875534,-0.03595646098256111,-0.005530474707484245,0.03986256569623947,0.005337255075573921,0.02035466395318508,-0.014646691270172596,-0.004312081728130579,-0.009689204394817352,-0.01875467412173748,-0.15837717056274414,-0.020710203796625137,-0.22455957531929016,0.2546936273574829,0.5339997410774231,0.09050467610359192,-0.9074560403823853,-1.367025375366211,0.84141606092453,-0.133164182305336,1.5262861251831055,-0.43223217129707336,0.06736311316490173,-0.22081200778484344,0.20391428470611572,0.46639132499694824,-0.9598833322525024,0.6921571493148804,-1.1856729984283447,1.4664100408554077
1760540645.6437454,0.02,0.012465418316423893,-0.03915168717503548,-0.21422185003757477,0.010189184918999672,0.00994918029755354,-0.9998986124992371,0.0,0.0,-1.0,-0.18763801455497742,0.07031261920928955,-0.06293195486068726,0.10904822498559952,0.006434500217437744,0.024732470512390137,-0.09344186633825302,0.03709268569946289,-0.028898239135742188,0.11455492675304413,-0.014873921871185303,0.04044884443283081,0.0,0.0,0.0,0.0,0.027243275195360184,-0.005329532083123922,-0.011334279552102089,-0.024556415155529976,0.038153763860464096,0.025597020983695984,0.014074929058551788,0.00054171186638996,-0.0033048558980226517,-0.013795042410492897,-0.0005049837636761367,-0.008600554428994656,-0.254296213388443,0.2899211049079895,-0.15761695802211761,0.32352933287620544,0.9432501792907715,0.05387240648269653,-0.5514777898788452,-2.69276762008667,1.1105055809020996,-0.15748313069343567,2.6780612468719482,-0.643889844417572,0.06103875860571861,-0.1800963133573532,0.2752813696861267,0.44458383321762085,-0.9432523250579834,1.0289784669876099,-1.028577208518982,1.6030365228652954
1760540645.697574,0.02,-0.0013693813234567642,-0.05170668289065361,-0.23017868399620056,0.0059441495686769485,0.010372298769652843,-0.9999285340309143,0.0,0.0,-1.0,-0.1616983562707901,0.054647624492645264,-0.04417949914932251,0.09458863735198975,0.025143861770629883,0.02301502227783203,-0.08855171501636505,0.03543311357498169,-0.028018951416015625,0.09964499622583389,-0.009265720844268799,0.025153934955596924,0.0,0.0,0.0,0.0,0.0825830027461052,-0.05004088953137398,0.06400131434202194,-0.034006863832473755,0.061931855976581573,-0.008191793225705624,0.014433338306844234,-0.007925303652882576,0.007040962111204863,-0.041874099522829056,0.015146213583648205,-0.0317140594124794,-0.28741639852523804,0.0903502032160759,-0.17486517131328583,0.3949698507785797,0.9146441221237183,-0.025530576705932617,-0.1964569091796875,-3.240854501724243,1.1176334619522095,-0.2146749347448349,3.2672793865203857,-0.9446396231651306,0.08485420048236847,-0.19331185519695282,0.15960726141929626,0.19223706424236298,-1.0784595012664795,1.3399955034255981,-1.3790303468704224,1.7462087869644165
1760540645.7520647,0.02,0.03189690411090851,-0.05832498148083687,-0.2551521956920624,0.0011671875836327672,0.007879050448536873,-0.9999682903289795,0.0,0.0,-1.0,-0.11921795457601547,0.032832324504852295,-0.015389740467071533,0.07936444878578186,0.04195225238800049,0.018627524375915527,-0.07960045337677002,0.03007972240447998,-0.023475170135498047,0.08488909155130386,-0.00418168306350708,0.009121596813201904,0.0,0.0,0.0,0.0,0.11192283779382706,-0.05279826745390892,0.06910672783851624,-0.03942405432462692,0.03487316146492958,-0.015937529504299164,0.023731132969260216,-0.014883327297866344,0.010823789052665234,-0.03537479043006897,0.006862695794552565,-0.03130126744508743,-0.24642899632453918,0.10076961666345596,-0.1661880612373352,0.43681690096855164,0.6901417970657349,0.04310068488121033,0.006196647882461548,-2.8251593112945557,0.8313177824020386,-0.1603938490152359,2.926788806915283,-0.8221426010131836,0.0985388457775116,-0.03110382705926895,0.0489070862531662,0.06822974979877472,-0.8957103490829468,1.3695785999298096,-1.2776198387145996,1.8976458311080933
1760540645.8045185,0.02,0.011328493244946003,-0.034917864948511124,-0.271206796169281,-0.0023870840668678284,0.006081746891140938,-0.9999786615371704,0.0,0.0,-1.0,-0.07928524166345596,0.017244040966033936,0.0073201656341552734,0.062168773263692856,0.05020415782928467,0.014959216117858887,-0.07105659693479538,0.024621546268463135,-0.016495704650878906,0.07304400205612183,-0.007252871990203857,0.0015153288841247559,0.0,0.0,0.0,0.0,0.09004001319408417,-0.029936864972114563,0.0463690422475338,-0.05208951234817505,0.01550149917602539,-0.014750911854207516,0.018526731058955193,-0.01304781436920166,0.01852027140557766,-0.030413348227739334,-0.015275539830327034,-0.01017516478896141,-0.24909858405590057,0.12878349423408508,-0.18657319247722626,0.4507339596748352,0.4123902916908264,0.10288983583450317,0.04678353667259216,-1.9744462966918945,0.6409061551094055,-0.13764509558677673,2.134061098098755,-0.587519109249115,0.16940362751483917,0.008818290196359158,-0.031101204454898834,0.0647192895412445,-0.8402093648910522,1.4782918691635132,-1.1566247940063477,1.9442050457000732
1760540645.8595586,0.02,-0.004458154086023569,-0.00608978234231472,-0.26600855588912964,-0.0037268258165568113,0.005901378579437733,-0.9999756217002869,0.0,0.0,-1.0,-0.053241364657878876,0.011422336101531982,0.020630598068237305,0.04469255730509758,0.04872041940689087,0.01706719398498535,-0.06485617905855179,0.0218888521194458,-0.008195877075195312,0.06331229954957962,-0.01643437147140503,-0.0003522634506225586,0.0,0.0,0.0,0.0,0.050369299948215485,-0.00599304772913456,0.024635687470436096,-0.044379428029060364,-0.01201803982257843,0.013179508037865162,0.013158271089196205,-0.003497287631034851,0.020039016380906105,-0.024910228326916695,-0.026430968195199966,-0.0003736369253601879,-0.286233514547348,0.17496472597122192,-0.20384840667247772,0.4346630275249481,0.276308536529541,0.11717638373374939,0.004461497068405151,-1.0972249507904053,0.4660264849662781,-0.12000130861997604,1.1944618225097656,-0.383608341217041,0.20480042695999146,-0.02738741785287857,-0.032787807285785675,0.1076589822769165,-0.9261488318443298,1.476503849029541,-1.0789365768432617,1.84758460521698
1760540645.9143665,0.02,-0.003401412395760417,0.01276481430977583,-0.2556499242782593,-0.003217363730072975,0.0063622500747442245,-0.9999746084213257,0.0,0.0,-1.0,-0.04431083798408508,0.013508975505828857,0.02440321445465088,0.02668108232319355,0.038585007190704346,0.02880871295928955,-0.06033938750624657,0.022868990898132324,-0.0012197494506835938,0.061145372688770294,-0.029620051383972168,0.0066062211990356445,0.0,0.0,0.0,0.0,0.008707351051270962,0.01098680030554533,0.002178023336455226,-0.04378063976764679,-0.03329190984368324,0.03773079067468643,0.010646633803844452,0.006232655141502619,0.013913393020629883,-0.001507240696810186,-0.03330117464065552,0.019324300810694695,-0.27200281620025635,0.228332981467247,-0.20954428613185883,0.36675962805747986,0.1911132037639618,0.09128114581108093,-0.1042306125164032,-0.4519292414188385,0.34513139724731445,-0.10089807957410812,0.4692000448703766,-0.2441582977771759,0.1976296603679657,-0.027415432035923004,-0.01702015846967697,0.23315884172916412,-0.943187415599823,1.4185343980789185,-1.0268675088882446,1.611086368560791
1760540645.9676733,0.02,-0.027235781773924828,0.03395603597164154,-0.237529456615448,-0.001041260315105319,0.008894949220120907,-0.9999598860740662,0.0,0.0,-1.0,-0.05419256165623665,0.021017253398895264,0.020663976669311523,0.0070498320274055,0.02280062437057495,0.049070119857788086,-0.0589006207883358,0.028113603591918945,0.0026215314865112305,0.06316995620727539,-0.04091501235961914,0.02125149965286255,0.0,0.0,0.0,0.0,-0.03567133843898773,0.023304369300603867,-0.013828608207404613,-0.04693901538848877,-0.04446076974272728,0.05698317289352417,0.0033547983039170504,0.016385572031140327,0.007515180390328169,0.003988048527389765,-0.022301925346255302,0.0328357070684433,-0.16457271575927734,0.23890607059001923,-0.2064300775527954,0.2712884843349457,0.025267895311117172,0.03423166275024414,-0.27185380458831787,0.08336269855499268,0.22658002376556396,-0.031700216233730316,-0.018567293882369995,-0.16926318407058716,0.15143181383609772,-0.07470331341028214,-0.02391522377729416,0.40821510553359985,-0.8443573117256165,1.3014334440231323,-1.003258228302002,1.260590672492981
1760540646.0209308,0.02,-0.0008243480697274208,0.06469852477312088,-0.23953479528427124,0.003398891305550933,0.010349678806960583,-0.9999406933784485,0.0,0.0,-1.0,-0.07152268290519714,0.029349803924560547,0.015771031379699707,-0.009246387518942356,0.005071043968200684,0.07670712471008301,-0.056104302406311035,0.03482931852340698,0.006768226623535156,0.06669359654188156,-0.04635310173034668,0.03757256269454956,0.0,0.0,0.0,0.0,-0.03920285776257515,0.01778947003185749,-0.006952275987714529,-0.031218264251947403,-0.04236578568816185,0.06291037797927856,0.011168738827109337,0.017314964905381203,0.009968222118914127,0.011873501352965832,-0.008015986531972885,0.038911912590265274,-0.11050082743167877,0.21066871285438538,-0.1843404471874237,0.24204997718334198,-0.282661110162735,-0.015231937170028687,-0.5733098983764648,0.6995934247970581,0.02619621902704239,0.1456851363182068,-0.3702004551887512,-0.10069456696510315,0.033032070845365524,-0.043490804731845856,-0.08732947707176208,0.6721993088722229,-0.6552236080169678,1.0068066120147705,-0.9847070574760437,0.8573668599128723
1760540646.0765142,0.02,0.04855711758136749,0.08451107144355774,-0.252934068441391,0.009657716378569603,0.007406105287373066,-0.9999259114265442,0.0,0.0,-1.0,-0.08354636281728745,0.03416198492050171,0.016252636909484863,-0.007372123654931784,-0.009639918804168701,0.09884250164031982,-0.04750465229153633,0.04168391227722168,0.0038523077964782715,0.07652260363101959,-0.045371830463409424,0.057639360427856445,0.0,0.0,0.0,0.0,-0.027591828256845474,0.008662360720336437,0.009425840340554714,0.023990212008357048,-0.02976633980870247,0.03848741203546524,0.02216293476521969,0.014169151894748211,-0.011496602557599545,0.026677561923861504,0.004231258761137724,0.0467570424079895,-0.06542611122131348,0.1834487020969391,-0.2174113541841507,0.054481010884046555,-0.6263930201530457,0.0334031879901886,-0.9826352596282959,1.6086711883544922,-0.2593366503715515,0.36384397745132446,-1.1219056844711304,0.11510293930768967,-0.09082676470279694,0.06225308030843735,-0.14878854155540466,0.8745229840278625,-0.658062219619751,0.6305530667304993,-0.8850109577178955,0.3443809151649475
1760540646.1339738,0.02,0.07319816946983337,0.08305086195468903,-0.2591656744480133,0.01616589166224003,0.0015960200689733028,-0.9998680353164673,0.0,0.0,-1.0,-0.09211156517267227,0.03714257478713989,0.01807880401611328,0.017426418140530586,-0.018179118633270264,0.10408294200897217,-0.041334059089422226,0.04883319139480591,-0.010712981224060059,0.09032312780618668,-0.039284467697143555,0.07763481140136719,0.0,0.0,0.0,0.0,-0.0223798006772995,0.0054359580390155315,0.0059729767963290215,0.07944300770759583,-0.016061026602983475,-0.003793574869632721,0.005201279651373625,0.013850538991391659,-0.033712565898895264,0.03272424265742302,0.020331749692559242,0.047419000416994095,-0.11495250463485718,0.08479516953229904,-0.19807489216327667,-0.03248893469572067,-0.588889479637146,0.13305720686912537,-1.2690848112106323,2.115844249725342,-0.35242581367492676,0.4507870376110077,-1.8309963941574097,0.28828638792037964,-0.16940972208976746,0.10449568182229996,-0.1712941974401474,0.9065815210342407,-0.643847644329071,0.3150288760662079,-0.7908019423484802,-0.061843857169151306
1760540646.1874897,0.02,0.050835076719522476,0.03897751495242119,-0.24865563213825226,0.020330330356955528,-0.0033530262298882008,-0.9997876882553101,0.0,0.0,-1.0,-0.10155124962329865,0.039215683937072754,0.015942692756652832,0.055949851870536804,-0.018982887268066406,0.08580648899078369,-0.04803566634654999,0.04969388246536255,-0.02267169952392578,0.10300738364458084,-0.029771268367767334,0.0899161696434021,0.0,0.0,0.0,0.0,-0.024615764617919922,0.002698182128369808,-0.001955962274223566,0.10147958993911743,0.0018836604431271553,-0.058662284165620804,-0.03178351745009422,-0.005401615519076586,-0.023067491129040718,0.026425931602716446,0.02825331501662731,0.019169816747307777,-0.09579844027757645,-0.017372015863656998,-0.17507800459861755,-0.02798767201602459,-0.05890456214547157,0.11072954535484314,-1.3356043100357056,1.7759056091308594,-0.21390339732170105,0.3316740095615387,-1.9619280099868774,0.2709844708442688,-0.18036389350891113,0.07754714041948318,-0.2948349416255951,0.7370143532752991,-0.7893111705780029,-0.07892201095819473,-0.6966188549995422,-0.29765599966049194
1760540646.2401807,0.02,-0.006342163309454918,0.0015885892789810896,-0.2505665719509125,0.021341390907764435,-0.004355534911155701,-0.999762773513794,0.0,0.0,-1.0,-0.11509508639574051,0.04056680202484131,0.009143829345703125,0.09381513297557831,-0.014417111873626709,0.052979350090026855,-0.06779516488313675,0.03994548320770264,-0.022471308708190918,0.11103706806898117,-0.020907342433929443,0.09118103981018066,0.0,0.0,0.0,0.0,-0.03790554776787758,0.0011498680105432868,-0.014879836700856686,0.08757808059453964,0.011464404873549938,-0.07988687604665756,-0.05811874195933342,-0.030376210808753967,0.003960460424423218,0.014132276177406311,0.024988556280732155,-0.00493741687387228,-0.10168764740228653,-0.07773131132125854,-0.1851593405008316,0.047479525208473206,0.10699141025543213,0.1166934072971344,-1.3017905950546265,1.3232215642929077,-0.0954522117972374,0.21620039641857147,-1.5403883457183838,0.2197844684123993,-0.11871293187141418,0.06322549283504486,-0.47440844774246216,0.5811201333999634,-0.8319999575614929,-0.2924431264400482,-0.746087372303009,-0.21995727717876434
1760540646.2938561,0.02,-0.04020094871520996,-0.02453368902206421,-0.26192712783813477,0.02006317302584648,-0.0020960583351552486,-0.9997965097427368,0.0,0.0,-1.0,-0.132476344704628,0.04174250364303589,-0.0013718008995056152,0.1228124275803566,-0.007741749286651611,0.018101096153259277,-0.09072212129831314,0.020785868167877197,-0.008536696434020996,0.11571961641311646,-0.014210402965545654,0.08378863334655762,0.0,0.0,0.0,0.0,-0.046698879450559616,0.0012587265809997916,-0.024747023358941078,0.06047879531979561,0.014817352406680584,-0.07750765979290009,-0.055528540164232254,-0.048923783004283905,0.030711710453033447,0.008146513253450394,0.01585496962070465,-0.024236520752310753,-0.13610228896141052,-0.06842167675495148,-0.22928252816200256,0.11121964454650879,0.05281847342848778,0.18221920728683472,-1.1715248823165894,0.9648358225822449,-0.020454250276088715,0.07418257743120193,-0.9413243532180786,0.18188580870628357,0.006623353809118271,0.03258389234542847,-0.5015200972557068,0.47273796796798706,-0.8160563707351685,-0.24624040722846985,-0.9313538670539856,0.06173194944858551
1760540646.3515985,0.02,-0.06402115523815155,-0.032459016889333725,-0.2789269685745239,0.017478937283158302,0.0023761317133903503,-0.9998444318771362,0.0,0.0,-1.0,-0.152814120054245,0.04282897710800171,-0.012462079524993896,0.13878247141838074,0.0008823275566101074,-0.015023767948150635,-0.1072564572095871,-0.002263784408569336,0.012955427169799805,0.1185554713010788,-0.010335206985473633,0.06858479976654053,0.0,0.0,0.0,0.0,-0.054166920483112335,0.0013132513267919421,-0.02383921854197979,0.025170564651489258,0.020640777423977852,-0.07086186856031418,-0.031796541064977646,-0.053464677184820175,0.04482419416308403,0.005071055144071579,0.00979954469949007,-0.041666485369205475,-0.14835606515407562,-0.008359844796359539,-0.2859153747558594,0.19788812100887299,0.03732990846037865,0.2602421045303345,-0.9770431518554688,0.6125777363777161,0.056425102055072784,-0.0755828246474266,-0.378340482711792,0.1444581151008606,0.1353880763053894,-0.029971323907375336,-0.4238058924674988,0.39979982376098633,-0.748660683631897,-0.003135417588055134,-1.1595635414123535,0.46573418378829956
1760540646.4065711,0.02,0.035860370844602585,0.001459549181163311,-0.2287398874759674,0.015713995322585106,0.003189847804605961,-0.9998714327812195,0.0,0.0,-1.0,-0.1686580330133438,0.04858332872390747,-0.02464580535888672,0.14265252649784088,-0.0014094114303588867,-0.008344292640686035,-0.1051943376660347,-0.0006094574928283691,0.0017783045768737793,0.12453363090753555,-0.010288894176483154,0.053801894187927246,0.0,0.0,0.0,0.0,-0.02974650263786316,0.026245510205626488,-0.03562942147254944,0.004266403149813414,-0.011666784062981606,0.04640362784266472,0.019177546724677086,0.03892229497432709,-0.044665031135082245,0.020557567477226257,-0.008432289585471153,-0.02031370997428894,-0.18659009039402008,0.07636275887489319,-0.2277994602918625,0.2505497932434082,0.308011919260025,0.3200623691082001,-0.767853856086731,0.1412750780582428,0.17201459407806396,-0.21673084795475006,0.11536133289337158,0.10258596390485764,0.23494595289230347,-0.1368347406387329,-0.2844240069389343,0.3335566520690918,-0.7108943462371826,0.2985856831073761,-1.405146598815918,0.8467358946800232
1760540646.4589403,0.02,-0.03460514545440674,-0.028263743966817856,-0.18769757449626923,0.013929848559200764,0.005960533395409584,-0.9998852014541626,0.0,0.0,-1.0,-0.184309720993042,0.0621148943901062,-0.04671686887741089,0.12691032886505127,-0.009718358516693115,0.014236211776733398,-0.1044083833694458,0.014600157737731934,-0.01114499568939209,0.12507691979408264,-0.017366647720336914,0.048453450202941895,0.0,0.0,0.0,0.0,-0.04027710482478142,0.04192965850234032,-0.07293260842561722,-0.03872833773493767,-0.0153728649020195,0.03888624161481857,-0.0007022057543508708,0.03574419766664505,-0.021714305505156517,-4.821823949896498e-06,-0.02262848988175392,-0.008889448828995228,-0.159636989235878,0.029739201068878174,-0.2928871512413025,0.25542786717414856,0.5187510251998901,0.18261611461639404,-0.900894045829773,-0.9708035588264465,0.5633500218391418,-0.19270949065685272,0.9196662902832031,-0.32918456196784973,0.17476360499858856,-0.25530296564102173,0.06586897373199463,0.4148319363594055,-0.996775209903717,0.595147430896759,-1.398025631904602,1.2311184406280518
1760540646.5134845,0.02,-0.024969730526208878,-0.03570888191461563,-0.2034919708967209,0.011101722717285156,0.009037677198648453,-0.9998975396156311,0.0,0.0,-1.0,-0.19109831750392914,0.07175660133361816,-0.06503474712371826,0.11086307466030121,-0.007301688194274902,0.025454401969909668,-0.10369820147752762,0.02408885955810547,-0.017334938049316406,0.1198674812912941,-0.02141958475112915,0.04309868812561035,0.0,0.0,0.0,0.0,-0.002854760969057679,0.01618603989481926,-0.03734434396028519,-0.036045633256435394,0.01892167329788208,0.020484086126089096,0.005418029148131609,0.017368054017424583,-0.00882935244590044,-0.016290444880723953,-0.006190326996147633,-0.0028110072016716003,-0.2213137149810791,0.23236683011054993,-0.22805021703243256,0.3089328706264496,0.8218189477920532,0.05745291709899902,-0.7402416467666626,-2.371358633041382,1.0422431230545044,-0.1217716857790947,2.2174007892608643,-0.6170397996902466,0.0904281884431839,-0.14694280922412872,0.3085125684738159,0.5090163350105286,-0.989946722984314,0.9217947125434875,-1.2913624048233032,1.584835171699524
1760540646.5683808,0.02,0.003069336526095867,-0.05894094333052635,-0.22480139136314392,0.006820786744356155,0.009520319290459156,-0.9999313950538635,0.0,0.0,-1.0,-0.17143897712230682,0.06208735704421997,-0.0538291335105896,0.0967245027422905,0.004366278648376465,0.025210022926330566,-0.09854330867528915,0.026365458965301514,-0.01924431324005127,0.10845465958118439,-0.016433358192443848,0.030530035495758057,0.0,0.0,0.0,0.0,0.07213928550481796,-0.038976769894361496,0.047507259994745255,-0.038560282438993454,0.03749826177954674,-0.003290340304374695,0.016365844756364822,-0.0010028313845396042,-0.0004619166429620236,-0.03158195689320564,0.014880569651722908,-0.02349567599594593,-0.2971133887767792,0.16035759449005127,-0.1903846263885498,0.3821747899055481,1.0519641637802124,-0.021536439657211304,-0.2960289716720581,-3.3152899742126465,1.1994802951812744,-0.1912526786327362,3.1896049976348877,-0.8978529572486877,0.09463220834732056,-0.1380309909582138,0.21881961822509766,0.2859363257884979,-1.0786617994308472,1.264886498451233,-1.3577196598052979,1.7311111688613892
1760540646.6259568,0.02,0.018843086436390877,-0.060533732175827026,-0.2522857189178467,0.001732127508148551,0.007603729609400034,-0.9999696016311646,0.0,0.0,-1.0,-0.12946796417236328,0.03982657194137573,-0.022065341472625732,0.0836515948176384,0.019274115562438965,0.017178654670715332,-0.08931879699230194,0.023140251636505127,-0.017771005630493164,0.09389498829841614,-0.00805431604385376,0.015079200267791748,0.0,0.0,0.0,0.0,0.11431975662708282,-0.05829815939068794,0.08414433151483536,-0.036189984530210495,0.03963864594697952,-0.02390601485967636,0.02349858544766903,-0.01106253918260336,0.005107943434268236,-0.03889736160635948,0.018243594095110893,-0.029621554538607597,-0.26043447852134705,0.04007565230131149,-0.16795992851257324,0.4326123297214508,0.8346667289733887,0.007175058126449585,0.0017456412315368652,-3.0930075645446777,1.0185672044754028,-0.14843904972076416,3.143876314163208,-0.8738048076629639,0.11595103144645691,-0.0325528159737587,0.08992989361286163,0.10271760076284409,-0.9368613958358765,1.3225301504135132,-1.2609312534332275,1.8942607641220093
1760540646.6784782,0.02,0.001954862615093589,-0.03873717039823532,-0.2711651921272278,-0.0021289302967488766,0.006637390702962875,-0.9999756813049316,0.0,0.0,-1.0,-0.08688502013683319,0.021950721740722656,0.006355166435241699,0.06771220266819,0.030376315116882324,0.009611129760742188,-0.0805126428604126,0.01805335283279419,-0.012912392616271973,0.0789308249950409,-0.005651652812957764,0.006147801876068115,0.0,0.0,0.0,0.0,0.09862743318080902,-0.03513207659125328,0.05923343822360039,-0.050130557268857956,0.024339597672224045,-0.024380318820476532,0.01971658132970333,-0.013562353327870369,0.014603621326386929,-0.03840658441185951,-0.0016737094847485423,-0.014142907224595547,-0.24879716336727142,0.11572494357824326,-0.16900821030139923,0.459714412689209,0.4892617464065552,0.1136113703250885,0.07558619976043701,-2.2486186027526855,0.7283231616020203,-0.10949421674013138,2.4028759002685547,-0.6441320776939392,0.18331745266914368,0.014828047715127468,-0.03831768035888672,0.04373502731323242,-0.829666018486023,1.4519810676574707,-1.0855714082717896,1.974476933479309
1760540646.734575,0.02,-0.0013215767685323954,-0.00952973309904337,-0.26858410239219666,-0.0038019726052880287,0.006454994902014732,-0.9999719262123108,0.0,0.0,-1.0,-0.05626466125249863,0.014916837215423584,0.023108243942260742,0.051513515412807465,0.03229522705078125,0.007386207580566406,-0.07306458055973053,0.014797568321228027,-0.004977703094482422,0.06575389951467514,-0.010568022727966309,0.0018826127052307129,0.0,0.0,0.0,0.0,0.0629231333732605,-0.008002142421901226,0.031229233369231224,-0.040293943136930466,-0.004088298417627811,0.0012121755862608552,0.01705699972808361,-0.005446078721433878,0.020198961719870567,-0.03195575252175331,-0.017758356407284737,-0.007881362922489643,-0.27947935461997986,0.17176102101802826,-0.2009710818529129,0.44991570711135864,0.3029034435749054,0.1370272934436798,0.040389448404312134,-1.2733714580535889,0.5209606885910034,-0.11513327807188034,1.4542322158813477,-0.4306160807609558,0.22092559933662415,-0.027685709297657013,-0.05976445972919464,0.06587262451648712,-0.8814833760261536,1.4005111455917358,-1.0853688716888428,1.9442284107208252
1760540646.7878456,0.02,0.0020133154466748238,0.012271475978195667,-0.25982844829559326,-0.0034343006554991007,0.006479784846305847,-0.9999731183052063,0.0,0.0,-1.0,-0.04251373931765556,0.016813695430755615,0.029171109199523926,0.03510770574212074,0.02617257833480835,0.015571117401123047,-0.06685539335012436,0.015242695808410645,0.0028496384620666504,0.059165097773075104,-0.021366357803344727,0.004139363765716553,0.0,0.0,0.0,0.0,0.020032666623592377,0.011219371110200882,0.007030286826193333,-0.039926670491695404,-0.022413460537791252,0.030190134420990944,0.014925925992429256,0.005091924220323563,0.01669260673224926,-0.012856736779212952,-0.03003176860511303,0.009123130701482296,-0.2808421552181244,0.19760054349899292,-0.2134903520345688,0.4086523950099945,0.21570083498954773,0.12615546584129333,-0.05774196982383728,-0.5305914282798767,0.3834657669067383,-0.10151489824056625,0.6295647621154785,-0.2696521580219269,0.21813352406024933,-0.04902596026659012,-0.04015185683965683,0.1665644496679306,-0.9190592169761658,1.3445905447006226,-1.0564944744110107,1.7494748830795288
1760540646.840692,0.02,-0.022475363686680794,0.025831935927271843,-0.24048231542110443,-0.0017985842423513532,0.008180215023458004,-0.9999649524688721,0.0,0.0,-1.0,-0.04683249071240425,0.0234067440032959,0.027755379676818848,0.01752077415585518,0.014398574829101562,0.032711029052734375,-0.06339767575263977,0.020769178867340088,0.006161868572235107,0.06189839169383049,-0.03577828407287598,0.017387568950653076,0.0,0.0,0.0,0.0,-0.022992318496108055,0.019743505865335464,-0.007225021719932556,-0.04329964891076088,-0.03387923911213875,0.050926774740219116,0.0070350016467273235,0.018639622256159782,0.0041055516339838505,0.008542688563466072,-0.032426171004772186,0.027454664930701256,-0.1922997087240219,0.1946994662284851,-0.21578648686408997,0.311046302318573,0.10758161544799805,0.057057470083236694,-0.19580215215682983,0.01753164455294609,0.2666606307029724,-0.07137253135442734,0.0487208217382431,-0.17643558979034424,0.18529106676578522,-0.08444619178771973,-0.038660287857055664,0.3267139196395874,-0.8207376003265381,1.230195164680481,-1.0387468338012695,1.4003369808197021
1760540646.8953,0.02,-0.0214268509298563,0.05402299389243126,-0.23260435461997986,0.0019080715719610453,0.011483189649879932,-0.9999322295188904,0.0,0.0,-1.0,-0.06484511494636536,0.031229853630065918,0.023810267448425293,5.822011735290289e-05,0.0008168220520019531,0.05793917179107666,-0.06207999959588051,0.029844462871551514,0.007823288440704346,0.06389467418193817,-0.044049739837646484,0.032652318477630615,0.0,0.0,0.0,0.0,-0.041615989059209824,0.01712794043123722,-0.007858071476221085,-0.034976787865161896,-0.031987980008125305,0.05873694643378258,0.007376592140644789,0.023919686675071716,0.0037861899472773075,0.010495046153664589,-0.012844706885516644,0.026225576177239418,-0.12633809447288513,0.17030896246433258,-0.204063281416893,0.2226618081331253,-0.2003476619720459,-0.009575814008712769,-0.4664047658443451,0.5647186636924744,0.1003837063908577,0.07297921925783157,-0.25883880257606506,-0.1411137580871582,0.08563508093357086,-0.12674573063850403,-0.05451400578022003,0.5615392327308655,-0.649968683719635,1.0003880262374878,-1.0465596914291382,1.0092962980270386
1760540646.9506972,0.02,0.020888643339276314,0.07261194288730621,-0.2502906620502472,0.007253340911120176,0.010759750381112099,-0.9999157786369324,0.0,0.0,-1.0,-0.07901362329721451,0.03552883863449097,0.02420830726623535,-0.004819955676794052,-0.011616826057434082,0.08293020725250244,-0.055125147104263306,0.0378231406211853,0.008493781089782715,0.07143910974264145,-0.04643946886062622,0.05009526014328003,0.0,0.0,0.0,0.0,-0.03382658213376999,0.008540913462638855,0.007545443717390299,0.00015151104889810085,-0.028226716443896294,0.05673417076468468,0.020377783104777336,0.019206367433071136,-0.002989725209772587,0.0212686937302351,-0.003003422636538744,0.041212160140275955,-0.040546078234910965,0.17718778550624847,-0.18847426772117615,0.11724591255187988,-0.5696513652801514,0.03168407082557678,-0.8400338888168335,1.3262124061584473,-0.1694813370704651,0.27354225516319275,-0.7488522529602051,-0.005550950765609741,-0.0482434518635273,-0.03422165662050247,-0.09868630021810532,0.8122217059135437,-0.507678210735321,0.6697207093238831,-0.95420902967453,0.6291713118553162
1760540647.007832,0.02,0.06496069580316544,0.07723866403102875,-0.2633914351463318,0.013168679550290108,0.006154810078442097,-0.9998943209648132,0.0,0.0,-1.0,-0.0888940840959549,0.037721335887908936,0.02570950984954834,0.01130089070647955,-0.018822193145751953,0.09489881992340088,-0.04610917344689369,0.04603689908981323,-0.0015906095504760742,0.08449604362249374,-0.04217946529388428,0.06869953870773315,0.0,0.0,0.0,0.0,-0.023553049191832542,0.002133903093636036,0.005758070386946201,0.059428613632917404,-0.012261687777936459,0.012275679968297482,0.0173483956605196,0.016332929953932762,-0.025655454024672508,0.03363717719912529,0.013631393201649189,0.04497868940234184,-0.0980396568775177,0.10083065181970596,-0.21085003018379211,0.0054222955368459225,-0.6896462440490723,0.10593995451927185,-1.1718071699142456,2.0371811389923096,-0.34132567048072815,0.40772169828414917,-1.5225725173950195,0.19910863041877747,-0.130722314119339,0.05063452571630478,-0.15900301933288574,0.885943591594696,-0.5246001482009888,0.3644421398639679,-0.8501855731010437,0.06812156736850739
1760540647.0595539,0.02,0.05602486804127693,0.04392659291625023,-0.25833526253700256,0.01739264652132988,0.0011095453519374132,-0.9998481273651123,0.0,0.0,-1.0,-0.09821829199790955,0.038361191749572754,0.02461075782775879,0.04411997273564339,-0.019245624542236328,0.08599519729614258,-0.04618288204073906,0.049434125423431396,-0.01379084587097168,0.0981033444404602,-0.03287911415100098,0.08151412010192871,0.0,0.0,0.0,0.0,-0.023789945989847183,-0.000922301784157753,0.0014234590344130993,0.0914105772972107,0.003634128486737609,-0.03861229121685028,-0.013617086224257946,0.0015713516622781754,-0.02523469738662243,0.02997342310845852,0.02845156006515026,0.022644435986876488,-0.07161404937505722,0.006916059646755457,-0.19084347784519196,-0.026440775021910667,-0.23842722177505493,0.12784376740455627,-1.2669910192489624,1.893820881843567,-0.260300874710083,0.33657366037368774,-1.8657172918319702,0.24381056427955627,-0.15841402113437653,0.05728580057621002,-0.21991956233978271,0.7689692974090576,-0.6447904706001282,0.011737371794879436,-0.7613401412963867,-0.21663729846477509
1760540647.1164706,0.02,0.005360946990549564,0.00876315776258707,-0.25520312786102295,0.018846148625016212,-0.0006451129447668791,-0.999822199344635,0.0,0.0,-1.0,-0.110804483294487,0.03827214241027832,0.020003676414489746,0.08081737160682678,-0.014581382274627686,0.060096144676208496,-0.05968200042843819,0.04420268535614014,-0.019147157669067383,0.10777822136878967,-0.022737324237823486,0.08482992649078369,0.0,0.0,0.0,0.0,-0.03463740646839142,-0.0021270320285111666,-0.00903301127254963,0.08898314088582993,0.011384406127035618,-0.06604576855897903,-0.04471682012081146,-0.01985746994614601,-0.00869304221123457,0.019228901714086533,0.027435336261987686,0.0010755289113149047,-0.08433503657579422,-0.06601568311452866,-0.1909482181072235,0.0027949088253080845,0.07776576280593872,0.11770567297935486,-1.2648934125900269,1.4971861839294434,-0.1665380895137787,0.23680387437343597,-1.6816167831420898,0.22773686051368713,-0.13794441521167755,0.054951414465904236,-0.42978203296661377,0.617831289768219,-0.7346664667129517,-0.2543661892414093,-0.7662514448165894,-0.2907177805900574
1760540647.1726928,0.02,-0.027387578040361404,-0.01771290972828865,-0.26027870178222656,0.01800742745399475,0.000535829458385706,-0.9998376965522766,0.0,0.0,-1.0,-0.12658123672008514,0.03856229782104492,0.011342287063598633,0.11256434768438339,-0.007919073104858398,0.02867257595062256,-0.07951133698225021,0.029456138610839844,-0.012484312057495117,0.11437560617923737,-0.015428602695465088,0.08041036128997803,0.0,0.0,0.0,0.0,-0.042138662189245224,-0.00037918557063676417,-0.020460916683077812,0.07016171514987946,0.015027915127575397,-0.07216542214155197,-0.05164964869618416,-0.03995076194405556,0.01588934101164341,0.012397389858961105,0.01819019205868244,-0.01650177501142025,-0.12643922865390778,-0.07780662924051285,-0.21725253760814667,0.0890197679400444,0.10521560907363892,0.18505007028579712,-1.1747705936431885,1.13810396194458,-0.07268428057432175,0.11181680113077164,-1.202558994293213,0.1975063979625702,-0.04970705881714821,0.05232425779104233,-0.49720633029937744,0.514961302280426,-0.7170286774635315,-0.29061201214790344,-0.8794289231300354,-0.030811354517936707
1760540647.2261095,0.02,-0.05821545794606209,-0.030739223584532738,-0.27268221974372864,0.015726957470178604,0.004421945661306381,-0.9998665452003479,0.0,0.0,-1.0,-0.1456192433834076,0.03932899236679077,0.0009175539016723633,0.1334221214056015,0.0001799464225769043,-0.0025720596313476562,-0.09752116352319717,0.00882798433303833,0.0038071870803833008,0.11839320510625839,-0.011105537414550781,0.06971943378448486,0.0,0.0,0.0,0.0,-0.05013468489050865,0.0002391547750448808,-0.022651411592960358,0.039513565599918365,0.018487904220819473,-0.06794486939907074,-0.039572276175022125,-0.04979291185736656,0.03470199927687645,0.007930736057460308,0.009624196216464043,-0.02946765534579754,-0.16662295162677765,-0.03548767790198326,-0.26406702399253845,0.1646265834569931,0.02350076660513878,0.24373087286949158,-1.0319981575012207,0.8359288573265076,0.005072601139545441,-0.022066615521907806,-0.680019736289978,0.16607630252838135,0.06991121172904968,0.014719991944730282,-0.4404272437095642,0.4443122148513794,-0.7223204374313354,-0.1163669005036354,-1.070315957069397,0.3188781142234802
1760540647.2804117,0.02,0.034340985119342804,0.028607046231627464,-0.24108384549617767,0.016174957156181335,0.0031181881204247475,-0.9998643398284912,0.0,0.0,-1.0,-0.15941959619522095,0.04500836133956909,-0.0082550048828125,0.14783839881420135,0.007174432277679443,-0.01760345697402954,-0.09462975710630417,0.012912929058074951,-0.007321715354919434,0.12657910585403442,-0.011231720447540283,0.06286334991455078,0.0,0.0,0.0,0.0,-0.031241485849022865,0.020916489884257317,-0.02098415605723858,0.023824958130717278,-4.956391785526648e-05,0.023747533559799194,0.020242497324943542,0.033990345895290375,-0.03142828494310379,0.020932035520672798,-0.00804639421403408,-0.001909585320390761,-0.17459586262702942,0.06256680935621262,-0.21695657074451447,0.22467577457427979,0.11195775866508484,0.3019770383834839,-0.8597947359085083,0.4610641300678253,0.10330686718225479,-0.15093357861042023,-0.19676350057125092,0.12820446491241455,0.1771036684513092,-0.06075543910264969,-0.3263702094554901,0.3809043765068054,-0.701043963432312,0.1612701117992401,-1.2910947799682617,0.697781503200531
1760540647.3337946,0.02,-0.04482746124267578,-0.02172936499118805,-0.20544396340847015,0.015806717798113823,0.006884199567139149,-0.9998513460159302,0.0,0.0,-1.0,-0.1780770868062973,0.055968403816223145,-0.02632230520248413,0.13502632081508636,0.0010166168212890625,0.00510406494140625,-0.09497841447591782,0.028004109859466553,-0.01972043514251709,0.12508326768875122,-0.015520989894866943,0.05741935968399048,0.0,0.0,0.0,0.0,-0.047003570944070816,0.03607819601893425,-0.06829026341438293,-0.045064039528369904,-0.019862163811922073,0.05690234899520874,-0.00386804505251348,0.036069925874471664,-0.02510973811149597,-0.002929368754848838,-0.014756339602172375,-0.015224220231175423,-0.12095487117767334,0.0031319798436015844,-0.29216623306274414,0.237788125872612,0.3096732199192047,0.184347003698349,-1.0014890432357788,-0.44703564047813416,0.4006863236427307,-0.16044855117797852,0.5410699844360352,-0.22737786173820496,0.1407647579908371,-0.2874913811683655,-0.02465922385454178,0.36372053623199463,-0.9040448665618896,0.48542270064353943,-1.3696424961090088,1.0127633810043335
1760540647.3904767,0.02,-0.013888617977499962,-0.03382616490125656,-0.20590631663799286,0.013053453527390957,0.009503362700343132,-0.9998696446418762,0.0,0.0,-1.0,-0.19184575974941254,0.06936544179916382,-0.0562211275100708,0.1182093471288681,-0.002147078514099121,0.02116405963897705,-0.0948806032538414,0.038101792335510254,-0.02655768394470215,0.1212235614657402,-0.019383013248443604,0.04955404996871948,0.0,0.0,0.0,0.0,-0.02850106917321682,0.03435215353965759,-0.08221665024757385,-0.03869180008769035,-0.0005185615154914558,0.03340957686305046,0.003919228445738554,0.020205356180667877,-0.010375535115599632,-0.007661902345716953,-0.007992882281541824,-0.012972761876881123,-0.10612515360116959,-0.02072245441377163,-0.24143154919147491,0.25275930762290955,0.5751122236251831,0.09014374017715454,-0.8852934837341309,-1.579750418663025,0.8466019034385681,-0.11345189064741135,1.675706386566162,-0.4949600398540497,0.0609779916703701,-0.20092271268367767,0.23682516813278198,0.5024104118347168,-0.8781396150588989,0.725187361240387,-1.304693579673767,1.4805614948272705
1760540647.4458025,0.02,0.010438097640872002,-0.04298991709947586,-0.21741816401481628,0.00964998360723257,0.009730160236358643,-0.9999061226844788,0.0,0.0,-1.0,-0.18538786470890045,0.06902104616165161,-0.06406998634338379,0.10401491075754166,0.0073961615562438965,0.030218958854675293,-0.09093953669071198,0.040557801723480225,-0.028889775276184082,0.11419364809989929,-0.017541110515594482,0.04007148742675781,0.0,0.0,0.0,0.0,0.03772451728582382,-0.015632962808012962,0.0033472676295787096,-0.02530863881111145,0.04260764643549919,0.020737336948513985,0.013841097243130207,-0.0007199604879133403,-0.0009821053827181458,-0.018657252192497253,0.007532273884862661,-0.014124474488198757,-0.2434815913438797,0.35497695207595825,-0.16412028670310974,0.3262841999530792,1.001558780670166,0.048125654458999634,-0.48260948061943054,-2.83134126663208,1.1150459051132202,-0.15880006551742554,2.8038241863250732,-0.703187882900238,0.056712713092565536,-0.20457623898983002,0.2630133330821991,0.41561460494995117,-0.8640197515487671,1.0504668951034546,-1.0904901027679443,1.5799013376235962
1760540647.5007834,0.02,-0.00034396874252706766,-0.05749617516994476,-0.2327190488576889,0.005009504500776529,0.010088110342621803,-0.999936580657959,0.0,0.0,-1.0,-0.15549691021442413,0.05047053098678589,-0.04141664505004883,0.0893096849322319,0.027239322662353516,0.02580082416534424,-0.08603610843420029,0.038673222064971924,-0.026971101760864258,0.09761910885572433,-0.009667813777923584,0.023239433765411377,0.0,0.0,0.0,0.0,0.09188061207532883,-0.055424898862838745,0.07076478004455566,-0.033996857702732086,0.06377191096544266,-0.015242560766637325,0.014450221322476864,-0.007924709469079971,0.009535755030810833,-0.045226819813251495,0.01941574178636074,-0.03600012883543968,-0.2786060869693756,0.13424231112003326,-0.18592366576194763,0.39408597350120544,0.8608266115188599,-0.03164979815483093,-0.14590239524841309,-3.191640853881836,1.094031572341919,-0.2173074632883072,3.256786584854126,-1.0243903398513794,0.0741182416677475,-0.18471382558345795,0.12766188383102417,0.15336212515830994,-1.0516146421432495,1.3813449144363403,-1.5064469575881958,1.7379308938980103
1760540647.5578425,0.02,0.03053739108145237,-0.06149505451321602,-0.25735753774642944,-8.832535240799189e-05,0.007743959780782461,-0.999970018863678,0.0,0.0,-1.0,-0.11148207634687424,0.02835768461227417,-0.012753069400787354,0.07313990592956543,0.04429423809051514,0.020044565200805664,-0.07745520025491714,0.03351426124572754,-0.021733522415161133,0.08247828483581543,-0.004312396049499512,0.007392287254333496,0.0,0.0,0.0,0.0,0.11369767040014267,-0.05148448422551155,0.06602924317121506,-0.042061980813741684,0.03444391116499901,-0.016982868313789368,0.022784041240811348,-0.014102323912084103,0.012242785654962063,-0.035029176622629166,0.00631319684907794,-0.030520683154463768,-0.24044302105903625,0.12625430524349213,-0.18032418191432953,0.43184351921081543,0.6166555285453796,0.052093684673309326,0.026473134756088257,-2.663206100463867,0.7681130766868591,-0.15817250311374664,2.7901103496551514,-0.8470460176467896,0.09315072000026703,-0.025545813143253326,0.024248093366622925,0.0540534183382988,-0.8703553676605225,1.3817975521087646,-1.3579035997390747,1.8755460977554321
1760540647.6114707,0.02,0.005621378775686026,-0.035793062299489975,-0.27082958817481995,-0.0037577273324131966,0.0063237277790904045,-0.999972939491272,0.0,0.0,-1.0,-0.07237773388624191,0.013664782047271729,0.008383631706237793,0.05497019365429878,0.052246809005737305,0.01635003089904785,-0.06967481225728989,0.028345942497253418,-0.014855742454528809,0.07110781222581863,-0.008156418800354004,0.0006322860717773438,0.0,0.0,0.0,0.0,0.08636672794818878,-0.027340790256857872,0.042147740721702576,-0.05370597913861275,0.014439825899899006,-0.015568424947559834,0.016289910301566124,-0.012225309386849403,0.01729973591864109,-0.02905670367181301,-0.017705313861370087,-0.008210479281842709,-0.24816429615020752,0.1476813554763794,-0.19348053634166718,0.4417586028575897,0.34613239765167236,0.09793227910995483,0.04709479212760925,-1.7839275598526,0.590785026550293,-0.13511976599693298,1.967719554901123,-0.5867186188697815,0.165651336312294,-0.0025808000937104225,-0.04156280308961868,0.06909938156604767,-0.8303573131561279,1.471779227256775,-1.1754333972930908,1.91185462474823
1760540647.6777675,0.02,-0.008849821984767914,-0.005104443524032831,-0.264113187789917,-0.005059604533016682,0.006602027453482151,-0.9999654293060303,0.0,0.0,-1.0,-0.04872756823897362,0.008791625499725342,0.020107150077819824,0.036777108907699585,0.049738287925720215,0.01922893524169922,-0.06443923711776733,0.02583920955657959,-0.007244586944580078,0.06254681199789047,-0.018363118171691895,9.196996688842773e-05,0.0,0.0,0.0,0.0,0.04372427240014076,-0.0037629317957907915,0.02077425643801689,-0.04588000103831291,-0.015864359214901924,0.015924280509352684,0.01100883912295103,-0.0029324113857001066,0.01817452907562256,-0.021444180980324745,-0.02875003218650818,0.002929604146629572,-0.2881285846233368,0.18142874538898468,-0.20153184235095978,0.4206554591655731,0.21772879362106323,0.10758313536643982,-0.007857352495193481,-0.939012885093689,0.42643409967422485,-0.11344122141599655,1.0469692945480347,-0.3794530928134918,0.19624143838882446,-0.03916207700967789,-0.033557213842868805,0.12709714472293854,-0.9323734045028687,1.4648044109344482,-1.0695736408233643,1.7946101427078247
1760540647.7312696,0.02,-0.009162588976323605,0.01564738340675831,-0.2522274851799011,-0.004334113094955683,0.0075748679228127,-0.9999619126319885,0.0,0.0,-1.0,-0.043196722865104675,0.011558771133422852,0.022704601287841797,0.0180680975317955,0.038305461406707764,0.032557010650634766,-0.06095292791724205,0.026959121227264404,-0.001229405403137207,0.06244626268744469,-0.03246122598648071,0.009882748126983643,0.0,0.0,0.0,0.0,3.560404365998693e-05,0.012592382729053497,-0.0005674512358382344,-0.04532686993479729,-0.037626203149557114,0.04171472415328026,0.00817140843719244,0.006476269569247961,0.011216792277991772,0.003641882911324501,-0.035175345838069916,0.026459917426109314,-0.25998783111572266,0.2343709021806717,-0.20182743668556213,0.3437386155128479,0.1302294135093689,0.07656869292259216,-0.12475714087486267,-0.3146210312843323,0.3161574602127075,-0.08530943840742111,0.36482009291648865,-0.23715513944625854,0.18513166904449463,-0.04665609449148178,-0.018397152423858643,0.2720683813095093,-0.9338377714157104,1.4134061336517334,-0.9911230206489563,1.5301885604858398
1760540647.7831624,0.02,-0.029012126848101616,0.0503523163497448,-0.2362726330757141,-0.0012941320892423391,0.010854307562112808,-0.9999402761459351,0.0,0.0,-1.0,-0.05777149274945259,0.020137667655944824,0.018442153930664062,-0.0021589412353932858,0.02179574966430664,0.05578815937042236,-0.06072578206658363,0.032005906105041504,0.0028772950172424316,0.06337515264749527,-0.04358404874801636,0.024742960929870605,0.0,0.0,0.0,0.0,-0.04599028453230858,0.026563484221696854,-0.015484648756682873,-0.043497782200574875,-0.042729925364255905,0.07147107273340225,0.002413848415017128,0.015423242934048176,0.009972694329917431,0.0043294476345181465,-0.022155815735459328,0.031171975657343864,-0.1583050936460495,0.3321041762828827,-0.19609706103801727,0.27544933557510376,-0.08704715967178345,0.02335473895072937,-0.32162144780158997,0.25443702936172485,0.18115675449371338,0.01360751036554575,-0.08065032958984375,-0.156934455037117,0.12803085148334503,-0.11334381997585297,-0.03334881365299225,0.4695866107940674,-0.8286632895469666,1.2778434753417969,-0.9658021330833435,1.162111520767212
1760540647.837079,0.02,0.015348302200436592,0.07374599575996399,-0.2405855506658554,0.0042060744017362595,0.010734972544014454,-0.9999335408210754,0.0,0.0,-1.0,-0.0736781433224678,0.028147459030151367,0.01612269878387451,-0.01219208911061287,0.005446434020996094,0.08303594589233398,-0.05627703666687012,0.03742903470993042,0.009048759937286377,0.06862427294254303,-0.04799628257751465,0.0425533652305603,0.0,0.0,0.0,0.0,-0.036301642656326294,0.016784923151135445,-0.0006671586306765676,-0.014867606572806835,-0.04459821805357933,0.07167546451091766,0.014665508642792702,0.014178702607750893,0.012683521024882793,0.016077250242233276,-0.008528460748493671,0.04132520407438278,-0.11053039878606796,0.22069363296031952,-0.17370380461215973,0.12923942506313324,-0.3921637535095215,-0.009075790643692017,-0.6842359304428101,0.9560047388076782,-0.08569147437810898,0.18274904787540436,-0.48300835490226746,-0.06865707784891129,0.0072316937148571014,-0.0656217485666275,-0.10728180408477783,0.7397282719612122,-0.6855244636535645,0.9955266118049622,-0.9707425236701965,0.6783899068832397
1760540647.8908987,0.02,0.06390568614006042,0.09612244367599487,-0.26076412200927734,0.011116838082671165,0.006245544645935297,-0.9999186992645264,0.0,0.0,-1.0,-0.0844658687710762,0.03323328495025635,0.0173875093460083,-0.001831335830502212,-0.007345080375671387,0.1002340316772461,-0.046681493520736694,0.045674145221710205,0.0010791420936584473,0.08009662479162216,-0.045563459396362305,0.06359350681304932,0.0,0.0,0.0,0.0,-0.02554992400109768,0.009311598725616932,0.008266707882285118,0.04399902746081352,-0.02730358950793743,0.032727960497140884,0.02247445471584797,0.0179759431630373,-0.022738922387361526,0.02959214709699154,0.012007811106741428,0.05471479520201683,-0.12200488895177841,0.1879587024450302,-0.19054000079631805,0.001980808097869158,-0.7094880938529968,0.09674298763275146,-1.058861255645752,1.8440295457839966,-0.3013356924057007,0.39815250039100647,-1.2897005081176758,0.1745651662349701,-0.12161554396152496,0.07080011814832687,-0.1118118092417717,0.9328519105911255,-0.5683953762054443,0.6738683581352234,-0.7729390263557434,0.2719581723213196
1760540647.9475882,0.02,0.06954874843358994,0.07360400259494781,-0.25309109687805176,0.01740124262869358,0.000240139095694758,-0.9998485445976257,0.0,0.0,-1.0,-0.09336419403553009,0.03699183464050293,0.018809199333190918,0.028486473485827446,-0.01410365104675293,0.09910821914672852,-0.043294016271829605,0.0515209436416626,-0.012789130210876465,0.09376177191734314,-0.03847241401672363,0.08161121606826782,0.0,0.0,0.0,0.0,-0.023152917623519897,0.007577875163406134,0.006478899158537388,0.08958639949560165,-0.011295288801193237,-0.02261916548013687,-0.004752945154905319,0.008902630768716335,-0.02976326085627079,0.029918665066361427,0.020559152588248253,0.035652514547109604,-0.13375410437583923,0.0852670893073082,-0.16450510919094086,-0.022353606298565865,-0.41183602809906006,0.14181378483772278,-1.250714659690857,2.0145480632781982,-0.3078400492668152,0.38212549686431885,-1.8716280460357666,0.276634156703949,-0.16393840312957764,0.07787135243415833,-0.17899063229560852,0.8519850969314575,-0.6541973352432251,0.31421467661857605,-0.6555225253105164,-0.12417398393154144
1760540648.001692,0.02,0.032387107610702515,0.030655449256300926,-0.2496882528066635,0.020861752331256866,-0.0033700307831168175,-0.9997766613960266,0.0,0.0,-1.0,-0.10464294999837875,0.03871190547943115,0.016445279121398926,0.0673152282834053,-0.013925909996032715,0.07662200927734375,-0.053860291838645935,0.04975980520248413,-0.022069573402404785,0.10444563627243042,-0.028694868087768555,0.08936482667922974,0.0,0.0,0.0,0.0,-0.030228471383452415,0.0010198161471635103,-0.0033332593739032745,0.09833734482526779,0.0038751878309994936,-0.06655716896057129,-0.03942954167723656,-0.012001873925328255,-0.01712690107524395,0.021754441782832146,0.028450235724449158,0.010504375211894512,-0.09609123319387436,-0.011356218717992306,-0.14953820407390594,-0.0023303404450416565,0.020011600106954575,0.08678111433982849,-1.314798355102539,1.6072977781295776,-0.1691904067993164,0.28660818934440613,-1.8334386348724365,0.25543633103370667,-0.165035218000412,0.07121314108371735,-0.31758415699005127,0.6972715258598328,-0.8265894651412964,-0.04740998521447182,-0.5971121191978455,-0.3041783571243286
1760540648.05333,0.02,-0.01553303562104702,-0.002419141586869955,-0.2548002600669861,0.021483955904841423,-0.0034534309525042772,-0.9997632503509521,0.0,0.0,-1.0,-0.11976213753223419,0.0396883487701416,0.009352803230285645,0.10286136716604233,-0.009331107139587402,0.04287242889404297,-0.0743233859539032,0.037111878395080566,-0.017553210258483887,0.11122003942728043,-0.019207119941711426,0.08771538734436035,0.0,0.0,0.0,0.0,-0.04161003604531288,0.0006373194046318531,-0.016271406784653664,0.0799701064825058,0.010717963799834251,-0.0800640806555748,-0.05670655518770218,-0.03626808896660805,0.012468948028981686,0.011651984415948391,0.026604516431689262,-0.011046895757317543,-0.11410955339670181,-0.05881587788462639,-0.1775820106267929,0.05553323030471802,0.1253105103969574,0.12669894099235535,-1.2624181509017944,1.193894624710083,-0.07596569508314133,0.1677788645029068,-1.368480920791626,0.21697765588760376,-0.07866758108139038,0.046385377645492554,-0.4851686954498291,0.5448266863822937,-0.8523484468460083,-0.21511688828468323,-0.7192946076393127,-0.2071523815393448
1760540648.1064365,0.02,-0.04416399076581001,-0.026282818987965584,-0.2660675644874573,0.019943075254559517,-0.0007157346117310226,-0.9998008608818054,0.0,0.0,-1.0,-0.13822199404239655,0.040698230266571045,-0.0013993382453918457,0.1281365305185318,-0.0030487775802612305,0.00807034969329834,-0.0950709879398346,0.016731739044189453,-0.0018918514251708984,0.11522137373685837,-0.012271523475646973,0.07759517431259155,0.0,0.0,0.0,0.0,-0.04911625385284424,0.0011681851465255022,-0.0256308913230896,0.05035444721579552,0.01377480011433363,-0.07687617838382721,-0.04789821058511734,-0.0506167970597744,0.033549293875694275,0.0070671201683580875,0.015763280913233757,-0.030512556433677673,-0.151322603225708,-0.03732848912477493,-0.23088422417640686,0.12447655200958252,0.07362765073776245,0.19889160990715027,-1.1149284839630127,0.8493263125419617,0.00214511901140213,0.0269225612282753,-0.7934352159500122,0.18221822381019592,0.042853858321905136,0.013212925754487514,-0.5048462152481079,0.4344947338104248,-0.81475830078125,-0.12170926481485367,-0.9381243586540222,0.10687656700611115
1760540648.1604383,0.02,-0.07139263302087784,-0.04233255237340927,-0.27575919032096863,0.016933435574173927,0.004021175671368837,-0.9998485445976257,0.0,0.0,-1.0,-0.15911833941936493,0.04222095012664795,-0.013524413108825684,0.13858066499233246,0.0004943013191223145,-0.011416971683502197,-0.10779976099729538,-0.006083071231842041,0.019054710865020752,0.11766897141933441,-0.00877469778060913,0.06007647514343262,0.0,0.0,0.0,0.0,-0.05577642843127251,0.004787282552570105,-0.03220486268401146,0.008722180500626564,0.001051447237841785,-0.016028927639126778,-0.02199278213083744,-0.04690545052289963,0.03274943679571152,0.003027205588296056,0.007278973702341318,-0.046671148389577866,-0.16852860152721405,0.0643358901143074,-0.24342404305934906,0.21152706444263458,0.12471020221710205,0.27483245730400085,-0.9165244102478027,0.4514213800430298,0.09410665184259415,-0.11716588586568832,-0.262010395526886,0.14109423756599426,0.16323406994342804,-0.03222068399190903,-0.3971644937992096,0.37233853340148926,-0.7421702146530151,0.13250192999839783,-1.175534963607788,0.5419353246688843
1760540648.213544,0.02,0.03461884334683418,-0.002914185170084238,-0.21188800036907196,0.015755759552121162,0.0021683145314455032,-0.9998735189437866,0.0,0.0,0.0,-0.17140977084636688,0.05196791887283325,-0.030044853687286377,0.13924559950828552,-0.004091858863830566,0.0037223100662231445,-0.1008005142211914,0.005660831928253174,-0.0035599470138549805,0.12543688714504242,-0.012155234813690186,0.04945242404937744,0.0,0.0,0.0,0.0,-0.02821165882050991,0.03516751527786255,-0.051137108355760574,-0.014254498295485973,-0.027076909318566322,0.07857002317905426,0.01770949922502041,0.03592972457408905,-0.02748691476881504,0.0169290229678154,-0.017717625945806503,-0.014362365007400513,-0.19438676536083221,0.04791318625211716,-0.2648179233074188,0.2636706829071045,0.3837016820907593,0.3150041699409485,-0.7555955648422241,-0.04319191351532936,0.25127333402633667,-0.2276429533958435,0.22655659914016724,0.08162937313318253,0.23360022902488708,-0.06682848185300827,-0.24632573127746582,0.3596736788749695,-0.7564257383346558,0.4524311125278473,-1.2984739542007446,0.938429594039917
1760540648.267734,0.02,-0.05504733324050903,0.006052953191101551,0.045201729983091354,0.01603821851313114,0.005922356154769659,-0.9998538494110107,0.0,0.0,0.0,-0.17093950510025024,0.06140857934951782,-0.024989426136016846,0.12910087406635284,-0.006720840930938721,0.0025233030319213867,-0.10724945366382599,0.007338821887969971,0.011067509651184082,0.11252329498529434,-0.029652953147888184,0.038469552993774414,0.0,0.0,0.0,0.0,0.01913314126431942,0.019184811040759087,0.03782263770699501,-0.0200341884046793,0.0023116504307836294,-0.036320727318525314,-0.026737598702311516,-0.012423350475728512,0.07139214128255844,-0.04930431768298149,-0.0561615414917469,-0.03134652599692345,-0.2260093241930008,0.07081042230129242,-0.17150050401687622,0.2978629171848297,1.9200867414474487,0.4502287805080414,-0.07700791954994202,0.3253725469112396,0.08068305999040604,-0.7096444368362427,-0.6727116107940674,-0.23425114154815674,0.6934999823570251,-1.555211067199707,-0.6678940653800964,-0.01485539972782135,0.044459812343120575,-0.11520525068044662,-0.18377497792243958,0.6638110280036926
1760540648.3235638,0.02,-0.0413949228823185,-0.027597147971391678,0.0767427533864975,0.014999959617853165,0.009176584891974926,-0.9998453855514526,0.0,0.0,0.0,-0.15458159148693085,0.05710792541503906,-0.0023280978202819824,0.1240198016166687,-0.0013380646705627441,-0.013516366481781006,-0.11640535295009613,-0.0005276799201965332,0.030751943588256836,0.10169470310211182,-0.04149597883224487,0.03579944372177124,0.0,0.0,0.0,0.0,0.04845549166202545,-0.023423148319125175,0.06334275007247925,-0.010367774404585361,0.017784206196665764,-0.044148754328489304,-0.024241935461759567,-0.020693901926279068,0.037078190594911575,-0.027979670092463493,-0.01734078675508499,-0.019063375890254974,-0.008920596912503242,-0.057270348072052,-0.01884586364030838,5.138516644365154e-05,1.1396018266677856,-0.00956466794013977,-0.31094297766685486,-0.04691833630204201,0.3717084228992462,-0.436130553483963,-0.06276100873947144,-0.13034752011299133,0.30696573853492737,-0.5777185559272766,-0.10844863951206207,0.3374883532524109,0.21349722146987915,-0.0847296491265297,-0.010509781539440155,0.10619951784610748
1760540648.3744712,0.02,-0.025283267721533775,-0.023250726982951164,0.03497659042477608,0.012905863113701344,0.01185776200145483,-0.9998463988304138,0.0,0.0,1.0,-0.14556509256362915,0.04985600709915161,0.007961034774780273,0.11975304782390594,0.0045743584632873535,-0.02227264642715454,-0.12380138039588928,-0.007045269012451172,0.03651702404022217,0.09373359382152557,-0.043911516666412354,0.028114259243011475,0.0,0.0,0.0,0.0,0.011673473753035069,-0.015117055736482143,0.0078178895637393,-0.00907291378825903,0.013089601881802082,-0.009761087596416473,-0.01603696495294571,-0.015040148980915546,0.008706305176019669,-0.01584203541278839,0.0003109864192083478,-0.02058696746826172,0.10212186723947525,-0.10651443153619766,0.028553081676363945,0.013757956214249134,0.24427732825279236,0.026866942644119263,-0.48705434799194336,-0.26907461881637573,0.3617926239967346,-0.25728079676628113,0.2096535563468933,-0.17373037338256836,0.19913238286972046,0.08394768089056015,-0.050482794642448425,0.4439835548400879,0.3460468649864197,-0.11356041580438614,-0.017990045249462128,0.19090427458286285
1760540648.4309685,0.02,-0.016002831980586052,0.02366374433040619,0.2830282151699066,0.013841044157743454,0.014389942400157452,-0.9998006820678711,0.0,0.0,1.0,-0.1352745145559311,0.05204117298126221,0.024759531021118164,0.12059997022151947,0.012367665767669678,-0.03800863027572632,-0.13832059502601624,-0.025529325008392334,0.06711655855178833,0.061914898455142975,-0.04062384366989136,-0.004647016525268555,0.0,0.0,0.0,0.0,0.037910815328359604,0.01577972248196602,0.054936766624450684,0.013899927027523518,0.021108565852046013,-0.055666834115982056,-0.04122151434421539,-0.06193152070045471,0.11090677231550217,-0.09703847020864487,0.003630179213359952,-0.09528850764036179,0.07716124504804611,-0.18843556940555573,0.16676251590251923,-0.08457978814840317,2.3868649005889893,0.7402200698852539,0.18019329011440277,0.30930978059768677,-0.24238425493240356,-0.7173924446105957,-0.5135809183120728,-0.299063503742218,0.8256077170372009,-2.3455612659454346,-0.5830360651016235,-0.18926213681697845,1.5918240547180176,-1.3496373891830444,1.2850902080535889,-0.8411083817481995
1760540648.4870996,0.02,-0.09384217858314514,0.05291235074400902,0.3444638252258301,0.017462879419326782,0.022044558078050613,-0.9996044635772705,0.0,0.0,1.0,-0.12833353877067566,0.05451178550720215,0.05319023132324219,0.1176537275314331,0.022074103355407715,-0.051722168922424316,-0.14413535594940186,-0.023420631885528564,0.0488857626914978,0.034447576850652695,-0.038141608238220215,-0.009089469909667969,0.0,0.0,0.0,0.0,0.015707453712821007,0.005585018545389175,0.07009796798229218,-0.006376263685524464,0.024300208315253258,-0.02214769273996353,0.0069117299281060696,0.011452442966401577,-0.049507446587085724,-0.06869696825742722,0.006472913082689047,-0.0053104921244084835,0.03687944635748863,-0.37283799052238464,0.2840089201927185,-0.31247591972351074,2.486748695373535,0.48644015192985535,-0.10791519284248352,0.21739628911018372,0.18965590000152588,-0.23020239174365997,0.6092981100082397,-0.037498362362384796,0.06582039594650269,-2.617032766342163,-0.4878683090209961,0.23424796760082245,1.5428248643875122,-1.6346710920333862,1.1561150550842285,-1.602717399597168
1760540648.542189,0.02,0.1198401153087616,0.09225966036319733,0.33284109830856323,0.023981060832738876,0.01381517481058836,-0.9996169805526733,0.0,0.0,1.0,-0.10589054971933365,0.054425716400146484,0.07464361190795898,0.13018926978111267,0.03172659873962402,-0.046362876892089844,-0.10908670723438263,-0.018465399742126465,0.014387965202331543,0.025340601801872253,-0.030210018157958984,-0.007194995880126953,0.0,0.0,0.0,0.0,0.059364091604948044,-0.003190443618223071,0.04959581047296524,0.03456085920333862,0.026979422196745872,0.026744766160845757,0.1098252683877945,0.0019244399154558778,-0.07746487110853195,-0.019406720995903015,0.020554274320602417,0.007166111376136541,0.16351598501205444,-0.2939755618572235,0.27705904841423035,-0.3909280002117157,2.243452787399292,0.33146312832832336,-0.3108351528644562,-0.12341156601905823,0.3877296447753906,-0.0857800766825676,0.670636773109436,-0.34164148569107056,-0.18923157453536987,-1.5392099618911743,-0.22131375968456268,0.4828510880470276,1.5367236137390137,-1.1071350574493408,1.1099787950515747,-1.2774019241333008
1760540648.5953982,0.02,0.07753312587738037,0.08155868947505951,0.31263744831085205,0.03105834685266018,0.003694365732371807,-0.9995107650756836,0.0,0.0,1.0,-0.0816713273525238,0.05055266618728638,0.0907745361328125,0.14581003785133362,0.04420095682144165,-0.0445365309715271,-0.05995364859700203,-0.028199613094329834,-0.004091858863830566,0.01989501155912876,-0.023989558219909668,0.0026890039443969727,0.0,0.0,0.0,0.0,0.051447417587041855,-0.01418518926948309,0.03812360391020775,0.03055119514465332,0.03273285925388336,-0.0025203735567629337,0.12039706856012344,-0.03610127419233322,-0.03689909726381302,-0.018528176471590996,0.012069577351212502,0.02326081320643425,0.23041875660419464,-0.2120603322982788,0.22975099086761475,-0.422614723443985,1.6904245615005493,0.3733450472354889,-0.31750544905662537,-0.3505285084247589,0.37161025404930115,-0.23294712603092194,0.3750711977481842,-0.26963409781455994,-0.14718815684318542,-0.6789164543151855,-0.15213167667388916,0.47707390785217285,1.7124629020690918,-0.6059221029281616,0.9179102778434753,-1.341151237487793
