vaithak/rl_training/csvs/data_obs_m20_2_env_0.csv
timestamp,dt,base_ang_vel_0,base_ang_vel_1,base_ang_vel_2,projected_gravity_0,projected_gravity_1,projected_gravity_2,velocity_commands_0,velocity_commands_1,velocity_commands_2,joint_pos_0,joint_pos_1,joint_pos_2,joint_pos_3,joint_pos_4,joint_pos_5,joint_pos_6,joint_pos_7,joint_pos_8,joint_pos_9,joint_pos_10,joint_pos_11,joint_pos_12,joint_pos_13,joint_pos_14,joint_pos_15,joint_vel_0,joint_vel_1,joint_vel_2,joint_vel_3,joint_vel_4,joint_vel_5,joint_vel_6,joint_vel_7,joint_vel_8,joint_vel_9,joint_vel_10,joint_vel_11,joint_vel_12,joint_vel_13,joint_vel_14,joint_vel_15,actions_0,actions_1,actions_2,actions_3,actions_4,actions_5,actions_6,actions_7,actions_8,actions_9,actions_10,actions_11,actions_12,actions_13,actions_14,actions_15
1760497929.6786883,0.02,0.02121001109480858,-0.07723824679851532,0.08553225547075272,0.024705613031983376,-0.011757650412619114,-0.9996256232261658,-0.2387029528617859,-0.5606634020805359,0.2486633062362671,-0.11464478820562363,0.056044042110443115,-0.10292470455169678,0.09909366816282272,0.12483811378479004,0.004024147987365723,-0.03963831812143326,-0.0452115535736084,0.10737502574920654,-0.07154498994350433,0.015758275985717773,-0.10397469997406006,0.0,0.0,0.0,0.0,0.06592485308647156,-0.027824614197015762,0.046095069497823715,-0.036633264273405075,0.0038824104703962803,-0.0013811823446303606,-0.05458688735961914,-0.05387802794575691,0.06527974456548691,0.08702998608350754,-0.012027934193611145,0.030919695273041725,0.08862492442131042,-0.03678910806775093,0.177133247256279,-0.011110191233456135,-0.37671959400177,-0.08547459542751312,-0.3668572008609772,-3.283679723739624,0.2278788983821869,-0.46098965406417847,-0.4153987169265747,-0.27994486689567566,0.9120174050331116,2.1310231685638428,0.32693207263946533,-0.513813853263855,0.3083728551864624,-0.2621341049671173,0.8644993901252747,-0.05495665967464447
1760497929.7404149,0.02,-0.03324560075998306,-0.09561104327440262,0.0681208074092865,0.017794528976082802,-0.010778900235891342,-0.9997835755348206,-0.2387029528617859,-0.5606634020805359,0.24568092823028564,-0.09039457142353058,0.04209548234939575,-0.08300888538360596,0.07998744398355484,0.12727481126785278,0.005049228668212891,-0.06438890844583511,-0.06395459175109863,0.12983721494674683,-0.03305062651634216,0.008326411247253418,-0.08870339393615723,0.0,0.0,0.0,0.0,0.05531836673617363,-0.03642992302775383,0.04421183839440346,-0.051332470029592514,0.009364327415823936,-0.004306312650442123,-0.06518377363681793,-0.041352298110723495,0.04317554458975792,0.10085652023553848,-0.01965230144560337,0.034178122878074646,0.06270720809698105,-0.06160631403326988,0.15166063606739044,-0.02896048128604889,-0.08854830265045166,-0.12336546182632446,-0.3005844056606293,-3.4288177490234375,0.23938286304473877,-0.4671216607093811,-0.35531845688819885,-0.39906302094459534,0.9236883521080017,2.0012152194976807,0.1881481111049652,-0.4323171377182007,0.18625271320343018,-0.36001524329185486,0.6482811570167542,-0.12735559046268463
1760497929.80443,0.02,-0.0029426701366901398,-0.12116838246583939,0.0664028599858284,0.008921284228563309,-0.010226579383015633,-0.999907910823822,-0.2387029528617859,-0.5606634020805359,0.24300897121429443,-0.063053660094738,0.025424957275390625,-0.06568312644958496,0.060195229947566986,0.13070198893547058,0.004082202911376953,-0.08944354206323624,-0.08082520961761475,0.1482456922531128,0.012754455208778381,-0.0031486153602600098,-0.07240164279937744,0.0,0.0,0.0,0.0,0.07132864743471146,-0.043271396309137344,0.03854074701666832,-0.048086151480674744,0.010156676173210144,-0.006708831526339054,-0.060923200100660324,-0.03844580426812172,0.03541458398103714,0.11905869096517563,-0.031052380800247192,0.03725821524858475,0.03353755176067352,-0.0671352669596672,0.13545870780944824,-0.04464039206504822,0.2680653929710388,-0.2210272252559662,-0.23438486456871033,-3.18422269821167,0.2900324761867523,-0.48035427927970886,-0.38746559619903564,-0.5050068497657776,0.9618252515792847,1.9004138708114624,0.04287296533584595,-0.3418940305709839,0.07398181408643723,-0.36072245240211487,0.5835809707641602,-0.19178827106952667
1760497929.8684003,0.02,0.047911688685417175,-0.15416209399700165,0.07109082490205765,-0.0024881577119231224,-0.013400265946984291,-0.9999071359634399,-0.2387029528617859,-0.5606634020805359,0.24028003215789795,-0.026276953518390656,0.005300164222717285,-0.05142867565155029,0.04338299110531807,0.13401442766189575,0.0005621910095214844,-0.11198584735393524,-0.09759789705276489,0.16373896598815918,0.0650433897972107,-0.019649147987365723,-0.05491936206817627,0.0,0.0,0.0,0.0,0.09792815148830414,-0.05328810214996338,0.03165623918175697,-0.03966245427727699,0.009308170527219772,-0.014098191633820534,-0.0542357973754406,-0.03819294646382332,0.02703002654016018,0.13249211013317108,-0.044125694781541824,0.04081813991069794,0.01293041743338108,-0.07596665620803833,0.13687127828598022,-0.05079377815127373,0.5469046831130981,-0.3784138858318329,-0.1826097071170807,-2.8166332244873047,0.3747406601905823,-0.4882672131061554,-0.3845783770084381,-0.6100339293479919,0.9755039811134338,1.929581642150879,-0.0638381764292717,-0.23098896443843842,0.0037958547472953796,-0.3251190483570099,0.559062123298645,-0.21390001475811005
1760497929.9335,0.02,0.08747579902410507,-0.1876755952835083,0.07559522241353989,-0.01660541445016861,-0.019906973466277122,-0.9996639490127563,-0.2387029528617859,-0.5606634020805359,0.23747146129608154,0.018212826922535896,-0.017432034015655518,-0.043753087520599365,0.029271552339196205,0.13729313015937805,-0.005577147006988525,-0.13253451883792877,-0.11380252242088318,0.1747332215309143,0.11976954340934753,-0.04305672645568848,-0.02987802028656006,0.0,0.0,0.0,0.0,0.114706851541996,-0.05850600823760033,0.012293918058276176,-0.03344937786459923,0.008296548388898373,-0.019656537100672722,-0.04976026341319084,-0.036012422293424606,0.015204071998596191,0.13405011594295502,-0.0615982823073864,0.06331178545951843,0.005891928914934397,-0.09438277781009674,0.13305281102657318,-0.02585885301232338,0.6732989549636841,-0.48624882102012634,-0.19157397747039795,-2.3296031951904297,0.3948006331920624,-0.5134116411209106,-0.2798576354980469,-0.7227501273155212,0.9577834010124207,1.8343043327331543,-0.10164745151996613,0.019098445773124695,-0.016275234520435333,-0.42887356877326965,0.4973738193511963,-0.10813947021961212
1760497929.9984553,0.02,0.13074730336666107,-0.21492034196853638,0.08867846429347992,-0.03281385451555252,-0.02990085631608963,-0.9990140795707703,-0.2387029528617859,-0.5606634020805359,0.23447954654693604,0.05654783546924591,-0.03937035799026489,-0.04340803623199463,0.017767153680324554,0.13957145810127258,-0.007699429988861084,-0.1512259542942047,-0.13011318445205688,0.18437647819519043,0.16997256875038147,-0.07439368963241577,0.009317517280578613,0.0,0.0,0.0,0.0,0.08818225562572479,-0.04814980551600456,-0.0176463034003973,-0.02848595194518566,0.002622283762320876,0.00044972525211051106,-0.04768559709191322,-0.03824048489332199,0.017568159848451614,0.11453457176685333,-0.08110179752111435,0.09909656643867493,0.052364449948072433,-0.15738846361637115,0.12574346363544464,0.04887988790869713,0.50981605052948,-0.4582768976688385,-0.3117172420024872,-1.4867148399353027,0.349018931388855,-0.4990144670009613,-0.05468475818634033,-0.8009828925132751,0.9576438069343567,1.1421619653701782,-0.17905300855636597,0.3849303722381592,0.12818393111228943,-0.6177781224250793,0.47391650080680847,0.19600626826286316
1760497930.0573304,0.02,0.037785328924655914,-0.16724364459514618,0.06659556925296783,-0.04900488257408142,-0.03786880150437355,-0.9980803728103638,-0.2387029528617859,-0.5606634020805359,0.23143136501312256,0.07625720649957657,-0.05208975076675415,-0.059535980224609375,0.0040588174015283585,0.13846492767333984,-0.0018172264099121094,-0.1726958304643631,-0.14444062113761902,0.18895268440246582,0.19961614906787872,-0.09436953067779541,0.022789418697357178,0.0,0.0,0.0,0.0,0.01977304182946682,-0.025973280891776085,-0.036971110850572586,-0.049532484263181686,-0.0009601150522939861,0.028590867295861244,-0.06709430366754532,-0.03931386023759842,0.02765144221484661,0.03785331919789314,0.009835406206548214,-0.08940204232931137,0.11572565138339996,-0.15242694318294525,0.1481514871120453,0.1380673348903656,0.020894404500722885,-0.2977440357208252,-0.44767993688583374,-0.31982728838920593,0.29795753955841064,-0.2959195673465729,0.4155755341053009,-0.7155724167823792,0.8667299747467041,-0.13004575669765472,-0.2896546721458435,0.7457869052886963,0.36505991220474243,-0.5304327607154846,0.6543107628822327,0.5859593749046326
1760497930.1213667,0.02,-0.028364181518554688,-0.006544139236211777,0.03655441850423813,-0.05449581891298294,-0.037184711545705795,-0.9978213906288147,-0.2387029528617859,-0.5606634020805359,0.22958076000213623,0.06268103420734406,-0.05075913667678833,-0.07758086919784546,-0.01753651537001133,0.136503666639328,0.02244257926940918,-0.19649934768676758,-0.16076993942260742,0.2103521227836609,0.1891200989484787,-0.07756364345550537,-0.026316046714782715,0.0,0.0,0.0,0.0,-0.060659319162368774,0.01892741769552231,-0.044642072170972824,-0.056013088673353195,-0.0036796710919588804,0.07723847031593323,-0.048350777477025986,-0.04039262235164642,0.06889774650335312,-0.07786991447210312,0.0702224001288414,-0.16966138780117035,0.19970721006393433,-0.1282852739095688,0.21145737171173096,0.21382907032966614,-0.07887619733810425,0.07408499717712402,-0.5329937934875488,0.3446422517299652,-0.007958374917507172,-0.1367819458246231,0.5421968698501587,-0.4634241461753845,0.9568995833396912,-1.6572798490524292,-0.43611031770706177,0.7272825837135315,0.6960543990135193,-0.5380205512046814,1.0024453401565552,1.065268874168396
1760497930.1811454,0.02,-0.0016372781246900558,0.06217070668935776,0.024849027395248413,-0.051550962030887604,-0.034812867641448975,-0.9980633854866028,-0.2387029528617859,-0.5606634020805359,0.22840964794158936,0.039728790521621704,-0.04082632064819336,-0.08690577745437622,-0.03262583911418915,0.13515883684158325,0.05183887481689453,-0.19099771976470947,-0.14830374717712402,0.18011325597763062,0.16354380548000336,-0.05642503499984741,-0.06709909439086914,0.0,0.0,0.0,0.0,-0.04923386126756668,0.027188241481781006,-0.016911951825022697,-0.022940075024962425,-0.002525505144149065,0.07054395228624344,0.043177004903554916,0.05060604214668274,-0.10216492414474487,-0.0569419264793396,0.04646898806095123,-0.07942504435777664,0.11971085518598557,-0.08677373081445694,0.26792359352111816,0.17363283038139343,0.29854536056518555,0.31319692730903625,-0.5922638177871704,0.757495105266571,-0.29288700222969055,-0.07158591598272324,0.4215845763683319,-0.11286849528551102,0.6953392624855042,-2.8266093730926514,-0.5958396196365356,0.6629669666290283,0.5938817262649536,-0.5692318677902222,0.9045464396476746,0.7383535504341125
1760497930.2508512,0.02,-0.050750523805618286,0.0954071506857872,0.04510461539030075,-0.04483184218406677,-0.030308086425065994,-0.9985346794128418,-0.2387029528617859,-0.5606634020805359,0.22679197788238525,0.016690637916326523,-0.03412020206451416,-0.08063262701034546,-0.03909045457839966,0.13232356309890747,0.07438182830810547,-0.17790643870830536,-0.12625092267990112,0.1457080841064453,0.13645200431346893,-0.04274779558181763,-0.08914411067962646,0.0,0.0,0.0,0.0,-0.05580347403883934,0.015511742793023586,0.01953711174428463,-0.005562845151871443,-0.009352214634418488,0.047056253999471664,0.03113880567252636,0.0478675477206707,-0.05493708327412605,-0.06782861799001694,0.027697255834937096,-0.043793629854917526,0.09452181309461594,-0.050254564732313156,0.2731180191040039,0.18535177409648895,-0.0042663924396038055,0.4461793005466461,-0.7570332288742065,1.0041966438293457,-0.28438061475753784,0.1124071255326271,-0.05185613036155701,-0.1914486289024353,0.6403786540031433,-3.602938413619995,-0.32582563161849976,0.5558120608329773,0.49075567722320557,-0.3860560357570648,1.050425410270691,0.7968245148658752
1760497930.3092453,0.02,-0.053059108555316925,0.1174735426902771,0.06108783930540085,-0.036259621381759644,-0.02563549019396305,-0.9990135431289673,-0.2387029528617859,-0.5606634020805359,0.2244586944580078,-0.005754310637712479,-0.028379619121551514,-0.0737847089767456,-0.03548898920416832,0.12706097960472107,0.0877995491027832,-0.1663135439157486,-0.10712724924087524,0.12994599342346191,0.10823816061019897,-0.035080015659332275,-0.10155713558197021,0.0,0.0,0.0,0.0,-0.05516656115651131,0.0149503443390131,0.016090622171759605,0.018473071977496147,-0.015236164443194866,0.026204422116279602,0.029714269563555717,0.04347960650920868,-0.020975112915039062,-0.0709839016199112,0.014677389524877071,-0.023009376600384712,0.13596616685390472,-0.04684540629386902,0.2653667628765106,0.19808869063854218,-0.29479435086250305,0.4809059202671051,-0.8212345838546753,1.0849297046661377,-0.17498451471328735,0.22130851447582245,0.16910898685455322,-0.1535068303346634,0.5818615555763245,-4.215430736541748,-0.20551389455795288,0.507644534111023,0.6429212093353271,-0.324079304933548,1.0667641162872314,0.8753687739372253
1760497930.3740587,0.02,-0.02478092908859253,0.13556668162345886,0.06559097021818161,-0.026176387444138527,-0.022900709882378578,-0.9993950128555298,-0.2387029528617859,-0.5606634020805359,0.22176635265350342,-0.02620295248925686,-0.022020578384399414,-0.06932830810546875,-0.021013833582401276,0.11997222900390625,0.09394562244415283,-0.148379847407341,-0.08611142635345459,0.11592727899551392,0.08125067502260208,-0.031066715717315674,-0.10760378837585449,0.0,0.0,0.0,0.0,-0.04998359829187393,0.01634545810520649,0.0105615658685565,0.044676896184682846,-0.019238175824284554,0.009677436202764511,0.05085248872637749,0.05225849896669388,-0.02990344725549221,-0.06657075136899948,0.006906472146511078,-0.008353499695658684,0.16614630818367004,-0.06481016427278519,0.2582065761089325,0.2100028097629547,-0.4711354374885559,0.49921467900276184,-0.8566266298294067,1.1962714195251465,-0.09646662324666977,0.27709221839904785,0.4491123855113983,-0.07613902539014816,0.5017648935317993,-4.517728328704834,-0.13552352786064148,0.49669861793518066,0.7371515035629272,-0.35966718196868896,1.0212318897247314,0.8886402249336243
1760497930.4375541,0.02,0.002448752522468567,0.15011146664619446,0.06680279970169067,-0.014869227074086666,-0.022660119459033012,-0.9996326565742493,-0.2387029528617859,-0.5606634020805359,0.2189875841140747,-0.044608812779188156,-0.014391005039215088,-0.0669354796409607,0.0031868801452219486,0.11241292953491211,0.09302878379821777,-0.12091949582099915,-0.061647891998291016,0.09701675176620483,0.05625264719128609,-0.02819538116455078,-0.10899841785430908,0.0,0.0,0.0,0.0,-0.04590411111712456,0.019869182258844376,0.005772011820226908,0.0666520744562149,-0.019357921555638313,-0.008237438276410103,0.07308220118284225,0.06002699211239815,-0.041496504098176956,-0.06227030232548714,0.006175016053020954,0.0018797172233462334,0.17727354168891907,-0.09648989886045456,0.2556086480617523,0.1960921734571457,-0.5069090127944946,0.5312598943710327,-0.8765889406204224,1.357452630996704,-0.03888016194105148,0.27555736899375916,0.6372268199920654,0.004921112209558487,0.4183822274208069,-4.618669033050537,-0.10318246483802795,0.47878164052963257,0.755884051322937,-0.4650890529155731,1.0081746578216553,0.7814229726791382
1760497930.4966145,0.02,0.014166221022605896,0.15341728925704956,0.06819918751716614,-0.0028437552973628044,-0.02419022098183632,-0.9997033476829529,-0.2387029528617859,-0.5606634020805359,0.216178297996521,-0.061939917504787445,-0.005266129970550537,-0.06653410196304321,0.03419393673539162,0.1050679087638855,0.08831918239593506,-0.08475692570209503,-0.034779131412506104,0.07321751117706299,0.032446298748254776,-0.024490833282470703,-0.10733282566070557,0.0,0.0,0.0,0.0,-0.045174382627010345,0.02414611354470253,-0.0011100315023213625,0.07719003409147263,-0.021990593522787094,0.0015582289779558778,0.09117396920919418,0.06458817422389984,-0.05313204601407051,-0.062282949686050415,0.008873564191162586,0.006627237889915705,0.18027840554714203,-0.12269338220357895,0.2631162405014038,0.15374860167503357,-0.43891650438308716,0.5715059041976929,-0.8795548677444458,1.5451838970184326,0.03530923277139664,0.23054848611354828,0.8096581697463989,0.08145377784967422,0.31446710228919983,-4.620602607727051,-0.09601124376058578,0.46718013286590576,0.7612594366073608,-0.6077542901039124,1.0290262699127197,0.6048368811607361
1760497930.5557044,0.02,-0.006629854440689087,0.15572258830070496,0.05661556124687195,0.008968903683125973,-0.025037232786417007,-0.9996463060379028,-0.2387029528617859,-0.5606634020805359,0.21357572078704834,-0.08052954077720642,0.005313992500305176,-0.070404052734375,0.0669250637292862,0.10092896223068237,0.08174598217010498,-0.04175707697868347,-0.007065236568450928,0.043974995613098145,0.00806872546672821,-0.0175209641456604,-0.10890543460845947,0.0,0.0,0.0,0.0,-0.050483252853155136,0.026050889864563942,-0.008359490893781185,0.08086401969194412,-0.004681664984673262,-0.024565400555729866,0.10683967918157578,0.06482873111963272,-0.06394479423761368,-0.06364993005990982,0.020283130928874016,-0.002621543360874057,0.19059425592422485,-0.14803172647953033,0.2842881679534912,0.1485702097415924,-0.34787315130233765,0.6224558353424072,-0.8717646598815918,1.7774362564086914,0.1403479278087616,0.17027853429317474,0.9746350049972534,0.13832581043243408,0.18223419785499573,-4.530961513519287,-0.08405822515487671,0.5059729218482971,0.8283004760742188,-0.6945439577102661,1.1034460067749023,0.4686340093612671
1760497930.6149278,0.02,-0.02270415425300598,0.15859831869602203,0.053494445979595184,0.021142389625310898,-0.024119660258293152,-0.9994854927062988,-0.2387029528617859,-0.5606634020805359,0.21128594875335693,-0.10114183276891708,0.016608715057373047,-0.07624536752700806,0.10066106170415878,0.1033848226070404,0.06474876403808594,0.005333357956260443,0.018001079559326172,0.017013192176818848,-0.01740274205803871,-0.009280860424041748,-0.1073373556137085,0.0,0.0,0.0,0.0,-0.053821343928575516,0.027572495862841606,-0.012109961360692978,0.08418018370866776,0.010155966505408287,-0.04997788369655609,0.11555703729391098,0.056162964552640915,-0.053458329290151596,-0.06564390659332275,0.01950020343065262,0.009633242152631283,0.19320668280124664,-0.15594439208507538,0.3240348994731903,0.11593972891569138,-0.1410590410232544,0.7179286479949951,-0.8280559778213501,1.9181925058364868,0.19331341981887817,0.04360652714967728,1.009021282196045,0.2293640673160553,0.07346591353416443,-4.214666366577148,-0.10192228853702545,0.5399930477142334,0.8798650503158569,-0.7195916771888733,1.2725476026535034,0.35213470458984375
1760497930.6780002,0.02,-0.008240722119808197,0.1453774869441986,0.06898323446512222,0.03262859210371971,-0.023122332990169525,-0.9992000460624695,-0.2387029528617859,-0.5606634020805359,0.20864474773406982,-0.12192441523075104,0.03009927272796631,-0.08765619993209839,0.13305741548538208,0.1105523407459259,0.0401766300201416,0.03996330872178078,0.03499835729598999,0.00512385368347168,-0.043606072664260864,-0.0020110607147216797,-0.10437273979187012,0.0,0.0,0.0,0.0,-0.050633419305086136,0.03546251356601715,-0.0302408616989851,0.078938327729702,0.020082078874111176,-0.06284967064857483,0.06700193136930466,0.032751794904470444,-0.00767759932205081,-0.06556325405836105,0.017800552770495415,0.007627235259860754,0.20629620552062988,-0.11363567411899567,0.3934040069580078,0.1155632957816124,0.009677466005086899,0.775521993637085,-0.7842296361923218,1.5802476406097412,0.31208476424217224,-0.15228666365146637,0.8627562522888184,0.28566989302635193,0.08988115191459656,-3.238110303878784,-0.10837159305810928,0.450398325920105,0.9557182788848877,-0.5842470526695251,1.5975428819656372,0.32615596055984497
1760497930.7393053,0.02,-0.02775607630610466,0.09945343434810638,0.08218259364366531,0.041725043207407,-0.021335966885089874,-0.9989013075828552,-0.2387029528617859,-0.5606634020805359,0.20541489124298096,-0.1431025117635727,0.04821652173995972,-0.10771149396896362,0.15500913560390472,0.11985239386558533,0.017048954963684082,0.047377537935972214,0.03655064105987549,0.0232887864112854,-0.0716552585363388,0.0036382079124450684,-0.10329174995422363,0.0,0.0,0.0,0.0,-0.052737947553396225,0.0489705465734005,-0.05796963721513748,0.043106261640787125,0.02315605990588665,-0.05054748058319092,0.0021887854672968388,-0.008369739167392254,0.06620753556489944,-0.07225178927183151,0.007627331651747227,-0.0061311121098697186,0.19421006739139557,0.0018131531542167068,0.4327355921268463,0.1752031296491623,-0.0194493867456913,0.7049994468688965,-0.7347018718719482,0.6141359210014343,0.42519694566726685,-0.41026800870895386,0.5721510648727417,0.2603651285171509,0.21237929165363312,-1.550735354423523,-0.05794791877269745,0.2814897298812866,0.8552746772766113,-0.21268722414970398,1.853886604309082,0.21439586579799652
1760497930.7968392,0.02,-0.17747750878334045,-0.041767820715904236,0.09119065850973129,0.04283112660050392,-0.00894965510815382,-0.9990422129631042,-0.2387029528617859,-0.5606634020805359,0.20171582698822021,-0.1668003499507904,0.06260526180267334,-0.12444967031478882,0.14335273206233978,0.12287953495979309,0.005093812942504883,0.01569865643978119,0.02005159854888916,0.05449742078781128,-0.1060202345252037,0.007321059703826904,-0.11019408702850342,0.0,0.0,0.0,0.0,-0.04916921257972717,0.02988375537097454,-0.04276593029499054,-0.05793541669845581,-0.0029483323451131582,-0.018342100083827972,-0.09405705332756042,-0.05773239955306053,0.0688728466629982,-0.07483025640249252,0.008301175199449062,-0.02682620845735073,0.1269678920507431,0.08171603828668594,0.2770185172557831,0.08526933193206787,-0.1510082483291626,0.2985513508319855,-0.5595239400863647,-1.4397625923156738,0.3294789791107178,-0.7270330786705017,-0.19097761809825897,0.04723376780748367,0.39835992455482483,1.087272047996521,0.33031561970710754,-0.13317538797855377,0.47762250900268555,0.23997202515602112,1.6751072406768799,0.23861315846443176
1760497930.8586555,0.02,0.005415394902229309,-0.11165648698806763,0.09775028377771378,0.03584558889269829,-0.00524577870965004,-0.9993435740470886,-0.2387029528617859,-0.5606634020805359,0.19779860973358154,-0.1612369269132614,0.06469732522964478,-0.12615078687667847,0.12338463962078094,0.11742478609085083,0.0012367963790893555,-0.011926042847335339,-0.00322115421295166,0.07177931070327759,-0.1105143204331398,0.0072602033615112305,-0.11869955062866211,0.0,0.0,0.0,0.0,0.04467642679810524,-0.00524571118876338,0.0074518355540931225,-0.03833385929465294,-0.01222219504415989,-0.023149890825152397,-0.05687955021858215,-0.058401137590408325,0.033186256885528564,0.02234766073524952,-0.004322287160903215,-0.018115779384970665,0.12108118832111359,0.06924526393413544,0.28730401396751404,0.08655243366956711,-0.3032934069633484,-0.06753242015838623,-0.4331476390361786,-2.576711416244507,0.3431876301765442,-0.6357070207595825,-0.6311029195785522,-0.1666410267353058,0.7093950510025024,2.261831045150757,0.38211578130722046,-0.6617781519889832,0.49152255058288574,0.3378927409648895,1.3698385953903198,0.3541470766067505
1760497930.9171412,0.02,0.06352724134922028,-0.0776762142777443,0.084292933344841,0.029238376766443253,-0.010861249640583992,-0.9995134472846985,-0.2387029528617859,-0.5606634020805359,0.1941894292831421,-0.13216181099414825,0.05975621938705444,-0.11525774002075195,0.1125255823135376,0.11558350920677185,0.0015128850936889648,-0.029720742255449295,-0.02815765142440796,0.09852313995361328,-0.0860384851694107,0.0023671984672546387,-0.11009550094604492,0.0,0.0,0.0,0.0,0.07322520762681961,-0.020227951928973198,0.041782546788454056,-0.02787812426686287,0.0004628566966857761,0.0021739357616752386,-0.04496094956994057,-0.061124153435230255,0.06866759061813354,0.07460590451955795,-0.01220565102994442,0.027281051501631737,0.09772395342588425,-0.000900393002666533,0.2112945318222046,0.04064638167619705,-0.3697964549064636,-0.035867899656295776,-0.40597110986709595,-2.9679627418518066,0.30149683356285095,-0.4647168815135956,-0.4439946115016937,-0.20914945006370544,0.8941896557807922,2.0809359550476074,0.41647201776504517,-0.49359023571014404,0.3634830713272095,-0.10789207369089127,1.1058430671691895,0.1577260047197342
1760497930.9811847,0.02,-0.010439064353704453,-0.08706596493721008,0.0651828944683075,0.022793322801589966,-0.012420710176229477,-0.9996630549430847,-0.2387029528617859,-0.5606634020805359,0.1912912130355835,-0.10565581917762756,0.04807323217391968,-0.09508860111236572,0.09616214036941528,0.11711433529853821,0.004402279853820801,-0.05134374275803566,-0.049514591693878174,0.12322938442230225,-0.05245942249894142,-0.0034000277519226074,-0.0969616174697876,0.0,0.0,0.0,0.0,0.05903910472989082,-0.031747862696647644,0.04664742201566696,-0.04679450765252113,0.0066254884004592896,0.002074804389849305,-0.05957946181297302,-0.04809179529547691,0.05102613568305969,0.08846234530210495,-0.013388392515480518,0.02806777134537697,0.0728784129023552,-0.06393274664878845,0.17956744134426117,0.005160824861377478,-0.22635483741760254,-0.12473967671394348,-0.3503398001194,-3.3698582649230957,0.24417787790298462,-0.44933587312698364,-0.3549669086933136,-0.34589317440986633,0.9239554405212402,2.0060970783233643,0.2592119574546814,-0.4757010340690613,0.23216259479522705,-0.28693702816963196,0.8146892189979553,0.008755460381507874
1760497931.0414655,0.02,-0.02317778393626213,-0.10766158252954483,0.05539796128869057,0.014912299811840057,-0.011103533208370209,-0.9998271465301514,-0.2387029528617859,-0.5606634020805359,0.188942551612854,-0.08065930008888245,0.033010125160217285,-0.07553964853286743,0.07574282586574554,0.12026652693748474,0.005574703216552734,-0.07616101205348969,-0.06746751070022583,0.1421300768852234,-0.012760557234287262,-0.011459589004516602,-0.08201110363006592,0.0,0.0,0.0,0.0,0.06158134341239929,-0.038874201476573944,0.04371063783764839,-0.05140560865402222,0.01080289762467146,-0.00222366233356297,-0.06288900226354599,-0.04075434431433678,0.03672678768634796,0.10403614491224289,-0.020993992686271667,0.03423730656504631,0.04135905206203461,-0.0506996214389801,0.15917760133743286,-0.02140357345342636,0.11868053674697876,-0.1672239601612091,-0.2736980617046356,-3.3504652976989746,0.2825169563293457,-0.45535269379615784,-0.3486928641796112,-0.4449184834957123,0.9514593482017517,1.884507179260254,0.12549585103988647,-0.3773278594017029,0.0999252125620842,-0.3341139853000641,0.7037485241889954,-0.09648929536342621
1760497931.1067708,0.02,0.017583481967449188,-0.13677573204040527,0.05635344237089157,0.004840098787099123,-0.01197204738855362,-0.9999166131019592,-0.2387029528617859,-0.5606634020805359,0.18674027919769287,-0.049290746450424194,0.015092670917510986,-0.05885988473892212,0.05638112127780914,0.12384086847305298,0.004430413246154785,-0.09978234767913818,-0.08446884155273438,0.1581394076347351,0.03389747068285942,-0.022950589656829834,-0.0663219690322876,0.0,0.0,0.0,0.0,0.08312607556581497,-0.046908777207136154,0.03717729449272156,-0.04639098420739174,0.01002750638872385,-0.007416047155857086,-0.05721473693847656,-0.03902382776141167,0.029790107160806656,0.12004776298999786,-0.030578890815377235,0.03567608818411827,0.013446777127683163,-0.05973256751894951,0.14626337587833405,-0.04294353723526001,0.4404020309448242,-0.3049028217792511,-0.21653257310390472,-3.1065871715545654,0.33835965394973755,-0.4631721079349518,-0.3848649859428406,-0.5529175400733948,0.978969395160675,1.8767204284667969,-0.011702954769134521,-0.301815390586853,-0.004831202328205109,-0.3289184272289276,0.6209438443183899,-0.1834574192762375
1760497931.1698163,0.02,0.06462519615888596,-0.16927480697631836,0.06025630608201027,-0.007805515546351671,-0.01656830869615078,-0.999832272529602,-0.2387029528617859,-0.5606634020805359,0.18447458744049072,-0.0081632724031806,-0.006341040134429932,-0.045850515365600586,0.040024951100349426,0.12741228938102722,0.0006872415542602539,-0.12091336399316788,-0.10106375813484192,0.1708078384399414,0.08579079061746597,-0.03911250829696655,-0.04819667339324951,0.0,0.0,0.0,0.0,0.10853594541549683,-0.05636543035507202,0.027930622920393944,-0.03831977769732475,0.00970072578638792,-0.012070028111338615,-0.05119568854570389,-0.03729022294282913,0.01976872980594635,0.1302419900894165,-0.04279327020049095,0.043540168553590775,-0.004243472591042519,-0.0699302926659584,0.14447826147079468,-0.045942746102809906,0.6914474964141846,-0.44634607434272766,-0.1732313632965088,-2.7798244953155518,0.4144853949546814,-0.4718315601348877,-0.3512194752693176,-0.6491360068321228,0.9799548983573914,1.9440596103668213,-0.09639070928096771,-0.1673310548067093,-0.06312388926744461,-0.3129141628742218,0.5776494145393372,-0.19201315939426422
1760497931.2314525,0.02,0.1141224205493927,-0.19874444603919983,0.05979369953274727,-0.022796159610152245,-0.024556078016757965,-0.9994385242462158,-0.2387029528617859,-0.5606634020805359,0.18220913410186768,0.03636307269334793,-0.029671907424926758,-0.03852188587188721,0.02617986500263214,0.13212531805038452,-0.005040585994720459,-0.14006586372852325,-0.11701905727386475,0.18050003051757812,0.13846848905086517,-0.06225830316543579,-0.01897275447845459,0.0,0.0,0.0,0.0,0.10425873845815659,-0.06206674128770828,0.021447541192173958,-0.03230535238981247,0.012641633860766888,-0.017745807766914368,-0.04534917697310448,-0.03685474768280983,0.015088564716279507,0.1286054104566574,-0.05999011546373367,0.07445811480283737,0.007092156447470188,-0.11418205499649048,0.13029944896697998,-0.0073687308467924595,0.7109711170196533,-0.4960021674633026,-0.21611598134040833,-2.1784157752990723,0.3895062506198883,-0.4970218241214752,-0.20904356241226196,-0.7472503185272217,0.9640545845031738,1.6989068984985352,-0.12685759365558624,0.14084099233150482,-0.05389637500047684,-0.4821428954601288,0.479804664850235,-0.03215061128139496
1760497931.2907517,0.02,0.13167813420295715,-0.22496698796749115,0.08372978121042252,-0.04003984108567238,-0.03491071239113808,-0.9985880255699158,-0.2387029528617859,-0.5606634020805359,0.1795259714126587,0.07076305896043777,-0.04753023386001587,-0.04616093635559082,0.014273932203650475,0.1335553228855133,-0.004583477973937988,-0.15868982672691345,-0.13262993097305298,0.18807369470596313,0.1825382560491562,-0.09310674667358398,0.024533390998840332,0.0,0.0,0.0,0.0,0.07707720249891281,-0.0374823696911335,-0.03466084226965904,-0.029825275763869286,0.0029713574331253767,-0.0006397939869202673,-0.04900510236620903,-0.03662755712866783,0.014374295249581337,0.09555181115865707,-0.07901769131422043,0.10948846489191055,0.0634378120303154,-0.15850834548473358,0.13182556629180908,0.07957430183887482,0.49865424633026123,-0.4084239900112152,-0.3476017117500305,-1.21531343460083,0.314750611782074,-0.44678792357444763,0.05768299102783203,-0.7771062850952148,0.9536166191101074,0.7236382961273193,-0.24048858880996704,0.5055280923843384,0.18104317784309387,-0.5998499393463135,0.5270068049430847,0.3199474513530731
1760497931.3600821,0.02,-0.010023411363363266,-0.11719176173210144,0.03156303986907005,-0.05285895615816116,-0.03761088103055954,-0.9978934526443481,-0.2387029528617859,-0.5606634020805359,0.17762887477874756,0.07892303168773651,-0.056752920150756836,-0.06003516912460327,-0.005824393592774868,0.1345716118812561,0.0059098005294799805,-0.18206432461738586,-0.14594987034797668,0.1943511962890625,0.1970808506011963,-0.0916019082069397,0.0011227726936340332,0.0,0.0,0.0,0.0,-0.007962810806930065,-0.014042741619050503,-0.03519607335329056,-0.06169772148132324,0.002914728596806526,0.04280407726764679,-0.06233962997794151,-0.036178167909383774,0.028678802773356438,0.010515255853533745,0.0239446759223938,-0.079485222697258,0.10936341434717178,-0.14836332201957703,0.16870392858982086,0.19717633724212646,-0.13649460673332214,-0.26511019468307495,-0.4571937322616577,-0.07902666926383972,0.23387965559959412,-0.2378605753183365,0.46502259373664856,-0.6224117279052734,0.8584843277931213,-0.39423465728759766,-0.29882797598838806,0.7874324917793274,0.3036980628967285,-0.5194610953330994,0.7643992304801941,0.7615134119987488
1760497931.4190977,0.02,-0.0012220870703458786,0.024693040177226067,0.017141833901405334,-0.05488692969083786,-0.035968419164419174,-0.9978445172309875,-0.2387029528617859,-0.5606634020805359,0.17672884464263916,0.05886763706803322,-0.05031484365463257,-0.07755666971206665,-0.02714398317039013,0.13333898782730103,0.03389418125152588,-0.19987863302230835,-0.15745750069618225,0.21122562885284424,0.17842993140220642,-0.07053947448730469,-0.046518683433532715,0.0,0.0,0.0,0.0,-0.05646699294447899,0.027890587225556374,-0.038306888192892075,-0.0425071157515049,-0.0035459359642118216,0.08171357214450836,-0.023085571825504303,-0.023746777325868607,0.04889320209622383,-0.060577549040317535,0.05627405270934105,-0.11637776345014572,0.15492086112499237,-0.10000552982091904,0.2346433401107788,0.2276911586523056,-0.01705891266465187,0.12246713042259216,-0.5453594923019409,0.5718981027603149,-0.11653205007314682,-0.08118518441915512,0.42315414547920227,-0.38521769642829895,0.9298312067985535,-2.0474886894226074,-0.5083798170089722,0.6507793664932251,0.610178530216217,-0.5121557712554932,0.9897188544273376,0.983092725276947
1760497931.4787493,0.02,-0.027531340718269348,0.07281304895877838,0.020688576623797417,-0.05047344043850899,-0.032690320163965225,-0.9981902241706848,-0.2387029528617859,-0.5606634020805359,0.175909161567688,0.03509306535124779,-0.040132761001586914,-0.08208400011062622,-0.039483070373535156,0.13172674179077148,0.06188094615936279,-0.19354045391082764,-0.1422678530216217,0.18183690309524536,0.1524246782064438,-0.05136781930923462,-0.080680251121521,0.0,0.0,0.0,0.0,-0.05439621955156326,0.025587011128664017,-0.004937171936035156,-0.017797106876969337,-0.004476465750485659,0.06361924856901169,0.03557365760207176,0.0533013641834259,-0.09256108850240707,-0.06134703382849693,0.04112999886274338,-0.06785055249929428,0.09915384650230408,-0.06324021518230438,0.261534184217453,0.19655466079711914,0.1888905018568039,0.34500637650489807,-0.6376662254333496,0.8966317772865295,-0.30574432015419006,0.007274129427969456,0.2386634647846222,-0.12914401292800903,0.7131676077842712,-3.3043689727783203,-0.5149770379066467,0.5716807246208191,0.5263691544532776,-0.46148350834846497,0.8965057730674744,0.7788119316101074
1760497931.537226,0.02,-0.05855199694633484,0.09935131669044495,0.03986087441444397,-0.04340466111898422,-0.02765851840376854,-0.9986746311187744,-0.2387029528617859,-0.5606634020805359,0.17450249195098877,0.011198506690561771,-0.03384131193161011,-0.07459115982055664,-0.0423276349902153,0.12819504737854004,0.08064126968383789,-0.1808103322982788,-0.11928942799568176,0.14874887466430664,0.12475650012493134,-0.0391230583190918,-0.10015654563903809,0.0,0.0,0.0,0.0,-0.058344513177871704,0.01602066121995449,0.019605834037065506,0.003398016095161438,-0.011385878548026085,0.03790416195988655,0.03131312131881714,0.05073448643088341,-0.05529971048235893,-0.0695747658610344,0.02442033402621746,-0.038040176033973694,0.09805382043123245,-0.03822842240333557,0.26488426327705383,0.1972348541021347,-0.10741057991981506,0.4521002173423767,-0.7788065671920776,1.0451617240905762,-0.26300501823425293,0.16199664771556854,-0.004851937294006348,-0.20101240277290344,0.6414982676506042,-3.9592959880828857,-0.270972341299057,0.5332520008087158,0.4812595248222351,-0.31359198689460754,1.0189365148544312,0.8457530736923218
1760497931.6023116,0.02,-0.046554066240787506,0.12165972590446472,0.050884973257780075,-0.03450174629688263,-0.02321157604455948,-0.9991350769996643,-0.2387029528617859,-0.5606634020805359,0.17251265048980713,-0.011604735627770424,-0.02730739116668701,-0.06848609447479248,-0.03460995480418205,0.122335284948349,0.09066879749298096,-0.16683323681354523,-0.09830468893051147,0.1298113465309143,0.09689997881650925,-0.032469749450683594,-0.11028683185577393,0.0,0.0,0.0,0.0,-0.05548732355237007,0.017358101904392242,0.013587608002126217,0.02897244691848755,-0.01664767414331436,0.01842332072556019,0.037596043199300766,0.04808567091822624,-0.030272383242845535,-0.06796684861183167,0.011837905272841454,-0.01573871821165085,0.13502097129821777,-0.037064116448163986,0.258343905210495,0.22501733899116516,-0.35613036155700684,0.4693174362182617,-0.8363336324691772,1.1037790775299072,-0.1592494249343872,0.2407791167497635,0.22308304905891418,-0.1418260633945465,0.5687339305877686,-4.353862285614014,-0.16269537806510925,0.5186106562614441,0.6167268753051758,-0.26930198073387146,1.023963212966919,0.9172399640083313
1760497931.66013,0.02,-0.015281617641448975,0.14137981832027435,0.05372893810272217,-0.023974206298589706,-0.02126050740480423,-0.99948650598526,-0.2387029528617859,-0.5606634020805359,0.17030107975006104,-0.03205660730600357,-0.019466102123260498,-0.06505697965621948,-0.016044864431023598,0.11512073874473572,0.09366464614868164,-0.14544007182121277,-0.07586532831192017,0.11280196905136108,0.07093177735805511,-0.028617501258850098,-0.11381089687347412,0.0,0.0,0.0,0.0,-0.050038356333971024,0.020264262333512306,0.008482115343213081,0.05444709211587906,-0.019231325015425682,0.0017784594092518091,0.058974988758563995,0.05488990619778633,-0.03523598238825798,-0.0640970766544342,0.007149863988161087,-0.002521796617656946,0.15502649545669556,-0.057256586849689484,0.2474755495786667,0.206269308924675,-0.48512327671051025,0.4747230112552643,-0.868161678314209,1.2317098379135132,-0.09005328267812729,0.2725386917591095,0.46024516224861145,-0.05284283310174942,0.484235018491745,-4.517670631408691,-0.11351974308490753,0.5061526894569397,0.6696028709411621,-0.32090622186660767,0.9727365374565125,0.8621681332588196
1760497931.7219698,0.02,0.010111592710018158,0.15472236275672913,0.05341925099492073,-0.012284788303077221,-0.021798264235258102,-0.9996868968009949,-0.2387029528617859,-0.5606634020805359,0.1680516004562378,-0.0505371168255806,-0.010448157787322998,-0.06390637159347534,0.011616297997534275,0.10802128911018372,0.08927595615386963,-0.11422652751207352,-0.05023473501205444,0.0907394289970398,0.047018010169267654,-0.025618553161621094,-0.11301183700561523,0.0,0.0,0.0,0.0,-0.04646221920847893,0.02288692072033882,0.0032529798336327076,0.07429250329732895,-0.017818668857216835,-0.016952509060502052,0.08188773691654205,0.06255647540092468,-0.04878636822104454,-0.05983031913638115,0.006427131127566099,0.007066098507493734,0.1693325787782669,-0.08988887816667557,0.24526534974575043,0.19415120780467987,-0.4819713830947876,0.5219335556030273,-0.8774241209030151,1.3945221900939941,-0.022292666137218475,0.25424012541770935,0.634325385093689,0.0347733199596405,0.3841980993747711,-4.5454936027526855,-0.09189414978027344,0.49128371477127075,0.7268422842025757,-0.4302451014518738,0.9567895531654358,0.7580170035362244
1760497931.7859867,0.02,0.011317834258079529,0.15251703560352325,0.054679740220308304,-0.0001731179654598236,-0.023419909179210663,-0.9997256994247437,-0.2387029528617859,-0.5606634020805359,0.1658039093017578,-0.06861631572246552,-7.551908493041992e-05,-0.06541693210601807,0.044034216552972794,0.10087725520133972,0.08510005474090576,-0.07509881258010864,-0.02275615930557251,0.06399470567703247,0.023730425164103508,-0.021981120109558105,-0.10946333408355713,0.0,0.0,0.0,0.0,-0.047642432153224945,0.027300342917442322,-0.00622422993183136,0.08029681444168091,-0.0169993806630373,-0.008675487712025642,0.09708395600318909,0.06536772102117538,-0.05923670157790184,-0.06148552894592285,0.008677275851368904,0.011392971500754356,0.1754249781370163,-0.10993292182683945,0.25450003147125244,0.15957331657409668,-0.3914870321750641,0.5685591697692871,-0.8712377548217773,1.5900332927703857,0.056275732815265656,0.191370889544487,0.7930424213409424,0.11031437665224075,0.2711910903453827,-4.487680912017822,-0.08660253137350082,0.48866498470306396,0.7443735003471375,-0.5675084590911865,0.9878125190734863,0.5847499966621399
1760497931.8473327,0.02,-0.008894428610801697,0.16142061352729797,0.040349118411540985,0.012041792273521423,-0.02381923794746399,-0.9996437430381775,-0.2387029528617859,-0.5606634020805359,0.16390502452850342,-0.08840437233448029,0.011120736598968506,-0.07031524181365967,0.07777656614780426,0.09894132614135742,0.07510495185852051,-0.0299820639193058,0.004429221153259277,0.03433018922805786,-0.0002647585642989725,-0.013935685157775879,-0.11074471473693848,0.0,0.0,0.0,0.0,-0.05273644998669624,0.027065446600317955,-0.010008375160396099,0.08412673324346542,0.0003464101464487612,-0.0322970375418663,0.11214647442102432,0.06262125074863434,-0.06263412535190582,-0.06217901036143303,0.019728120416402817,0.005218581762164831,0.188539057970047,-0.1339096873998642,0.27975282073020935,0.1414496898651123,-0.3075152635574341,0.6231974363327026,-0.8579410314559937,1.8368654251098633,0.16096484661102295,0.13496966660022736,0.9354324340820312,0.1700451672077179,0.13786624372005463,-4.324015140533447,-0.07440393418073654,0.5396603345870972,0.8335385918617249,-0.6300027966499329,1.0833731889724731,0.458636999130249
1760497931.9081664,0.02,-0.022344112396240234,0.1585376113653183,0.04301977530121803,0.02438456192612648,-0.02287634089589119,-0.9994408488273621,-0.2387029528617859,-0.5606634020805359,0.16211473941802979,-0.10967137664556503,0.023114383220672607,-0.07810801267623901,0.11190732568502426,0.10330083966255188,0.055181264877319336,0.015315355733036995,0.026519596576690674,0.013130247592926025,-0.025256244465708733,-0.0066471099853515625,-0.10705721378326416,0.0,0.0,0.0,0.0,-0.05504065379500389,0.029352743178606033,-0.017409931868314743,0.08387448638677597,0.014751936309039593,-0.05660853534936905,0.10721812397241592,0.047729071229696274,-0.03623497113585472,-0.06456588208675385,0.016837017610669136,0.013246878981590271,0.19583381712436676,-0.129548579454422,0.3323333263397217,0.12667042016983032,-0.09266132116317749,0.7430157661437988,-0.8064335584640503,1.8362499475479126,0.21877819299697876,-0.03164278715848923,0.913932204246521,0.2550325393676758,0.07267946004867554,-3.8386266231536865,-0.09985040873289108,0.5368257761001587,0.9135417938232422,-0.6253272891044617,1.3124034404754639,0.403455913066864
1760497931.9689279,0.02,-0.00250399112701416,0.13954196870326996,0.060010142624378204,0.03563471511006355,-0.022428955882787704,-0.999113142490387,-0.2387029528617859,-0.5606634020805359,0.15978014469146729,-0.13035112619400024,0.03818291425704956,-0.09292763471603394,0.14290998876094818,0.11162173748016357,0.03023231029510498,0.041795238852500916,0.03872281312942505,0.01124030351638794,-0.050781238824129105,-0.0002161264419555664,-0.10342526435852051,0.0,0.0,0.0,0.0,-0.050242047756910324,0.03936263546347618,-0.03939473256468773,0.07277839630842209,0.022645553573966026,-0.06075393781065941,0.04946066811680794,0.01871955208480358,0.021450869739055634,-0.0638219565153122,0.016095304861664772,0.008323786780238152,0.21223051846027374,-0.062294334173202515,0.40541940927505493,0.12461304664611816,0.01354127749800682,0.7630176544189453,-0.768805742263794,1.3397502899169922,0.350563108921051,-0.23541967570781708,0.7579100131988525,0.28790512681007385,0.13110509514808655,-2.699392557144165,-0.11468950659036636,0.4111456274986267,0.9556096792221069,-0.40161845088005066,1.6667664051055908,0.34811556339263916
1760497932.0255804,0.02,-0.091764435172081,0.0668153315782547,0.07741495966911316,0.04296772554516792,-0.016733180731534958,-0.9989362955093384,-0.2387029528617859,-0.5606634020805359,0.156762957572937,-0.1553553342819214,0.05832076072692871,-0.11518329381942749,0.1545981764793396,0.12094968557357788,0.009279608726501465,0.032875366508960724,0.03263580799102783,0.04190230369567871,-0.08224743604660034,0.004563510417938232,-0.1029738187789917,0.0,0.0,0.0,0.0,-0.06507991999387741,0.05609004572033882,-0.06759007275104523,0.010189386084675789,0.0220979992300272,-0.04294358566403389,-0.0403217189013958,-0.03036423958837986,0.09888961166143417,-0.08548649400472641,0.008746333420276642,-0.013880926184356213,0.15706078708171844,0.06413323432207108,0.3895948529243469,0.1689220368862152,-0.14652368426322937,0.6784117221832275,-0.6682604551315308,-0.0934499204158783,0.41227471828460693,-0.5706430673599243,0.20372959971427917,0.2094147503376007,0.3171914517879486,-0.4052411615848541,0.07154214382171631,0.19123081862926483,0.699198842048645,-0.013231729157269001,1.8036657571792603,0.282081663608551
1760497932.0920773,0.02,-0.13614532351493835,-0.11158991605043411,0.07874532788991928,0.039069488644599915,-0.0043737320229411125,-0.9992269277572632,-0.2387029528617859,-0.5606634020805359,0.153533935546875,-0.17000871896743774,0.06640875339508057,-0.12729358673095703,0.1327744722366333,0.11888572573661804,0.0013867616653442383,-0.0023676396813243628,0.013037800788879395,0.06102859973907471,-0.10739509016275406,0.004324615001678467,-0.1129220724105835,0.0,0.0,0.0,0.0,-0.008222316391766071,0.005678547080606222,-0.02160283736884594,-0.06916473060846329,-0.013719637878239155,-0.02136765792965889,-0.08325855433940887,-0.046710412949323654,-0.003330051200464368,-0.03667736425995827,-0.00455975066870451,-0.03353315591812134,0.12551720440387726,0.119118332862854,0.3364272713661194,0.0984947681427002,-0.013585153967142105,0.01154346764087677,-0.5055561661720276,-2.240488052368164,0.3023701012134552,-0.7643826007843018,-0.3764864206314087,-0.12771250307559967,0.45043739676475525,1.755086898803711,0.3661850094795227,-0.3964165449142456,0.49797523021698,0.36796602606773376,1.4903545379638672,0.33999818563461304
1760497932.1520104,0.02,0.08329454809427261,-0.09052388370037079,0.08205720037221909,0.03180232644081116,-0.007827764376997948,-0.9994634985923767,-0.2387029528617859,-0.5606634020805359,0.1502629518508911,-0.14814531803131104,0.06411731243133545,-0.12347608804702759,0.11938852816820145,0.11465910077095032,-0.0010313987731933594,-0.02197922021150589,-0.0118330717086792,0.08251869678497314,-0.09645582735538483,0.00029981136322021484,-0.11443734169006348,0.0,0.0,0.0,0.0,0.074661023914814,-0.012363855727016926,0.021048974245786667,-0.02475721575319767,-0.008365804329514503,-0.006455021444708109,-0.04034862667322159,-0.06649525463581085,0.06591387838125229,0.05231715366244316,-0.01214094553142786,0.00553514389321208,0.0933488979935646,0.06022508069872856,0.23404066264629364,0.07176389545202255,-0.2589958906173706,-0.06008228659629822,-0.4431654214859009,-2.702620029449463,0.3649415373802185,-0.5378439426422119,-0.6133341789245605,-0.19988101720809937,0.8560508489608765,2.1094653606414795,0.4269406199455261,-0.5702601075172424,0.36269068717956543,0.1454162299633026,1.258195400238037,0.2937697768211365
1760497932.2340977,0.02,0.03525449335575104,-0.07692818343639374,0.06500384956598282,0.025710489600896835,-0.012906630523502827,-0.9995861053466797,-0.2387029528617859,-0.5606634020805359,0.1473907232284546,-0.1172238290309906,0.053954243659973145,-0.10538744926452637,0.10673896968364716,0.11372372508049011,0.0014647245407104492,-0.03973603621125221,-0.03701364994049072,0.11196112632751465,-0.06849683821201324,-0.006039261817932129,-0.10385072231292725,0.0,0.0,0.0,0.0,0.07205210626125336,-0.029607266187667847,0.047247644513845444,-0.03619615361094475,0.0026298570446670055,0.0048680356703698635,-0.04936125874519348,-0.058991312980651855,0.06703769415616989,0.0766758918762207,-0.014525617472827435,0.026072515174746513,0.0769456997513771,-0.0004637457604985684,0.1965012401342392,0.035529397428035736,-0.30551373958587646,-0.11102491617202759,-0.37791046500205994,-3.140782356262207,0.2891410291194916,-0.44858384132385254,-0.40361952781677246,-0.2764315903186798,0.9145129919052124,2.0248231887817383,0.33548223972320557,-0.48766958713531494,0.2603132724761963,-0.13665422797203064,0.983451783657074,0.1346062868833542
1760497932.286249,0.02,-0.030513903126120567,-0.09722036123275757,0.04767344519495964,0.01873750612139702,-0.012334773316979408,-0.9997483491897583,-0.2387029528617859,-0.5606634020805359,0.14523541927337646,-0.09114179760217667,0.03916478157043457,-0.08461165428161621,0.08716265112161636,0.11662256717681885,0.0033402442932128906,-0.06302713602781296,-0.05709803104400635,0.13403916358947754,-0.034804072231054306,-0.01317530870437622,-0.09092998504638672,0.0,0.0,0.0,0.0,0.05934932455420494,-0.03840109333395958,0.04608738794922829,-0.05428216606378555,0.00948796421289444,-0.0007221318664960563,-0.06255500763654709,-0.044356003403663635,0.04226242005825043,0.08849725127220154,-0.017325876280665398,0.028039738535881042,0.050404053181409836,-0.0771934762597084,0.16881029307842255,0.0029363734647631645,-0.06932294368743896,-0.14384838938713074,-0.3074790835380554,-3.3722167015075684,0.2583320736885071,-0.45604345202445984,-0.34688833355903625,-0.3854432702064514,0.9281733632087708,1.9455574750900269,0.1999223828315735,-0.42938464879989624,0.1344488263130188,-0.2971546947956085,0.7366577982902527,0.00129033625125885
1760497932.3482146,0.02,-0.005794264376163483,-0.11855044960975647,0.04457150399684906,0.009983201511204243,-0.011635680682957172,-0.9998824596405029,-0.2387029528617859,-0.5606634020805359,0.14343154430389404,-0.06297623366117477,0.022054553031921387,-0.0663178563117981,0.06640970706939697,0.11998236179351807,0.003512859344482422,-0.08708355575799942,-0.07484573125839233,0.15162646770477295,0.006105348002165556,-0.022717714309692383,-0.07646286487579346,0.0,0.0,0.0,0.0,0.07250534743070602,-0.04362523555755615,0.040757812559604645,-0.050938259810209274,0.01007906161248684,-0.003579203737899661,-0.05912001058459282,-0.040873877704143524,0.03437814116477966,0.10720735788345337,-0.0247780941426754,0.03318742662668228,0.024746384471654892,-0.048432834446430206,0.15169154107570648,-0.02327246032655239,0.2762269377708435,-0.21794447302818298,-0.2349148392677307,-3.227628707885742,0.30836933851242065,-0.45730921626091003,-0.370184063911438,-0.47655224800109863,0.9760453104972839,1.8691235780715942,0.058078959584236145,-0.3478161692619324,0.03629516810178757,-0.2754557430744171,0.6965753436088562,-0.10381068289279938
1760497932.4047132,0.02,0.037697143852710724,-0.14949725568294525,0.04756335914134979,-0.001058004330843687,-0.014131003990769386,-0.9998995661735535,-0.2387029528617859,-0.5606634020805359,0.14163482189178467,-0.026647990569472313,0.002169966697692871,-0.05101388692855835,0.04794919490814209,0.12323728203773499,0.0017272233963012695,-0.10908784717321396,-0.09180927276611328,0.16622209548950195,0.05382382497191429,-0.035628437995910645,-0.061008453369140625,0.0,0.0,0.0,0.0,0.09592197090387344,-0.05188239365816116,0.03375677391886711,-0.0445697084069252,0.00878893118351698,-0.00822971761226654,-0.05337425693869591,-0.038267090916633606,0.024970680475234985,0.12177475541830063,-0.03405782952904701,0.03561335429549217,0.003166117472574115,-0.05670725181698799,0.14370138943195343,-0.041554778814315796,0.5773220658302307,-0.36993369460105896,-0.1823142170906067,-2.970820188522339,0.3762163817882538,-0.4628306031227112,-0.3872056007385254,-0.5806151628494263,0.9876009225845337,1.9271098375320435,-0.06002438813447952,-0.2630763649940491,-0.03933180123567581,-0.2563771903514862,0.6074947714805603,-0.17629887163639069
1760497932.470999,0.02,0.07903334498405457,-0.1830260157585144,0.051106471568346024,-0.014764484949409962,-0.019950291141867638,-0.9996919631958008,-0.2387029528617859,-0.5606634020805359,0.1397634744644165,0.018069690093398094,-0.020160973072052002,-0.04126077890396118,0.032161589711904526,0.12651151418685913,-0.002772212028503418,-0.12906605005264282,-0.10744255781173706,0.17639070749282837,0.10550383478403091,-0.053878068923950195,-0.039665818214416504,0.0,0.0,0.0,0.0,0.11616165935993195,-0.057250358164310455,0.017695847898721695,-0.03909168392419815,0.008604045026004314,-0.013768987730145454,-0.04794522374868393,-0.03402483090758324,0.01273290254175663,0.12840861082077026,-0.047963809221982956,0.053679049015045166,-0.012515072710812092,-0.07947021722793579,0.13360199332237244,-0.0338752381503582,0.769078254699707,-0.4796963036060333,-0.16454234719276428,-2.5813732147216797,0.4163391590118408,-0.4842046797275543,-0.30628323554992676,-0.6793751120567322,0.9709948897361755,1.9238340854644775,-0.10814394801855087,-0.0599391907453537,-0.09185478836297989,-0.31364622712135315,0.5074219703674316,-0.14019058644771576
1760497932.538093,0.02,0.12295317649841309,-0.21462559700012207,0.060859620571136475,-0.03074907697737217,-0.0294187031686306,-0.9990941286087036,-0.2387029528617859,-0.5606634020805359,0.1378403902053833,0.058420099318027496,-0.042500972747802734,-0.037038207054138184,0.019035499542951584,0.12936726212501526,-0.004654645919799805,-0.14688898622989655,-0.12251248955726624,0.18450117111206055,0.15571746230125427,-0.07930958271026611,-0.00448000431060791,0.0,0.0,0.0,0.0,0.09460064023733139,-0.04957389086484909,-0.007709159050136805,-0.0325484573841095,0.0031140611972659826,0.0021541453897953033,-0.04500928893685341,-0.03422638401389122,0.011902865953743458,0.1174774318933487,-0.06647983193397522,0.09005653113126755,0.018233245238661766,-0.1368902325630188,0.11997318267822266,0.02353299967944622,0.6552003026008606,-0.4697759449481964,-0.25421959161758423,-1.8051085472106934,0.35926300287246704,-0.4882143437862396,-0.14237062633037567,-0.7512459754943848,0.9659920334815979,1.4237074851989746,-0.1511184722185135,0.29212117195129395,-0.004793174564838409,-0.4991505444049835,0.45324578881263733,0.0951266884803772
1760497932.6012313,0.02,0.047225967049598694,-0.17705494165420532,0.04631206765770912,-0.04720086604356766,-0.037381611764431,-0.9981856942176819,-0.2387029528617859,-0.5606634020805359,0.1357889175415039,0.08282887190580368,-0.05606764554977417,-0.04965007305145264,0.004134980961680412,0.12940713763237,-4.214048385620117e-05,-0.16710959374904633,-0.13593906164169312,0.1885088086128235,0.18875747919082642,-0.0966528058052063,0.011868178844451904,0.0,0.0,0.0,0.0,0.03563723340630531,-0.028136054053902626,-0.030458897352218628,-0.04941752180457115,0.0020295109134167433,0.020581750199198723,-0.06169765815138817,-0.036337386816740036,0.023676235228776932,0.05006038770079613,0.007327632512897253,-0.06728529185056686,0.0758204311132431,-0.13805274665355682,0.1334611177444458,0.10960062593221664,0.25430989265441895,-0.338973730802536,-0.3867967128753662,-0.652208685874939,0.29900652170181274,-0.3249204158782959,0.26310744881629944,-0.7259258031845093,0.8848020434379578,0.21792201697826385,-0.2484787255525589,0.6956031918525696,0.21337592601776123,-0.5017761588096619,0.58316969871521,0.49159425497055054
1760497932.6589584,0.02,-0.0282699316740036,-0.0398118756711483,0.020659111440181732,-0.053989872336387634,-0.036694854497909546,-0.9978669881820679,-0.2387029528617859,-0.5606634020805359,0.1346973180770874,0.07370031625032425,-0.05576491355895996,-0.0647076964378357,-0.01872260309755802,0.12782776355743408,0.021555423736572266,-0.19207285344600677,-0.1522970199584961,0.21006011962890625,0.1859958916902542,-0.0834471583366394,-0.02433907985687256,0.0,0.0,0.0,0.0,-0.04911363124847412,0.01738893985748291,-0.04583749920129776,-0.058713871985673904,-0.005234959535300732,0.06894385069608688,-0.06204912066459656,-0.04203450679779053,0.06427746266126633,-0.028311485424637794,0.035843007266521454,-0.07479188591241837,0.1402013599872589,-0.1015094444155693,0.14351995289325714,0.2412128448486328,-0.18705567717552185,0.026815205812454224,-0.4782557785511017,0.3178628981113434,0.006957508623600006,-0.13000740110874176,0.35637131333351135,-0.49252837896347046,0.9620994925498962,-1.2400676012039185,-0.3691374659538269,0.7341199517250061,0.46553462743759155,-0.4382249414920807,0.91359543800354,1.034041166305542
1760497932.7188687,0.02,-0.012955419719219208,0.0455910786986351,0.007878880016505718,-0.05243568867444992,-0.03305397182703018,-0.9980770945549011,-0.2387029528617859,-0.5606634020805359,0.13419759273529053,0.0477943941950798,-0.04572182893753052,-0.07714444398880005,-0.03720487654209137,0.12667202949523926,0.05041801929473877,-0.1971188336610794,-0.14814841747283936,0.19809722900390625,0.15906891226768494,-0.061103999614715576,-0.06888258457183838,0.0,0.0,0.0,0.0,-0.0559467151761055,0.0250285305082798,-0.02601148746907711,-0.03064688853919506,-0.001808971050195396,0.071601502597332,0.014640194363892078,0.027615735307335854,-0.05340631678700447,-0.05902053788304329,0.04878578335046768,-0.08994933217763901,0.15107665956020355,-0.06222376227378845,0.24385209381580353,0.2170669585466385,0.11406919360160828,0.1820572316646576,-0.5718725919723511,0.7184375524520874,-0.17548644542694092,-0.037058018147945404,0.3234431743621826,-0.24921396374702454,0.7786057591438293,-2.635117769241333,-0.5151212215423584,0.5992639660835266,0.5885145664215088,-0.41833439469337463,0.7959320545196533,0.9261842370033264
1760497932.782472,0.02,-0.04947765916585922,0.09143733233213425,0.019613279029726982,-0.04636022076010704,-0.028342977166175842,-0.9985226392745972,-0.2387029528617859,-0.5606634020805359,0.13353252410888672,0.02306528203189373,-0.0374605655670166,-0.07527130842208862,-0.04503601789474487,0.1244974136352539,0.0745311975479126,-0.18615873157978058,-0.12643417716026306,0.16118073463439941,0.1322689801454544,-0.04533541202545166,-0.09369850158691406,0.0,0.0,0.0,0.0,-0.05875825881958008,0.014325183816254139,0.024715915322303772,-0.006589432712644339,-0.0075678229331970215,0.052858322858810425,0.03450225666165352,0.054926272481679916,-0.07885857671499252,-0.06549625843763351,0.033277060836553574,-0.04862339049577713,0.0786968246102333,-0.031882863491773605,0.24289746582508087,0.19506584107875824,-0.01709873601794243,0.4273454546928406,-0.7111169099807739,1.0550671815872192,-0.30323129892349243,0.11731765419244766,-0.007959097623825073,-0.17818394303321838,0.6579493284225464,-3.57861065864563,-0.34131622314453125,0.584348738193512,0.49333786964416504,-0.302829772233963,0.8717599511146545,0.8262339234352112
1760497932.8379126,0.02,-0.048946380615234375,0.1098666563630104,0.034397758543491364,-0.03831280767917633,-0.023911835625767708,-0.9989796280860901,-0.2387029528617859,-0.5606634020805359,0.13226592540740967,-0.00044381595216691494,-0.031131625175476074,-0.06813877820968628,-0.04141315445303917,0.12049466371536255,0.08836066722869873,-0.17192962765693665,-0.10414284467697144,0.13437920808792114,0.10521560162305832,-0.03595203161239624,-0.10767519474029541,0.0,0.0,0.0,0.0,-0.05735022947192192,0.017723359167575836,0.014798847027122974,0.019406864419579506,-0.01170420553535223,0.02559247985482216,0.035942722111940384,0.0494762621819973,-0.04373721778392792,-0.06736256927251816,0.01780450902879238,-0.02570463716983795,0.11441713571548462,-0.01833287812769413,0.24196366965770721,0.209817573428154,-0.2695608139038086,0.48536309599876404,-0.8072123527526855,1.1072571277618408,-0.2142205834388733,0.20413796603679657,0.05440947413444519,-0.1695268154144287,0.5815451741218567,-4.085391998291016,-0.18716087937355042,0.5478546023368835,0.5469176769256592,-0.21274957060813904,0.9364129900932312,0.9219151139259338
1760497932.9044251,0.02,-0.02902352064847946,0.13169564306735992,0.04084068536758423,-0.028606269508600235,-0.021009141579270363,-0.9993699789047241,-0.2387029528617859,-0.5606634020805359,0.130615234375,-0.022235572338104248,-0.02366548776626587,-0.06409180164337158,-0.026757249608635902,0.11499267816543579,0.09353828430175781,-0.15364176034927368,-0.08248895406723022,0.11613905429840088,0.0790509358048439,-0.031108379364013672,-0.1137542724609375,0.0,0.0,0.0,0.0,-0.053488701581954956,0.01926569640636444,0.009674024768173695,0.045469652861356735,-0.01529991626739502,0.006615565624088049,0.04917488619685173,0.05133136734366417,-0.033324193209409714,-0.06491348892450333,0.008430810645222664,-0.007637695875018835,0.144648939371109,-0.03175566717982292,0.23370246589183807,0.2180783599615097,-0.43496257066726685,0.483449250459671,-0.84273362159729,1.2012208700180054,-0.1316702663898468,0.2568853795528412,0.28408679366111755,-0.08709830045700073,0.5012895464897156,-4.339474678039551,-0.11214135587215424,0.5413212776184082,0.6560653448104858,-0.2297058403491974,0.915727972984314,0.935422956943512
1760497932.9601681,0.02,-0.0010126233100891113,0.14861802756786346,0.041364166885614395,-0.017452027648687363,-0.020486505702137947,-0.9996377825737,-0.2387029528617859,-0.5606634020805359,0.12886762619018555,-0.04198070988059044,-0.015116095542907715,-0.062332987785339355,-0.0020436306949704885,0.10891741514205933,0.09124338626861572,-0.12691982090473175,-0.05857664346694946,0.09650224447250366,0.05486774444580078,-0.02816915512084961,-0.11420559883117676,0.0,0.0,0.0,0.0,-0.049065329134464264,0.02146720699965954,0.005346871446818113,0.06836044788360596,-0.015905506908893585,-0.011701463721692562,0.07116488367319107,0.058475133031606674,-0.0423123762011528,-0.060064803808927536,0.00566678075119853,0.004617543425410986,0.16187895834445953,-0.06007571145892143,0.2264777272939682,0.20961378514766693,-0.4823925495147705,0.515832781791687,-0.860261082649231,1.3377528190612793,-0.0639209970831871,0.2554002106189728,0.489239364862442,0.0047716982662677765,0.4088777005672455,-4.41268253326416,-0.08044813573360443,0.525877833366394,0.7121565937995911,-0.31749966740608215,0.8799681663513184,0.850712776184082
1760497933.0183444,0.02,0.017283529043197632,0.15854285657405853,0.04055501148104668,-0.005247127264738083,-0.022033242508769035,-0.9997434616088867,-0.2387029528617859,-0.5606634020805359,0.12711894512176514,-0.060304321348667145,-0.005451083183288574,-0.062263429164886475,0.03016391582787037,0.10266944766044617,0.084786057472229,-0.09122475236654282,-0.03231877088546753,0.0730544924736023,0.03235020115971565,-0.02491927146911621,-0.11101865768432617,0.0,0.0,0.0,0.0,-0.047224607318639755,0.024608565494418144,-0.0001214414878631942,0.08090310543775558,-0.02219986729323864,0.0027347267605364323,0.09079933166503906,0.06325127929449081,-0.05149456486105919,-0.05738888308405876,0.007750737015157938,0.012061105109751225,0.17032599449157715,-0.08167153596878052,0.2308451384305954,0.18430638313293457,-0.4348558783531189,0.5672422647476196,-0.8609287738800049,1.5215085744857788,0.008518494665622711,0.21100257337093353,0.6699707508087158,0.09325361996889114,0.3085084557533264,-4.401352405548096,-0.07226721942424774,0.5104188919067383,0.7368029356002808,-0.4541934132575989,0.8924432396888733,0.6884202361106873
1760497933.0751772,0.02,-0.0031428262591362,0.156757190823555,0.033611200749874115,0.006846118718385696,-0.0231542456895113,-0.9997084736824036,-0.2387029528617859,-0.5606634020805359,0.12550175189971924,-0.07959353923797607,0.005564272403717041,-0.06599640846252441,0.06444090604782104,0.0983743667602539,0.07822716236114502,-0.04912645369768143,-0.005047857761383057,0.04504746198654175,0.009375941939651966,-0.01876544952392578,-0.11039841175079346,0.0,0.0,0.0,0.0,-0.05208926275372505,0.02725008688867092,-0.008209737949073315,0.08476369082927704,-0.005076776724308729,-0.02569463662803173,0.10364214330911636,0.06427276879549026,-0.06125486642122269,-0.06041650101542473,0.019225046038627625,-0.0014071982586756349,0.17689789831638336,-0.11276514828205109,0.25219401717185974,0.16881023347377777,-0.3458779454231262,0.6208125352859497,-0.8527131080627441,1.7622592449188232,0.11130530387163162,0.1453063040971756,0.8439314365386963,0.15883761644363403,0.1877100169658661,-4.352117538452148,-0.07356145977973938,0.5306410789489746,0.7855939269065857,-0.5579874515533447,0.9750474691390991,0.5329461097717285
1760497933.1347446,0.02,-0.015088766813278198,0.16270485520362854,0.03021267056465149,0.01932229846715927,-0.022756831720471382,-0.9995542764663696,-0.2387029528617859,-0.5606634020805359,0.12415111064910889,-0.1006205752491951,0.01734304428100586,-0.07200783491134644,0.09983314573764801,0.100728839635849,0.06110048294067383,-0.003406847594305873,0.019698739051818848,0.019911766052246094,-0.014506777748465538,-0.011110663414001465,-0.10780942440032959,0.0,0.0,0.0,0.0,-0.05464448407292366,0.028630414977669716,-0.012323388829827309,0.08821932971477509,0.010054864920675755,-0.05019605904817581,0.11211711168289185,0.05566960200667381,-0.048861827701330185,-0.06156150624155998,0.017949437722563744,0.012428771704435349,0.1831338107585907,-0.124897800385952,0.2957373559474945,0.13680315017700195,-0.1562996506690979,0.7244194746017456,-0.8085471391677856,1.891205072402954,0.1807675063610077,0.02833772450685501,0.9255532026290894,0.2332543134689331,0.0851641297340393,-4.070417404174805,-0.08711498975753784,0.5699021220207214,0.8598380088806152,-0.595000684261322,1.1589722633361816,0.4497758746147156
1760497933.1998968,0.02,-0.01386842131614685,0.14886930584907532,0.044673722237348557,0.031204447150230408,-0.02184026688337326,-0.9992743730545044,-0.2387029528617859,-0.5606634020805359,0.12250745296478271,-0.12226338684558868,0.030944406986236572,-0.0833624005317688,0.13325431942939758,0.10794436931610107,0.03629636764526367,0.03209279477596283,0.03656435012817383,0.00974971055984497,-0.03941522166132927,-0.004831910133361816,-0.10344135761260986,0.0,0.0,0.0,0.0,-0.055113375186920166,0.035596687346696854,-0.028891026973724365,0.07987755537033081,0.020266996696591377,-0.06427669525146484,0.06705455482006073,0.03521758317947388,-0.010674386285245419,-0.06385457515716553,0.01528409868478775,0.010112606920301914,0.21392178535461426,-0.0851961299777031,0.37088701128959656,0.1411232352256775,-0.00818658247590065,0.795499324798584,-0.7670387029647827,1.5686817169189453,0.2951570749282837,-0.16623254120349884,0.8080236911773682,0.28399986028671265,0.10274288058280945,-3.166865110397339,-0.10205745697021484,0.48064982891082764,0.9490723609924316,-0.46656933426856995,1.4940851926803589,0.4426320195198059
1760497933.26201,0.02,-0.02508355677127838,0.10895189642906189,0.056598082184791565,0.04079997539520264,-0.020420199260115623,-0.9989586472511292,-0.2387029528617859,-0.5606634020805359,0.12024867534637451,-0.14396412670612335,0.04926341772079468,-0.10389155149459839,0.1565568745136261,0.11727547645568848,0.012832880020141602,0.040588993579149246,0.038688838481903076,0.02805614471435547,-0.0659787654876709,0.0014484524726867676,-0.10087871551513672,0.0,0.0,0.0,0.0,-0.05463208630681038,0.049189675599336624,-0.05822679400444031,0.04597186669707298,0.02401876077055931,-0.051256269216537476,0.0055504958145320415,-0.007055176887661219,0.0685124546289444,-0.06858878582715988,0.017375746741890907,0.0014845008263364434,0.19490574300289154,0.020461013540625572,0.4106822907924652,0.11819713562726974,0.005563225597143173,0.7305172681808472,-0.7401719093322754,0.6489604711532593,0.4129231870174408,-0.41071030497550964,0.5458000898361206,0.2613160014152527,0.22662274539470673,-1.596590518951416,-0.0799235999584198,0.30752038955688477,0.8738938570022583,-0.13275006413459778,1.7559819221496582,0.28863775730133057
1760497933.332136,0.02,-0.16802836954593658,-0.035691037774086,0.06852234899997711,0.04235214367508888,-0.009084608405828476,-0.9990614652633667,-0.2387029528617859,-0.5606634020805359,0.11750733852386475,-0.1686840057373047,0.06560444831848145,-0.12483870983123779,0.14686448872089386,0.12029939889907837,0.0009669065475463867,0.011376402340829372,0.023173987865447998,0.05988812446594238,-0.09686582535505295,0.005143404006958008,-0.10544788837432861,0.0,0.0,0.0,0.0,-0.0536988340318203,0.03570760414004326,-0.05404648929834366,-0.05377684906125069,-0.002498208312317729,-0.01847817935049534,-0.08948025107383728,-0.054724883288145065,0.07434006780385971,-0.06871497631072998,0.006646269466727972,-0.02250625193119049,0.1367996782064438,0.10284502804279327,0.2898483872413635,0.1069449931383133,-0.07338500022888184,0.36372092366218567,-0.5950802564620972,-1.4025557041168213,0.3543368875980377,-0.7163490056991577,-0.16303026676177979,0.07598201185464859,0.4142228662967682,0.9428837299346924,0.2546018958091736,-0.10203495621681213,0.5283536911010742,0.3223370611667633,1.6124287843704224,0.3054376244544983
1760497933.3911684,0.02,0.002170369029045105,-0.11319177597761154,0.07555815577507019,0.03556668385863304,-0.005283411592245102,-0.9993533492088318,-0.2387029528617859,-0.5606634020805359,0.11451900005340576,-0.16415192186832428,0.06806010007858276,-0.1283528208732605,0.12597140669822693,0.1139228343963623,-0.0008260011672973633,-0.015409520827233791,0.001827239990234375,0.07486820220947266,-0.10073594748973846,0.004321932792663574,-0.11312460899353027,0.0,0.0,0.0,0.0,0.04379461333155632,-0.006000441964715719,0.003509203437715769,-0.04290800914168358,-0.015328205190598965,-0.020256487652659416,-0.05542907118797302,-0.056537874042987823,0.03012239746749401,0.021556377410888672,-0.006566642317920923,-0.017601603642106056,0.10871833562850952,0.060164209455251694,0.277033269405365,0.10978235304355621,-0.1434493064880371,-0.10777232050895691,-0.4703723192214966,-2.625532388687134,0.3684192895889282,-0.6272969245910645,-0.602678656578064,-0.2051994502544403,0.6994598507881165,2.1183154582977295,0.3465504050254822,-0.6303386092185974,0.43940508365631104,0.4007064998149872,1.3385834693908691,0.4453771114349365
1760497933.4519541,0.02,0.07063136994838715,-0.08079825341701508,0.06469862908124924,0.028824781998991966,-0.011126585304737091,-0.9995225667953491,-0.2387029528617859,-0.5606634020805359,0.11174285411834717,-0.13353393971920013,0.06109386682510376,-0.11587792634963989,0.11444540321826935,0.11076870560646057,0.0005968809127807617,-0.03210121765732765,-0.023324131965637207,0.10055732727050781,-0.07702430337667465,-0.001571953296661377,-0.10442674160003662,0.0,0.0,0.0,0.0,0.0796365737915039,-0.026072293519973755,0.0461483970284462,-0.0292607843875885,-0.004354014527052641,0.0045433626510202885,-0.04161238297820091,-0.0628400444984436,0.06642734259366989,0.07190731912851334,-0.015049189329147339,0.02758057229220867,0.08254911005496979,0.027810877189040184,0.21695451438426971,0.07418754696846008,-0.23271435499191284,-0.0804518610239029,-0.4094434976577759,-2.981644630432129,0.3653005361557007,-0.44138965010643005,-0.40601569414138794,-0.2516036033630371,0.8902580142021179,1.9644849300384521,0.3811855912208557,-0.4634513854980469,0.29823946952819824,0.01686420664191246,1.135300874710083,0.29308509826660156
1760497933.5135322,0.02,-0.0023978203535079956,-0.08860951662063599,0.0464513786137104,0.022228220477700233,-0.013289986178278923,-0.9996646046638489,-0.2387029528617859,-0.5606634020805359,0.10961711406707764,-0.10406643152236938,0.04678112268447876,-0.09361875057220459,0.09769332408905029,0.11111727356910706,0.00452733039855957,-0.05235593020915985,-0.04541116952896118,0.1247626543045044,-0.04517574980854988,-0.008141517639160156,-0.09157097339630127,0.0,0.0,0.0,0.0,0.0666622444987297,-0.038328494876623154,0.05156179144978523,-0.04687900468707085,0.005508914589881897,0.005392138846218586,-0.05623406916856766,-0.049927350133657455,0.05018850043416023,0.08313827961683273,-0.01502994168549776,0.02716834656894207,0.05560597777366638,-0.019734032452106476,0.18325617909431458,0.041514988988637924,-0.1553313136100769,-0.16963201761245728,-0.3470818102359772,-3.370488166809082,0.2960927188396454,-0.42118141055107117,-0.32016634941101074,-0.37442731857299805,0.9200595021247864,1.9345242977142334,0.23118939995765686,-0.45335882902145386,0.15722131729125977,-0.1858762800693512,0.8217422962188721,0.15481694042682648
1760497933.5701854,0.02,-0.024475809186697006,-0.11252571642398834,0.03499912470579147,0.014042230322957039,-0.011982903815805912,-0.9998295903205872,-0.2387029528617859,-0.5606634020805359,0.10807740688323975,-0.07683936506509781,0.02920353412628174,-0.07288247346878052,0.07625150680541992,0.11424520611763,0.005975008010864258,-0.07640130072832108,-0.06336379051208496,0.1421632170677185,-0.00840037502348423,-0.016547203063964844,-0.07758891582489014,0.0,0.0,0.0,0.0,0.06661143153905869,-0.044745299965143204,0.045409463346004486,-0.054395079612731934,0.01114401314407587,-0.0021751972381025553,-0.06137925386428833,-0.0401001051068306,0.03222837299108505,0.09615755826234818,-0.021615246310830116,0.03155912458896637,0.023248299956321716,-0.04406113177537918,0.1561783254146576,0.012926377356052399,0.17199277877807617,-0.19812417030334473,-0.26668697595596313,-3.3984806537628174,0.3060484528541565,-0.43780848383903503,-0.30974632501602173,-0.4745548367500305,0.9322403073310852,1.8475854396820068,0.10242663323879242,-0.3624560236930847,0.02182888239622116,-0.2841034233570099,0.6513881087303162,0.04091198742389679
1760497933.6306841,0.02,0.017221681773662567,-0.138784721493721,0.03528941422700882,0.0037582507357001305,-0.012776505202054977,-0.9999113082885742,-0.2387029528617859,-0.5606634020805359,0.10672581195831299,-0.04353480041027069,0.00932919979095459,-0.055706679821014404,0.05579882487654686,0.11815109848976135,0.0050542354583740234,-0.09932722896337509,-0.08011835813522339,0.15682387351989746,0.035130131989717484,-0.028014004230499268,-0.06284546852111816,0.0,0.0,0.0,0.0,0.08794211596250534,-0.05099081993103027,0.037753354758024216,-0.04954233765602112,0.011210224591195583,-0.0078023201785981655,-0.05540153384208679,-0.03844659402966499,0.027160463854670525,0.11226093769073486,-0.0302205141633749,0.03350790962576866,-0.0028592352755367756,-0.06084856390953064,0.13872139155864716,-0.0097325649112463,0.4920313358306885,-0.31707361340522766,-0.19762808084487915,-3.1845686435699463,0.36051592230796814,-0.44405534863471985,-0.34995394945144653,-0.5686721205711365,0.9687918424606323,1.8601980209350586,-0.031258270144462585,-0.29321807622909546,-0.07039684802293777,-0.26064804196357727,0.588388979434967,-0.05070953071117401
1760497933.693104,0.02,0.06145015358924866,-0.1693478673696518,0.039978161454200745,-0.00890999287366867,-0.017169637605547905,-0.99981290102005,-0.2387029528617859,-0.5606634020805359,0.10528814792633057,-0.0006280351080931723,-0.013293027877807617,-0.04243731498718262,0.038129810243844986,0.12147435545921326,0.0017499923706054688,-0.11992470920085907,-0.09646844863891602,0.16876262426376343,0.0839071124792099,-0.04379397630691528,-0.04560959339141846,0.0,0.0,0.0,0.0,0.11293603479862213,-0.05838710814714432,0.02794901840388775,-0.04310958832502365,0.008395410142838955,-0.01158162672072649,-0.04994192346930504,-0.0366957001388073,0.018451234325766563,0.12262039631605148,-0.041597284376621246,0.04137523099780083,-0.017936227843165398,-0.06513776630163193,0.1346735656261444,-0.01592063531279564,0.7375150918960571,-0.44689688086509705,-0.14465337991714478,-2.8598663806915283,0.4274706244468689,-0.45473912358283997,-0.3314597010612488,-0.6455991268157959,0.9716966152191162,1.949049472808838,-0.11295013874769211,-0.16506506502628326,-0.11521933227777481,-0.23047509789466858,0.5482923984527588,-0.07181130349636078
1760497933.7554762,0.02,0.11604325473308563,-0.20110246539115906,0.04140431806445122,-0.023988546803593636,-0.025255631655454636,-0.9993931651115417,-0.2387029528617859,-0.5606634020805359,0.10386431217193604,0.04414597153663635,-0.03703862428665161,-0.03435969352722168,0.02320210263133049,0.12480702996253967,-0.003734886646270752,-0.13824021816253662,-0.11219814419746399,0.17808139324188232,0.13431888818740845,-0.06615984439849854,-0.017554759979248047,0.0,0.0,0.0,0.0,0.10568726062774658,-0.05919924005866051,0.015938563272356987,-0.0338607095181942,0.008604463189840317,-0.017924418672919273,-0.04306817054748535,-0.03596670553088188,0.014615210704505444,0.12379103153944016,-0.05810703709721565,0.07163342088460922,-0.006517283618450165,-0.08208581805229187,0.11905746906995773,0.014592573046684265,0.7381054759025574,-0.4825127422809601,-0.18483197689056396,-2.217241048812866,0.39903581142425537,-0.48132866621017456,-0.2046591341495514,-0.7165440917015076,0.9530656933784485,1.7186927795410156,-0.13384175300598145,0.13895051181316376,-0.10305608063936234,-0.37432172894477844,0.4449872076511383,0.05682365596294403
1760497933.8194096,0.02,0.09155793488025665,-0.2105219066143036,0.05441015958786011,-0.041214436292648315,-0.03478366881608963,-0.9985446929931641,-0.2387029528617859,-0.5606634020805359,0.1019977331161499,0.07823336124420166,-0.05433320999145508,-0.04178667068481445,0.009427854791283607,0.12484174966812134,-0.0009757876396179199,-0.15678399801254272,-0.1263284683227539,0.18373870849609375,0.17583921551704407,-0.09336113929748535,0.019042789936065674,0.0,0.0,0.0,0.0,0.06948820501565933,-0.03649870306253433,-0.026753893122076988,-0.040501680225133896,0.0042371186427772045,0.005181353073567152,-0.05226835608482361,-0.03205045312643051,0.012724685482680798,0.07564766705036163,-0.009185532107949257,-0.052336789667606354,0.0389430895447731,-0.12800613045692444,0.11383839696645737,0.18297694623470306,0.5333890914916992,-0.4007868468761444,-0.3143566846847534,-1.238157033920288,0.3100757598876953,-0.423649400472641,0.017347216606140137,-0.7315104007720947,0.925182044506073,0.7829173803329468,-0.21931520104408264,0.5107990503311157,0.09383872896432877,-0.5060006976127625,0.4608670175075531,0.37950292229652405
1760497933.874905,0.02,-0.011423084884881973,-0.08385728299617767,0.017468344420194626,-0.05131583660840988,-0.0364583320915699,-0.9980167746543884,-0.2387029528617859,-0.5606634020805359,0.10086989402770996,0.08189410716295242,-0.05898714065551758,-0.055261433124542236,-0.012870232574641705,0.12458881735801697,0.014348745346069336,-0.18142488598823547,-0.14314934611320496,0.20361381769180298,0.18630920350551605,-0.08792328834533691,-0.00640869140625,0.0,0.0,0.0,0.0,-0.02056514099240303,0.0025159225333482027,-0.03961038216948509,-0.062197696417570114,-0.0023119510151445866,0.053654350340366364,-0.063299261033535,-0.049433495849370956,0.07431388646364212,0.00126572884619236,0.025928590446710587,-0.06925919651985168,0.05953372269868851,-0.1384466588497162,0.14477206766605377,0.23528538644313812,-0.24292749166488647,-0.13913193345069885,-0.45644503831863403,0.09671786427497864,0.102745421230793,-0.17142747342586517,0.2762761414051056,-0.5896121263504028,0.9423345327377319,-0.5592604875564575,-0.31656113266944885,0.7562233805656433,0.07184626907110214,-0.4640178680419922,0.7223082184791565,0.9069790840148926
1760497933.9294283,0.02,-0.02431577816605568,0.029651634395122528,0.0013090356951579452,-0.05210291966795921,-0.032523732632398605,-0.9981119632720947,-0.2387029528617859,-0.5606634020805359,0.10056066513061523,0.05713777616620064,-0.049066245555877686,-0.07079333066940308,-0.03533476963639259,0.12345364689826965,0.041720032691955566,-0.19535593688488007,-0.14689373970031738,0.20764297246932983,0.1629483848810196,-0.06681901216506958,-0.05121183395385742,0.0,0.0,0.0,0.0,-0.06164342164993286,0.032209597527980804,-0.030720030888915062,-0.04242315515875816,-0.0017363844672217965,0.07487448304891586,-0.008820642717182636,0.005612367298454046,-0.006726133171468973,-0.06383910775184631,0.05345238372683525,-0.10514257103204727,0.10517089813947678,-0.07239531725645065,0.22957448661327362,0.23445244133472443,-0.027421984821558,0.1421152651309967,-0.5247480869293213,0.6454240083694458,-0.11634369939565659,-0.0443049892783165,0.29321399331092834,-0.32392430305480957,0.8400813937187195,-2.1057963371276855,-0.47388195991516113,0.6313322186470032,0.44435757398605347,-0.4184698760509491,0.7982583045959473,1.0161607265472412
1760497933.9931571,0.02,-0.03290176019072533,0.07530130445957184,0.0023459414951503277,-0.04743390530347824,-0.028838656842708588,-0.9984579682350159,-0.2387029528617859,-0.5606634020805359,0.10046827793121338,0.03212184086441994,-0.037098467350006104,-0.07540744543075562,-0.04574813321232796,0.12176346778869629,0.06732475757598877,-0.18538233637809753,-0.1272723376750946,0.1699308156967163,0.1372530311346054,-0.048996150493621826,-0.08152163028717041,0.0,0.0,0.0,0.0,-0.05766172334551811,0.029146838933229446,-0.005117167718708515,-0.01194095890969038,-0.005669768899679184,0.0580783374607563,0.0390658937394619,0.056184377521276474,-0.09776748716831207,-0.06098410487174988,0.038622185587882996,-0.06100652366876602,0.07210706919431686,-0.03916185721755028,0.23483073711395264,0.20352958142757416,0.09254781901836395,0.31370773911476135,-0.6667460203170776,1.0205613374710083,-0.2980633080005646,0.06780741363763809,0.02589556574821472,-0.18101274967193604,0.6598197221755981,-3.1751561164855957,-0.43047305941581726,0.6018080711364746,0.39110806584358215,-0.334416002035141,0.7992910742759705,0.8508577346801758
1760497934.0539315,0.02,-0.051960669457912445,0.10174919664859772,0.021878967061638832,-0.04008488357067108,-0.0240202434360981,-0.9989075064659119,-0.2387029528617859,-0.5606634020805359,0.09979307651519775,0.0074462080374360085,-0.030059874057769775,-0.06830066442489624,-0.045063115656375885,0.11832386255264282,0.08381927013397217,-0.17160527408123016,-0.10434883832931519,0.13670581579208374,0.11036957800388336,-0.037533462047576904,-0.09909319877624512,0.0,0.0,0.0,0.0,-0.05937430262565613,0.01644747331738472,0.018805725499987602,0.01381278969347477,-0.010477947071194649,0.03182163089513779,0.033445391803979874,0.04927874356508255,-0.05416591092944145,-0.06658431142568588,0.022937314584851265,-0.03479655086994171,0.09153725951910019,-0.018290860578417778,0.23423324525356293,0.209482342004776,-0.122889444231987,0.41152817010879517,-0.7708554267883301,1.1232959032058716,-0.24333104491233826,0.17651887238025665,-0.11114045977592468,-0.18986642360687256,0.5838913321495056,-3.7554285526275635,-0.21925705671310425,0.5678187608718872,0.4742964506149292,-0.21962466835975647,0.888683557510376,0.9057413935661316
1760497934.1187787,0.02,-0.03330119699239731,0.12395811825990677,0.029472680762410164,-0.031005075201392174,-0.020788518711924553,-0.9993030428886414,-0.2387029528617859,-0.5606634020805359,0.09862124919891357,-0.015185649506747723,-0.023595571517944336,-0.06332522630691528,-0.032366685569286346,0.11340793967247009,0.09094953536987305,-0.1554856151342392,-0.08389437198638916,0.11710470914840698,0.084438756108284,-0.031176388263702393,-0.10842275619506836,0.0,0.0,0.0,0.0,-0.05538157746195793,0.01645560748875141,0.011527949012815952,0.041309017688035965,-0.013650319539010525,0.010942880064249039,0.04245442897081375,0.047131460160017014,-0.03351892530918121,-0.06413141638040543,0.011615123599767685,-0.015132498927414417,0.13820135593414307,-0.023115970194339752,0.22662274539470673,0.22106514871120453,-0.34898707270622253,0.4537242650985718,-0.821677565574646,1.1911896467208862,-0.14742976427078247,0.2404588907957077,0.1527303159236908,-0.11658797413110733,0.5033786296844482,-4.126545429229736,-0.12919826805591583,0.5612422823905945,0.6396558284759521,-0.1997711956501007,0.8779226541519165,0.9641783237457275
1760497934.176354,0.02,-0.007968023419380188,0.1433994174003601,0.032081153243780136,-0.020312011241912842,-0.019703855738043785,-0.9995995163917542,-0.2387029528617859,-0.5606634020805359,0.09727299213409424,-0.03580678626894951,-0.01647484302520752,-0.06059622764587402,-0.00916052982211113,0.10789522528648376,0.09025084972381592,-0.13222818076610565,-0.061918020248413086,0.09885543584823608,0.06023714318871498,-0.027710258960723877,-0.11138749122619629,0.0,0.0,0.0,0.0,-0.05106281861662865,0.017830034717917442,0.007662174757570028,0.06524170190095901,-0.014537273906171322,-0.007914531044661999,0.06232376769185066,0.05378780514001846,-0.03828680142760277,-0.06013594940304756,0.006244929973036051,-0.0011143832234665751,0.16163398325443268,-0.044658053666353226,0.21577835083007812,0.22147808969020844,-0.4437738060951233,0.5050094127655029,-0.8399916887283325,1.3049120903015137,-0.08229460567235947,0.2490226775407791,0.3894658386707306,-0.013195797801017761,0.4188102185726166,-4.284034729003906,-0.08986921608448029,0.5458968877792358,0.7253715395927429,-0.25949645042419434,0.833530068397522,0.9228972792625427
1760497934.236389,0.02,0.014953173696994781,0.156742125749588,0.03153254836797714,-0.008320797234773636,-0.02086353302001953,-0.9997476935386658,-0.2387029528617859,-0.5606634020805359,0.095908522605896,-0.054738059639930725,-0.008258461952209473,-0.05942988395690918,0.022471833974123,0.10268032550811768,0.08267045021057129,-0.09982859343290329,-0.03723645210266113,0.07717519998550415,0.03791390731930733,-0.024692833423614502,-0.10990321636199951,0.0,0.0,0.0,0.0,-0.04815550893545151,0.020608393475413322,0.0036843258421868086,0.08053072541952133,-0.020637011155486107,0.0018550277454778552,0.08362435549497604,0.0599931962788105,-0.04759354516863823,-0.056451477110385895,0.006610907148569822,0.008355365134775639,0.1699921190738678,-0.06374509632587433,0.21478264033794403,0.2018003761768341,-0.4356200397014618,0.5656958818435669,-0.846135139465332,1.47073495388031,-0.015238218009471893,0.2157108336687088,0.5891522169113159,0.08121193200349808,0.32506856322288513,-4.313744068145752,-0.07538002729415894,0.5272002220153809,0.7504223585128784,-0.38051319122314453,0.8271012902259827,0.7807254195213318
1760497934.2936852,0.02,0.006005413830280304,0.15261395275592804,0.029065992683172226,0.003643689677119255,-0.0223429836332798,-0.9997437000274658,-0.2387029528617859,-0.5606634020805359,0.09455454349517822,-0.07389886677265167,0.0018979907035827637,-0.06252717971801758,0.056820932775735855,0.09767776727676392,0.07820916175842285,-0.06029408425092697,-0.010898888111114502,0.05086106061935425,0.015604500658810139,-0.020178020000457764,-0.10833632946014404,0.0,0.0,0.0,0.0,-0.050902534276247025,0.02607133984565735,-0.008332068100571632,0.08557357639074326,-0.007686533033847809,-0.02044501155614853,0.09811518341302872,0.06299243122339249,-0.058825671672821045,-0.05818691849708557,0.01741807721555233,-0.008015673607587814,0.17508547008037567,-0.09677906334400177,0.23255197703838348,0.19718198478221893,-0.36236128211021423,0.6276689767837524,-0.8413410186767578,1.6945133209228516,0.07889343053102493,0.15049637854099274,0.7786921262741089,0.15455085039138794,0.21399933099746704,-4.2974772453308105,-0.07160192728042603,0.5351747274398804,0.7806006073951721,-0.49492302536964417,0.8929764628410339,0.6175308227539062
1760497934.3530145,0.02,-0.010103493928909302,0.16366922855377197,0.021179692819714546,0.01612020842730999,-0.02236221730709076,-0.9996199607849121,-0.2387029528617859,-0.5606634020805359,0.09350621700286865,-0.09480047971010208,0.013236045837402344,-0.06766819953918457,0.09235305339097977,0.09904652833938599,0.0636453628540039,-0.01583029516041279,0.014320313930511475,0.02496284246444702,-0.007544486317783594,-0.01271355152130127,-0.1070859432220459,0.0,0.0,0.0,0.0,-0.05452410504221916,0.027813060209155083,-0.010313558392226696,0.08862034231424332,0.007737153675407171,-0.043647315353155136,0.1103142723441124,0.057650186121463776,-0.05226072669029236,-0.05958225950598717,0.017752066254615784,0.010441078804433346,0.17428408563137054,-0.11634524911642075,0.26854217052459717,0.14677220582962036,-0.20736265182495117,0.7031437158584595,-0.8054696321487427,1.8640251159667969,0.1564328968524933,0.052445270121097565,0.8949737548828125,0.21907305717468262,0.10242035984992981,-4.066437244415283,-0.07428859174251556,0.5884830355644226,0.815598726272583,-0.560444176197052,1.047200083732605,0.49471741914749146
1760497934.4184914,0.02,-0.018115341663360596,0.15241165459156036,0.032683342695236206,0.0283306036144495,-0.021652674302458763,-0.9993640780448914,-0.2387029528617859,-0.5606634020805359,0.09235405921936035,-0.11657088249921799,0.0261344313621521,-0.07757169008255005,0.1266598254442215,0.10555270314216614,0.04065382480621338,0.023679031059145927,0.032610416412353516,0.012423932552337646,-0.0315503366291523,-0.006813526153564453,-0.10254526138305664,0.0,0.0,0.0,0.0,-0.057065483182668686,0.03320498391985893,-0.02415848709642887,0.08171650022268295,0.018637685105204582,-0.06190667673945427,0.07140754908323288,0.04584472253918648,-0.0344734750688076,-0.06335549801588058,0.013613956980407238,0.011468238197267056,0.2046053260564804,-0.09024759382009506,0.36184653639793396,0.15090309083461761,-0.05003071203827858,0.8075501918792725,-0.7629472017288208,1.6685487031936646,0.25489503145217896,-0.12624143064022064,0.81186842918396,0.2797284424304962,0.09509363770484924,-3.347292184829712,-0.08944419026374817,0.5242517590522766,0.9250385761260986,-0.4799017310142517,1.3626148700714111,0.509229302406311
1760497934.4819722,0.02,-0.0058522820472717285,0.12391282618045807,0.04341048002243042,0.038808416575193405,-0.021452300250530243,-0.9990163445472717,-0.2387029528617859,-0.5606634020805359,0.09062206745147705,-0.13761676847934723,0.04339790344238281,-0.09689557552337646,0.15382252633571625,0.11444249749183655,0.017180442810058594,0.038949333131313324,0.03833359479904175,0.024505138397216797,-0.05627436190843582,-0.001129746437072754,-0.09921205043792725,0.0,0.0,0.0,0.0,-0.051917340606451035,0.04524850472807884,-0.05248123034834862,0.05812745913863182,0.023161951452493668,-0.05308530479669571,0.02367415279150009,0.002130904933437705,0.054651856422424316,-0.06310724467039108,0.015315623953938484,0.005515134893357754,0.2000952512025833,0.0040313624776899815,0.40495535731315613,0.13184313476085663,0.006425973027944565,0.7659709453582764,-0.7563296556472778,0.9366159439086914,0.38639768958091736,-0.3374062776565552,0.6429489850997925,0.27602991461753845,0.20326097309589386,-2.0510880947113037,-0.11477299779653549,0.36249661445617676,0.9114954471588135,-0.16885864734649658,1.7080074548721313,0.34638357162475586
1760497934.5456328,0.02,-0.1557205766439438,0.018282927572727203,0.061862602829933167,0.04332869127392769,-0.011584850028157234,-0.9989936947822571,-0.2387029528617859,-0.5606634020805359,0.08823573589324951,-0.16640831530094147,0.06433999538421631,-0.1229557991027832,0.1515291929244995,0.12061461806297302,0.0029289722442626953,0.015891069546341896,0.02615821361541748,0.06004178524017334,-0.09099143743515015,0.004254341125488281,-0.10248923301696777,0.0,0.0,0.0,0.0,-0.07368945330381393,0.05458885431289673,-0.07391773909330368,-0.03297080844640732,0.00959120225161314,-0.02225077524781227,-0.07697444409132004,-0.04456831142306328,0.09451483190059662,-0.09474387764930725,0.016186704859137535,-0.025334779173135757,0.12724493443965912,0.10331638157367706,0.264144629240036,0.11816706508398056,-0.11316391825675964,0.5633213520050049,-0.6217317581176758,-0.9542595148086548,0.3789070248603821,-0.6817194223403931,-0.0530737042427063,0.14516326785087585,0.4089960753917694,0.49629461765289307,0.17911970615386963,0.03929348289966583,0.6012407541275024,0.21576771140098572,1.6525886058807373,0.36723750829696655
1760497934.6059282,0.02,-0.04509255662560463,-0.12770378589630127,0.06262702494859695,0.03709186986088753,-0.0036866702139377594,-0.9993050694465637,-0.2387029528617859,-0.5606634020805359,0.08567368984222412,-0.17199775576591492,0.06889015436172485,-0.13004672527313232,0.12764455378055573,0.11518239974975586,-0.0008016228675842285,-0.01449452806264162,0.0062811970710754395,0.07353812456130981,-0.10785724222660065,0.005204141139984131,-0.11379194259643555,0.0,0.0,0.0,0.0,0.024492019787430763,-0.005226617678999901,-0.0032169704791158438,-0.053354837000370026,-0.014811508357524872,-0.02896459773182869,-0.0626952275633812,-0.05182608962059021,0.010263065807521343,-0.006582559086382389,-0.0038623616565018892,-0.030220044776797295,0.1166367307305336,0.09697363525629044,0.2947506606578827,0.11537764221429825,-0.004115227609872818,-0.11231812834739685,-0.47087493538856506,-2.6974034309387207,0.34975630044937134,-0.7195008993148804,-0.5167734622955322,-0.2126886248588562,0.5917122960090637,2.113075017929077,0.33715060353279114,-0.5907982587814331,0.47449982166290283,0.47797831892967224,1.3309162855148315,0.4549509286880493
1760497934.6615133,0.02,0.09881667792797089,-0.08465687930583954,0.0570339560508728,0.029803059995174408,-0.010376962833106518,-0.9995019435882568,-0.2387029528617859,-0.5606634020805359,0.08330762386322021,-0.14236576855182648,0.06325942277908325,-0.12068402767181396,0.11680333316326141,0.11198827624320984,-0.0019410252571105957,-0.029583370313048363,-0.019735276699066162,0.0987476110458374,-0.09021370112895966,0.00143355131149292,-0.11152470111846924,0.0,0.0,0.0,0.0,0.08938553184270859,-0.01692820154130459,0.026251304894685745,-0.023928802460432053,-0.004114371258765459,-0.00028280913829803467,-0.034146349877119064,-0.06760939210653305,0.07183762639760971,0.06226958706974983,-0.01203127671033144,0.018541960045695305,0.0823795422911644,0.037416744977235794,0.21290652453899384,0.08689146488904953,-0.21753185987472534,-0.06724460422992706,-0.42155173420906067,-2.9476168155670166,0.3588012158870697,-0.4804895222187042,-0.5069653987884521,-0.22497308254241943,0.912940502166748,2.0230026245117188,0.4032280445098877,-0.5092797875404358,0.3218778371810913,0.10153087228536606,1.1942353248596191,0.3528289198875427
1760497934.721187,0.02,0.004914365708827972,-0.07960620522499084,0.03979317843914032,0.023694925010204315,-0.013439418748021126,-0.9996289014816284,-0.2387029528617859,-0.5606634020805359,0.08140933513641357,-0.1083807498216629,0.05051755905151367,-0.10044801235198975,0.10126341879367828,0.11163201928138733,0.0012351274490356445,-0.048094742000103,-0.04369014501571655,0.12541735172271729,-0.06225566938519478,-0.004420816898345947,-0.0996849536895752,0.0,0.0,0.0,0.0,0.07246154546737671,-0.03969762474298477,0.06018480658531189,-0.044981468468904495,0.002627493580803275,0.00574282743036747,-0.05265665799379349,-0.05509738251566887,0.057086031883955,0.07451095432043076,-0.013265189714729786,0.02591259591281414,0.06418939679861069,0.0033229344990104437,0.19074609875679016,0.05853244662284851,-0.23847585916519165,-0.15175336599349976,-0.34894511103630066,-3.341890811920166,0.2786381244659424,-0.4331795871257782,-0.39521342515945435,-0.3165138363838196,0.9515166878700256,1.9911681413650513,0.25907355546951294,-0.4997575879096985,0.19594722986221313,-0.07924691587686539,0.9351822137832642,0.22264550626277924
1760497934.7756214,0.02,-0.03186733275651932,-0.10440195351839066,0.026620987802743912,0.01621408388018608,-0.011985457502305508,-0.9997966885566711,-0.2387029528617859,-0.5606634020805359,0.08018207550048828,-0.08066582679748535,0.03302651643753052,-0.07752859592437744,0.07997090369462967,0.11402809619903564,0.0026117563247680664,-0.07129000127315521,-0.06281226873397827,0.14435696601867676,-0.028285536915063858,-0.011777520179748535,-0.08684194087982178,0.0,0.0,0.0,0.0,0.06540253758430481,-0.043748099356889725,0.049162667244672775,-0.055623918771743774,0.009410793893039227,-0.002721605356782675,-0.060591619461774826,-0.04221050441265106,0.03506428375840187,0.09013617783784866,-0.01887699030339718,0.02841142751276493,0.03406795486807823,-0.026257282122969627,0.15905079245567322,0.029621008783578873,0.03722154721617699,-0.1623327136039734,-0.26989713311195374,-3.390608549118042,0.2613845467567444,-0.4624726474285126,-0.35047948360443115,-0.40660497546195984,0.9553221464157104,1.9073982238769531,0.1310686320066452,-0.41982537508010864,0.07016634196043015,-0.23757871985435486,0.7015550136566162,0.10804523527622223
1760497934.8381896,0.02,0.006120659410953522,-0.13092972338199615,0.027040494605898857,0.006602685898542404,-0.011991559527814388,-0.9999063014984131,-0.2387029528617859,-0.5606634020805359,0.07914888858795166,-0.04892905801534653,0.014278233051300049,-0.05962777137756348,0.059052202850580215,0.11723139882087708,0.0017317533493041992,-0.09388262778520584,-0.07967299222946167,0.15938985347747803,0.013763035647571087,-0.02227640151977539,-0.07285380363464355,0.0,0.0,0.0,0.0,0.08272635191679001,-0.04732082411646843,0.03853639215230942,-0.05122537538409233,0.009131577797234058,-0.006642397027462721,-0.054712772369384766,-0.03798576444387436,0.027068933472037315,0.10999089479446411,-0.027997290715575218,0.032049041241407394,0.009344340302050114,-0.04056283459067345,0.1341085284948349,0.0020155077800154686,0.3702138662338257,-0.25940263271331787,-0.20329821109771729,-3.1614913940429688,0.30813488364219666,-0.4698471128940582,-0.3830336928367615,-0.5008153915405273,0.990657389163971,1.8689954280853271,-0.0022466927766799927,-0.3448109030723572,-0.018291719257831573,-0.2306940257549286,0.6074431538581848,-0.00357605516910553
1760497934.8936284,0.02,0.05206853151321411,-0.15964791178703308,0.033131640404462814,-0.005308293271809816,-0.015636133030056953,-0.9998636841773987,-0.2387029528617859,-0.5606634020805359,0.07799947261810303,-0.008145105093717575,-0.0068378448486328125,-0.04552417993545532,0.04105426371097565,0.11969974637031555,-0.001110672950744629,-0.1141117736697197,-0.09570175409317017,0.17167073488235474,0.06254689395427704,-0.036938607692718506,-0.056857943534851074,0.0,0.0,0.0,0.0,0.10738082975149155,-0.05451250821352005,0.030463648959994316,-0.044201165437698364,0.005835148971527815,-0.010367578826844692,-0.048884015530347824,-0.03560030087828636,0.019191736355423927,0.12378580868244171,-0.038877520710229874,0.03788070008158684,-0.00530824763700366,-0.049535032361745834,0.1271781474351883,-0.012414884753525257,0.6483392119407654,-0.40537747740745544,-0.1490115523338318,-2.8637776374816895,0.3940698206424713,-0.46612027287483215,-0.3795504570007324,-0.5910234451293945,1.000840425491333,1.9482131004333496,-0.0964755043387413,-0.23969320952892303,-0.06268704682588577,-0.1715753972530365,0.5544090270996094,-0.059378236532211304
1760497934.9556866,0.02,0.10057760775089264,-0.19171060621738434,0.032988421618938446,-0.019601013511419296,-0.022512327879667282,-0.9995543956756592,-0.2387029528617859,-0.5606634020805359,0.07678961753845215,0.03691999986767769,-0.030499160289764404,-0.03455674648284912,0.025491654872894287,0.12187525629997253,-0.005677461624145508,-0.1324501782655716,-0.1103816032409668,0.17993348836898804,0.11427737772464752,-0.05767500400543213,-0.032151222229003906,0.0,0.0,0.0,0.0,0.10709857940673828,-0.06279189139604568,0.030007511377334595,-0.03718894347548485,0.005321969278156757,-0.013837282545864582,-0.04301679879426956,-0.03268999978899956,0.009586079977452755,0.12900963425636292,-0.053800858557224274,0.06218433380126953,-0.0018700495129451156,-0.06885644048452377,0.11578056961297989,0.005045800935477018,0.7589192986488342,-0.4860018193721771,-0.16052168607711792,-2.3737220764160156,0.4094265401363373,-0.48406562209129333,-0.2692851126194,-0.678209662437439,0.9741466641426086,1.8452436923980713,-0.11924397200345993,0.020551100373268127,-0.07920292764902115,-0.2613207995891571,0.4480880796909332,0.015216872096061707
1760497935.0198946,0.02,0.11558830738067627,-0.2240297943353653,0.05751829966902733,-0.0365852415561676,-0.03162398561835289,-0.9988300204277039,-0.2387029528617859,-0.5606634020805359,0.07515490055084229,0.07404696196317673,-0.049575090408325195,-0.03770333528518677,0.011788740754127502,0.1225307285785675,-0.006274819374084473,-0.1503487229347229,-0.123841792345047,0.1849958300590515,0.16106076538562775,-0.08616507053375244,0.007010757923126221,0.0,0.0,0.0,0.0,0.08584998548030853,-0.041054707020521164,-0.023408813402056694,-0.0340840183198452,0.0016440345207229257,-0.004010229837149382,-0.04628239572048187,-0.02944127656519413,0.004759106785058975,0.10601891577243805,-0.0736241266131401,0.10012971609830856,0.03670234605669975,-0.12474916130304337,0.10384984314441681,0.07574871182441711,0.6284679770469666,-0.4393192231655121,-0.27536633610725403,-1.5222702026367188,0.32382673025131226,-0.47527214884757996,-0.10621726512908936,-0.7164064645767212,0.9593790769577026,1.134019136428833,-0.17726513743400574,0.38879019021987915,0.08273359388113022,-0.47637203335762024,0.42953455448150635,0.30515506863594055
