vaithak/rl_training/csvs/data_obs_m20_5_env_0.csv
timestamp,dt,base_ang_vel_0,base_ang_vel_1,base_ang_vel_2,projected_gravity_0,projected_gravity_1,projected_gravity_2,velocity_commands_0,velocity_commands_1,velocity_commands_2,joint_pos_0,joint_pos_1,joint_pos_2,joint_pos_3,joint_pos_4,joint_pos_5,joint_pos_6,joint_pos_7,joint_pos_8,joint_pos_9,joint_pos_10,joint_pos_11,joint_pos_12,joint_pos_13,joint_pos_14,joint_pos_15,joint_vel_0,joint_vel_1,joint_vel_2,joint_vel_3,joint_vel_4,joint_vel_5,joint_vel_6,joint_vel_7,joint_vel_8,joint_vel_9,joint_vel_10,joint_vel_11,joint_vel_12,joint_vel_13,joint_vel_14,joint_vel_15,actions_0,actions_1,actions_2,actions_3,actions_4,actions_5,actions_6,actions_7,actions_8,actions_9,actions_10,actions_11,actions_12,actions_13,actions_14,actions_15
1760498306.2059574,0.02,-0.06978756189346313,0.09150318801403046,-0.08225801587104797,0.024883264675736427,0.0056875417940318584,-0.9996742010116577,-0.31532323360443115,0.2508125305175781,-0.3206068277359009,-0.08222658932209015,0.05745410919189453,0.06357109546661377,0.14844459295272827,0.0629415512084961,-0.08805596828460693,-0.0041230288334190845,0.02879887819290161,-0.019664883613586426,0.013780619017779827,0.02290719747543335,0.015758216381072998,0.0,0.0,0.0,0.0,-0.034676868468523026,0.001939100562594831,0.01792089268565178,0.007039847318083048,0.030894046649336815,0.0011719416361302137,0.023973528295755386,0.012130415067076683,-0.01622748374938965,-0.05252671241760254,0.00938070472329855,0.018636532127857208,-0.042643334716558456,0.1446121633052826,0.22794747352600098,0.3508804440498352,-0.9605189561843872,0.10434529185295105,-0.08254022896289825,0.23986408114433289,0.4840691387653351,-0.49032410979270935,1.1106873750686646,-0.018166907131671906,0.30977863073349,-0.24483034014701843,0.1746348738670349,0.10801602900028229,-0.37178540229797363,0.6837478280067444,0.8585010170936584,1.358224868774414
1760498306.259078,0.02,-0.13514277338981628,0.07287517189979553,-0.08890220522880554,0.03130023926496506,0.01638796553015709,-0.9993756413459778,-0.31532323360443115,0.2508125305175781,-0.3170381784439087,-0.09146637469530106,0.05332440137863159,0.08577382564544678,0.14517800509929657,0.07741373777389526,-0.08948856592178345,0.00014032346371095628,0.036238670349121094,-0.031409621238708496,0.003527425229549408,0.016892969608306885,0.04176133871078491,0.0,0.0,0.0,0.0,-0.012077582068741322,-0.013564909808337688,0.07192289084196091,-0.00882954616099596,0.03824606165289879,-0.007902352139353752,0.012346334755420685,0.0272145327180624,-0.04258463904261589,-0.012138972990214825,-0.024524671956896782,0.07653709501028061,0.046865709125995636,0.12207932770252228,0.2134566605091095,0.22583456337451935,0.17306643724441528,0.056328654289245605,-0.3984469473361969,0.13690635561943054,0.37243831157684326,-0.3949614465236664,-0.10775929689407349,0.2182472050189972,0.20220378041267395,0.14105437695980072,0.029985085129737854,0.26489895582199097,-0.14640504121780396,0.5665412545204163,0.9523717164993286,1.1774377822875977
1760498306.3207698,0.02,-0.18602213263511658,0.0015522610628977418,-0.09204263985157013,0.033222101628780365,0.034196335822343826,-0.9988628029823303,-0.31532323360443115,0.2508125305175781,-0.31320512294769287,-0.10462851077318192,0.0440821647644043,0.10570394992828369,0.12198760360479355,0.08252239227294922,-0.08181959390640259,-0.012264573015272617,0.04267525672912598,-0.044824957847595215,-0.0012643571244552732,0.0007469058036804199,0.07385522127151489,0.0,0.0,0.0,0.0,-0.02647075615823269,-0.023385247215628624,0.03628617897629738,-0.060143955051898956,-0.0004541121597867459,0.027476051822304726,-0.03414309769868851,0.013079926371574402,-0.032102908939123154,-0.006568212993443012,-0.03668664023280144,0.05675908550620079,0.12502245604991913,0.1475287824869156,0.22427979111671448,0.23036646842956543,1.562094807624817,0.06802704930305481,-0.704541802406311,0.14915838837623596,0.09854438155889511,-0.3398038148880005,-1.3864679336547852,0.3704545497894287,-0.04781769588589668,0.4696408808231354,-0.1628035008907318,0.5211107730865479,0.4495008587837219,0.3826596438884735,0.9094419479370117,1.0869626998901367
1760498306.3764899,0.02,-0.07169175148010254,-0.048094552010297775,-0.08577404171228409,0.030799416825175285,0.04384434595704079,-0.9985635280609131,-0.31532323360443115,0.2508125305175781,-0.30969560146331787,-0.10941292345523834,0.03690218925476074,0.11222541332244873,0.10114050656557083,0.07767254114151001,-0.07067328691482544,-0.03305786848068237,0.04055577516555786,-0.04162859916687012,0.0013748678611591458,-0.010877132415771484,0.0872340202331543,0.0,0.0,0.0,0.0,-0.001550994231365621,-0.014609063975512981,0.004126501735299826,-0.04095024988055229,-0.016417155042290688,0.01557943969964981,-0.06082461029291153,-0.014687112532556057,0.02532780170440674,0.015896698459982872,-0.023357881233096123,0.015035050921142101,0.13573385775089264,0.21561084687709808,0.20711587369441986,0.24520687758922577,2.261540174484253,0.176293283700943,-0.7767627239227295,0.4042794406414032,0.07920969277620316,-0.31091827154159546,-1.801187515258789,0.3737278878688812,-0.15042929351329803,0.5037910342216492,-0.22287990152835846,0.7176685929298401,0.6027470827102661,0.34778091311454773,0.8414905667304993,1.0989586114883423
1760498306.4334438,0.02,0.02556641213595867,-0.08161809295415878,-0.09089220315217972,0.02510189451277256,0.04434772580862045,-0.998700737953186,-0.31532323360443115,0.2508125305175781,-0.30620765686035156,-0.10419179499149323,0.03376084566116333,0.10926425457000732,0.08921777456998825,0.06811922788619995,-0.062231361865997314,-0.059100233018398285,0.03059077262878418,-0.026072263717651367,0.013792288489639759,-0.015650629997253418,0.08631187677383423,0.0,0.0,0.0,0.0,0.02164602465927601,-0.004898579325526953,-0.011998681351542473,-0.01977841556072235,-0.024696171283721924,0.007968856953084469,-0.06729165464639664,-0.025604277849197388,0.032597705721855164,0.03793849050998688,-0.006883207708597183,-0.012017965316772461,0.1548093855381012,0.28077059984207153,0.14458131790161133,0.21554534137248993,2.4169230461120605,0.17828592658042908,-0.7357438802719116,0.30289426445961,0.12298024445772171,-0.26795342564582825,-1.718726634979248,0.20699915289878845,-0.10656796395778656,0.3528081476688385,-0.20243097841739655,0.7261930108070374,0.4846160411834717,0.4959639012813568,0.61782306432724,0.9041895270347595
1760498306.487034,0.02,0.04958724230527878,-0.09343304485082626,-0.0935438722372055,0.017987871542572975,0.04115023463964462,-0.9989910125732422,-0.31532323360443115,0.2508125305175781,-0.3026036024093628,-0.09482655674219131,0.03330087661743164,0.10352420806884766,0.08004262298345566,0.05396157503128052,-0.05338698625564575,-0.08640281111001968,0.0188601016998291,-0.010043740272521973,0.030726194381713867,-0.016056716442108154,0.08020907640457153,0.0,0.0,0.0,0.0,0.026472603902220726,-0.0009207962430082262,-0.015541297383606434,-0.017663653939962387,-0.037668343633413315,0.010842159390449524,-0.07007061690092087,-0.032920364290475845,0.04407111927866936,0.044770993292331696,0.001341313007287681,-0.019281931221485138,0.10403937101364136,0.34326300024986267,0.11371351778507233,0.18372923135757446,2.3870294094085693,0.13377729058265686,-0.6420911550521851,0.13293620944023132,0.04965192824602127,-0.23622699081897736,-1.6173973083496094,0.14237454533576965,0.0031566284596920013,0.1553146243095398,-0.33479565382003784,0.6603672504425049,0.3670903742313385,0.705286979675293,0.4473532736301422,0.6337981820106506
1760498306.545017,0.02,0.03188604488968849,-0.10077907890081406,-0.09440012276172638,0.010087254457175732,0.038548000156879425,-0.9992058277130127,-0.31532323360443115,0.2508125305175781,-0.29892241954803467,-0.08566661179065704,0.03301936388015747,0.09899044036865234,0.06974348425865173,0.03571033477783203,-0.04573619365692139,-0.11464981734752655,0.006551802158355713,0.005881667137145996,0.0477774515748024,-0.014618098735809326,0.07232493162155151,0.0,0.0,0.0,0.0,0.02440367452800274,-0.0010436762822791934,-0.009341162629425526,-0.01996578834950924,-0.04673966020345688,0.0042546712793409824,-0.0690554603934288,-0.030174488201737404,0.0372195802628994,0.04319493845105171,0.004240567330271006,-0.02148178592324257,0.08467146009206772,0.4088655114173889,0.11807470768690109,0.16859130561351776,2.2167391777038574,0.1369124948978424,-0.5421816110610962,0.014899101108312607,-0.006033889949321747,-0.2091432362794876,-1.6049937009811401,0.10468990355730057,0.08722484111785889,-0.0096260542050004,-0.4326714873313904,0.5931039452552795,0.3110136091709137,0.8277971148490906,0.4520714581012726,0.5160578489303589
1760498306.5992892,0.02,0.014021797105669975,-0.09433698654174805,-0.09007639437913895,0.00226729828864336,0.036905381828546524,-0.9993162155151367,-0.31532323360443115,0.2508125305175781,-0.29528677463531494,-0.07694139331579208,0.03256136178970337,0.09776151180267334,0.059819430112838745,0.014698207378387451,-0.04077225923538208,-0.13812890648841858,-0.0014676451683044434,0.014721691608428955,0.06450104713439941,-0.012871801853179932,0.06516098976135254,0.0,0.0,0.0,0.0,0.021784067153930664,-0.0017137471586465836,-0.0006931951502338052,-0.01772361807525158,-0.05226904898881912,-0.006335694342851639,-0.05204255133867264,-0.013771707192063332,0.012099138461053371,0.04078453779220581,0.002849162556231022,-0.015292431227862835,0.04119422659277916,0.49684593081474304,0.13467635214328766,0.1616906374692917,1.9712679386138916,0.13677075505256653,-0.46979501843452454,-0.033012840896844864,-0.043883658945560455,-0.17608506977558136,-1.574747920036316,0.07618213444948196,0.1698087602853775,-0.12605701386928558,-0.5504516959190369,0.5201190114021301,0.24640041589736938,0.9277660250663757,0.5004936456680298,0.4057202935218811
1760498306.6506867,0.02,-0.014267208985984325,-0.06927826255559921,-0.08166328072547913,-0.004117324948310852,0.03689044341444969,-0.9993108510971069,-0.31532323360443115,0.2508125305175781,-0.29182231426239014,-0.06934567540884018,0.031770408153533936,0.10128200054168701,0.050242241472005844,-0.006799101829528809,-0.03816676139831543,-0.15207451581954956,-0.0008080005645751953,0.0110434889793396,0.07976119965314865,-0.013019680976867676,0.06422585248947144,0.0,0.0,0.0,0.0,0.017330577597022057,-0.00041202150168828666,0.012181234546005726,-0.01717609167098999,-0.050849586725234985,-0.0154145872220397,-0.02510681562125683,0.012107430957257748,-0.024328073486685753,0.034634530544281006,-0.00439055822789669,0.006080181337893009,0.019712941721081734,0.5931267142295837,0.14711348712444305,0.15483006834983826,1.7321369647979736,0.09858888387680054,-0.4400375485420227,-0.0621705986559391,-0.03815966099500656,-0.13464082777500153,-1.5501657724380493,0.03487426042556763,0.21230411529541016,-0.12732689082622528,-0.6339467763900757,0.47595494985580444,0.1862660050392151,1.080085039138794,0.5533007383346558,0.3541257381439209
1760498306.708928,0.02,-0.02115190401673317,-0.028585726395249367,-0.06786619126796722,-0.007660785224288702,0.03695523738861084,-0.9992875456809998,-0.31532323360443115,0.2508125305175781,-0.2887312173843384,-0.06134967878460884,0.03143513202667236,0.10947024822235107,0.04528004676103592,-0.02512460947036743,-0.03957176208496094,-0.14825110137462616,0.011741340160369873,-0.010816454887390137,0.09441962838172913,-0.016677796840667725,0.07386696338653564,0.0,0.0,0.0,0.0,0.016881553456187248,7.659022230654955e-05,0.023622166365385056,-0.004856896586716175,-0.03974009305238724,-0.028931185603141785,0.023880627006292343,0.04271143302321434,-0.07277145236730576,0.030816784128546715,-0.015558299608528614,0.03731474280357361,0.033689528703689575,0.6433594822883606,0.1332075297832489,0.15029673278331757,1.352972149848938,0.023011773824691772,-0.40554842352867126,-0.05555227771401405,0.024165935814380646,-0.11642565578222275,-1.3434361219406128,-0.09735336154699326,0.21479320526123047,-0.025397486984729767,-0.6561892628669739,0.43653810024261475,0.15892034769058228,1.2353650331497192,0.5299820899963379,0.3249560296535492
1760498306.7681046,0.02,0.043139681220054626,0.00967343244701624,-0.052672892808914185,-0.00788477435708046,0.0325394906103611,-0.9994393587112427,-0.31532323360443115,0.2508125305175781,-0.286288857460022,-0.048565108329057693,0.03181988000869751,0.1200714111328125,0.05577022209763527,-0.033887386322021484,-0.04931670427322388,-0.1303672194480896,0.02677077054977417,-0.03240680694580078,0.11217939853668213,-0.02333301305770874,0.09120655059814453,0.0,0.0,0.0,0.0,0.029291320592164993,0.0013754788087680936,0.028565917164087296,0.030100006610155106,-0.013413431122899055,-0.032940905541181564,0.04301568493247032,0.03592671453952789,-0.048805199563503265,0.04088567569851875,-0.022104861214756966,0.053342606872320175,0.05993124842643738,0.42198845744132996,0.11134733259677887,0.171388640999794,0.3958798050880432,-0.08159202337265015,-0.2462913542985916,0.07583987712860107,0.1699366569519043,-0.20125849545001984,-0.3544359505176544,-0.35063526034355164,0.2620953321456909,0.01711507886648178,-0.5227984189987183,0.37433934211730957,0.18023085594177246,1.3475204706192017,0.4265689551830292,0.39362895488739014
1760498306.8222663,0.02,0.13394658267498016,0.012479308992624283,-0.03935621306300163,-0.0069677503779530525,0.020729150623083115,-0.9997608661651611,-0.31532323360443115,0.2508125305175781,-0.28446781635284424,-0.028618378564715385,0.03482085466384888,0.1246798038482666,0.07618271559476852,-0.032673776149749756,-0.05441313982009888,-0.10617302358150482,0.034134626388549805,-0.04072558879852295,0.12977425754070282,-0.02742600440979004,0.09596264362335205,0.0,0.0,0.0,0.0,0.04698416218161583,0.00990844052284956,0.004793581552803516,0.04741063341498375,0.010086121037602425,-0.020324114710092545,0.056032873690128326,0.011798049323260784,-0.012218790128827095,0.029210085049271584,-0.008281379006803036,-0.0029472329188138247,0.10058193653821945,0.23281238973140717,0.14279885590076447,0.2061728537082672,-0.9892488718032837,-0.1175350546836853,0.0015234798192977905,0.3496095836162567,0.2897074520587921,-0.4091469347476959,1.2913264036178589,-0.446058064699173,0.3967849314212799,-0.15555720031261444,-0.23663364350795746,0.31815820932388306,0.2107272744178772,1.0284558534622192,0.5436383485794067,0.73347008228302
1760498306.881759,0.02,0.1462961882352829,0.01550826895982027,-0.041868701577186584,-0.005900579504668713,0.007476401049643755,-0.9999546408653259,-0.31532323360443115,0.2508125305175781,-0.28280723094940186,-0.012505180202424526,0.040509164333343506,0.11738395690917969,0.09773900359869003,-0.022939860820770264,-0.06065315008163452,-0.08098556101322174,0.03483927249908447,-0.04122281074523926,0.13739041984081268,-0.026476263999938965,0.0838308334350586,0.0,0.0,0.0,0.0,0.028715593740344048,0.013790026307106018,-0.029083866626024246,0.04977291449904442,0.030726242810487747,-0.02261214889585972,0.05784670636057854,-0.0037409185897558928,0.0059424638748168945,0.007932792417705059,0.003393234685063362,-0.03364675119519234,0.049880798906087875,0.12299567461013794,0.16842328011989594,0.2758454978466034,-1.7317644357681274,-0.11845177412033081,0.2847941815853119,0.5660303235054016,0.42462849617004395,-0.5440454483032227,2.3833019733428955,-0.44122427701950073,0.34360459446907043,-0.270966500043869,-0.012874409556388855,0.317710280418396,-0.0637754276394844,0.5797824263572693,0.6138429045677185,1.0106972455978394
1760498306.9337137,0.02,0.08143172413110733,0.032994192093610764,-0.05644405633211136,-0.003933252766728401,-0.0007057751063257456,-0.9999920129776001,-0.31532323360443115,0.2508125305175781,-0.28075098991394043,-0.00983279850333929,0.045049190521240234,0.10307753086090088,0.11376795917749405,-0.007877469062805176,-0.0706644058227539,-0.06030856445431709,0.032070040702819824,-0.03931581974029541,0.13306888937950134,-0.02332240343093872,0.07055407762527466,0.0,0.0,0.0,0.0,-0.004580250475555658,0.00915483944118023,-0.03884384036064148,0.03559903800487518,0.04030458629131317,-0.025015149265527725,0.04447732865810394,-0.008106313645839691,0.017444482073187828,-0.017915600910782814,0.008527863770723343,-0.026212608441710472,-0.007876954041421413,0.10267353057861328,0.16292671859264374,0.33857202529907227,-1.748581886291504,-0.049651890993118286,0.30639564990997314,0.3940862715244293,0.4230300784111023,-0.5670586824417114,2.6275389194488525,-0.38152778148651123,0.287973552942276,-0.4439708888530731,0.14861556887626648,0.3178061246871948,-0.244778573513031,0.5275183320045471,0.7874181866645813,1.3129377365112305
1760498306.9913135,0.02,0.05420835688710213,0.05361515283584595,-0.06411182135343552,-0.00036111875670030713,-0.005631803534924984,-0.999984085559845,-0.31532323360443115,0.2508125305175781,-0.2783372402191162,-0.016569042578339577,0.04792070388793945,0.08771920204162598,0.12649211287498474,0.007893264293670654,-0.0797467827796936,-0.04226406663656235,0.02848351001739502,-0.03491640090942383,0.11892400681972504,-0.016141176223754883,0.05494093894958496,0.0,0.0,0.0,0.0,-0.022725634276866913,0.005295069422572851,-0.03730669617652893,0.03053237311542034,0.0385330468416214,-0.01798989437520504,0.043214306235313416,-0.011154960840940475,0.015471606515347958,-0.040514349937438965,0.020468687638640404,-0.03732037916779518,-0.05052629113197327,0.11488524824380875,0.21031177043914795,0.39018601179122925,-1.664397954940796,0.02746453881263733,0.299490749835968,0.3300105929374695,0.4465387463569641,-0.5742999315261841,2.619086980819702,-0.3384641110897064,0.30053967237472534,-0.571631908416748,0.18879970908164978,0.2387116700410843,-0.31871354579925537,0.6053540110588074,0.8505741953849792,1.4976836442947388
1760498307.0421147,0.02,0.007758244872093201,0.07965677231550217,-0.06334567070007324,0.005188349634408951,-0.006576532498002052,-0.9999648928642273,-0.31532323360443115,0.2508125305175781,-0.275836706161499,-0.03148840367794037,0.05064576864242554,0.07191610336303711,0.13537730276584625,0.023722946643829346,-0.08560329675674438,-0.027899635955691338,0.025336921215057373,-0.028151988983154297,0.09336038678884506,-0.004985034465789795,0.03687995672225952,0.0,0.0,0.0,0.0,-0.040215864777565,0.006585363298654556,-0.039343658834695816,0.021922217682003975,0.03804141655564308,-0.00819840282201767,0.03834204748272896,-0.006376665085554123,0.023812172934412956,-0.06825446337461472,0.029454311355948448,-0.041853927075862885,-0.08774882555007935,0.11255085468292236,0.30596205592155457,0.4047968089580536,-1.621889352798462,0.06709066033363342,0.22085830569267273,0.29305383563041687,0.4817292094230652,-0.5740033984184265,2.341074228286743,-0.3036346733570099,0.33506542444229126,-0.5970519781112671,0.2517737150192261,0.1559273600578308,-0.44872501492500305,0.6028351187705994,0.8296664953231812,1.5432966947555542
1760498307.0998952,0.02,-0.030389394611120224,0.09234937280416489,-0.06261565536260605,0.012301919981837273,-0.004236246924847364,-0.999915361404419,-0.31532323360443115,0.2508125305175781,-0.2733715772628784,-0.05112550035119057,0.05308574438095093,0.05770683288574219,0.14143884181976318,0.03967857360839844,-0.08753639459609985,-0.01672235131263733,0.024693429470062256,-0.02056753635406494,0.06078673526644707,0.007430076599121094,0.021265387535095215,0.0,0.0,0.0,0.0,-0.04827128350734711,0.0027258803602308035,-0.023697540163993835,0.015395141206681728,0.0382041372358799,-0.00020410344586707652,0.028234286233782768,-0.001632758998312056,0.017600664868950844,-0.08095072954893112,0.0300153698772192,-0.033350057899951935,-0.14924083650112152,0.0964776873588562,0.19848571717739105,0.38668695092201233,-1.5625828504562378,0.08564203977584839,0.10869888961315155,0.283504843711853,0.5051524639129639,-0.5680501461029053,2.003217935562134,-0.31361258029937744,0.3141734302043915,-0.5377834439277649,0.2760690450668335,0.09941355139017105,-0.6575668454170227,0.521847665309906,0.670137882232666,1.4644633531570435
1760498307.153464,0.02,-0.050914790481328964,0.09821837395429611,-0.06572684645652771,0.020008165389299393,-0.00013018317986279726,-0.9997997879981995,-0.31532323360443115,0.2508125305175781,-0.2707737684249878,-0.0703624039888382,0.053876280784606934,0.05360972881317139,0.14629973471164703,0.05367767810821533,-0.08750808238983154,-0.006586469244211912,0.02436220645904541,-0.01624751091003418,0.030739357694983482,0.01711857318878174,0.014924168586730957,0.0,0.0,0.0,0.0,-0.04492543265223503,0.002065062988549471,-0.002449491061270237,0.012383190914988518,0.03112277202308178,0.0051733748987317085,0.025882581248879433,0.00016902880452107638,0.007979393005371094,-0.06862958520650864,0.02070382423698902,-0.005830874666571617,-0.12962639331817627,0.1280137151479721,0.23066721856594086,0.36896923184394836,-1.3023313283920288,0.10191470384597778,-0.003338932991027832,0.24060660600662231,0.5285444259643555,-0.5113658308982849,1.531327486038208,-0.11261332780122757,0.3400604724884033,-0.30615678429603577,0.23209059238433838,0.0879657045006752,-0.5903091430664062,0.6469947099685669,0.9118418097496033,1.405246376991272
1760498307.2124655,0.02,-0.08820335566997528,0.09531670808792114,-0.06650515645742416,0.027769017964601517,0.006676964461803436,-0.9995920658111572,-0.31532323360443115,0.2508125305175781,-0.2680004835128784,-0.0858716368675232,0.05398893356323242,0.06263101100921631,0.14866051077842712,0.06709545850753784,-0.08667749166488647,0.0013919082703068852,0.027501404285430908,-0.019652605056762695,0.0113870520144701,0.019485890865325928,0.02650207281112671,0.0,0.0,0.0,0.0,-0.03140908107161522,0.0009466646588407457,0.03611388057470322,0.00487453443929553,0.03245588019490242,0.003008732572197914,0.01872188411653042,0.014251388609409332,-0.01969323866069317,-0.03810935840010643,-0.00046593669685535133,0.04067089781165123,-0.05150723457336426,0.12946094572544098,0.2483692467212677,0.3113941252231598,-0.6714036464691162,0.09434899687767029,-0.19708818197250366,0.20911481976509094,0.4739645719528198,-0.4593776762485504,0.7969629764556885,0.07613011449575424,0.31451478600502014,-0.05903018265962601,0.11915615200996399,0.16164475679397583,-0.4498852789402008,0.6207778453826904,1.02479088306427,1.2714015245437622
1760498307.2683196,0.02,-0.17226524651050568,0.04440346732735634,-0.07424713671207428,0.03264165669679642,0.02011154778301716,-0.9992647767066956,-0.31532323360443115,0.2508125305175781,-0.26498162746429443,-0.09468600153923035,0.04826247692108154,0.08780527114868164,0.13868989050388336,0.07911032438278198,-0.08521902561187744,0.0019079394405707717,0.03628033399581909,-0.035579562187194824,0.0057342881336808205,0.008366107940673828,0.05813002586364746,0.0,0.0,0.0,0.0,-0.018640583381056786,-0.014015674591064453,0.06370411068201065,-0.030565673485398293,0.02679065801203251,0.005482093431055546,0.002546963980421424,0.03078731894493103,-0.05876964330673218,-0.0028648413717746735,-0.036425601691007614,0.08483510464429855,0.04438212513923645,0.1045321449637413,0.2303326427936554,0.20957720279693604,0.665680468082428,0.04330432415008545,-0.5618860721588135,0.09070619940757751,0.3187321424484253,-0.3530525267124176,-0.5783745050430298,0.2734416723251343,0.1287917047739029,0.28317201137542725,-0.016361862421035767,0.3429599404335022,-0.04588652402162552,0.44305768609046936,1.0553944110870361,1.0976248979568481
1760498307.328274,0.02,-0.16715313494205475,-0.018285289406776428,-0.07586891949176788,0.032862547785043716,0.037607137113809586,-0.9987521171569824,-0.31532323360443115,0.2508125305175781,-0.26184093952178955,-0.10698151588439941,0.03955775499343872,0.10399556159973145,0.11206987500190735,0.08106827735900879,-0.07573062181472778,-0.014004322700202465,0.04086637496948242,-0.047194719314575195,0.0002194188564317301,-0.0072119832038879395,0.08462530374526978,0.0,0.0,0.0,0.0,-0.020543474704027176,-0.021212555468082428,0.02603420615196228,-0.06269010156393051,-0.006562117021530867,0.02720099501311779,-0.04482612386345863,0.0037687215954065323,-0.016982071101665497,-0.004609775263816118,-0.03413090482354164,0.043186672031879425,0.1413078010082245,0.15691019594669342,0.24160616099834442,0.2395772784948349,1.89090895652771,0.08999869227409363,-0.7770117521286011,0.24924808740615845,0.06970077008008957,-0.31480130553245544,-1.598188877105713,0.3757482171058655,-0.11552509665489197,0.512190043926239,-0.20217086374759674,0.6392533779144287,0.542590856552124,0.3100522458553314,0.9721576571464539,1.150338053703308
1760498307.384896,0.02,-0.03661108389496803,-0.06324774771928787,-0.07308924198150635,0.029158882796764374,0.04410788416862488,-0.9986011385917664,-0.31532323360443115,0.2508125305175781,-0.2589327096939087,-0.1076621413230896,0.03420490026473999,0.10697495937347412,0.0937085971236229,0.07549810409545898,-0.06567859649658203,-0.036699797958135605,0.03526061773300171,-0.039067864418029785,0.005583510268479586,-0.016672849655151367,0.09269964694976807,0.0,0.0,0.0,0.0,0.007960784249007702,-0.009765238501131535,-0.0036366533022373915,-0.033142101019620895,-0.01560328621417284,0.009341586381196976,-0.06525951623916626,-0.02173009142279625,0.031455446034669876,0.022302066907286644,-0.0175104271620512,0.003609353443607688,0.1349942535161972,0.24265113472938538,0.2043347805738449,0.23722632229328156,2.3416879177093506,0.20519039034843445,-0.786170244216919,0.4128858745098114,0.11530477553606033,-0.2854174077510834,-1.8157622814178467,0.30414772033691406,-0.1580551117658615,0.48815563321113586,-0.17641647160053253,0.7555938363075256,0.5865558981895447,0.3096059262752533,0.8112195134162903,1.086631178855896
1760498307.4349065,0.02,0.038956210017204285,-0.08875468373298645,-0.078739233314991,0.022703440859913826,0.04282894730567932,-0.998824417591095,-0.31532323360443115,0.2508125305175781,-0.2559502124786377,-0.09981511533260345,0.03232938051223755,0.1028754711151123,0.08339162170886993,0.06576168537139893,-0.05778437852859497,-0.06406126916408539,0.02302253246307373,-0.021594524383544922,0.01953434757888317,-0.019330978393554688,0.08835500478744507,0.0,0.0,0.0,0.0,0.026134511455893517,-0.0025526927784085274,-0.012240919284522533,-0.01730908267199993,-0.025646386668086052,0.007963008247315884,-0.06989015638828278,-0.03030496835708618,0.03598036244511604,0.04014488682150841,-0.00224275141954422,-0.018260598182678223,0.15765559673309326,0.30509886145591736,0.15347574651241302,0.2038656771183014,2.4538424015045166,0.1617318093776703,-0.7013208866119385,0.2313162386417389,0.12661421298980713,-0.24606694281101227,-1.6630971431732178,0.1537729799747467,-0.08360038697719574,0.28572946786880493,-0.21436703205108643,0.7206377983093262,0.4640886187553406,0.5635841488838196,0.5954177379608154,0.8325408101081848
1760498307.4910583,0.02,0.04549810290336609,-0.09681727737188339,-0.0794631764292717,0.015201814472675323,0.03927573934197426,-0.9991127848625183,-0.31532323360443115,0.2508125305175781,-0.25288426876068115,-0.08925366401672363,0.032373666763305664,0.09815239906311035,0.07449550181627274,0.05100160837173462,-0.048966407775878906,-0.09189147502183914,0.010596036911010742,-0.0055429935455322266,0.03653372824192047,-0.01806563138961792,0.07984060049057007,0.0,0.0,0.0,0.0,0.02677847445011139,0.0014113372890278697,-0.012801227159798145,-0.017910001799464226,-0.03943564370274544,0.010482465848326683,-0.07077967375516891,-0.03230926766991615,0.041446004062891006,0.04325911030173302,0.004962950944900513,-0.023593183606863022,0.06832631677389145,0.3656845986843109,0.1251552402973175,0.17390409111976624,2.370206356048584,0.12711945176124573,-0.6023201942443848,0.06680527329444885,0.03685135394334793,-0.22073997557163239,-1.5689669847488403,0.11655313521623611,0.03538968786597252,0.07732304185628891,-0.35961970686912537,0.6381333470344543,0.3667646646499634,0.7505027651786804,0.4838036596775055,0.560352623462677
1760498307.5522244,0.02,0.0205267071723938,-0.09983077645301819,-0.07890329509973526,0.007232189178466797,0.03727233409881592,-0.9992789626121521,-0.31532323360443115,0.2508125305175781,-0.24978840351104736,-0.07984063029289246,0.032028913497924805,0.09587407112121582,0.06393573433160782,0.03224349021911621,-0.04186505079269409,-0.11952550709247589,-0.0004162788391113281,0.007933974266052246,0.05261988937854767,-0.015759170055389404,0.0706833004951477,0.0,0.0,0.0,0.0,0.02338436059653759,-0.0014297260204330087,-0.004464322235435247,-0.02058248594403267,-0.0477985255420208,0.0022141875233501196,-0.06608930230140686,-0.024843046441674232,0.02891579270362854,0.03991115465760231,0.005433965008705854,-0.02286180667579174,0.05221833661198616,0.4320899546146393,0.14283166825771332,0.16617201268672943,2.174743890762329,0.13162073493003845,-0.5091094374656677,-0.03589794412255287,-0.010471023619174957,-0.19225020706653595,-1.579543113708496,0.07885957509279251,0.11006219685077667,-0.061447061598300934,-0.44292089343070984,0.5783838629722595,0.33529379963874817,0.8631638884544373,0.5390526056289673,0.5207480788230896
1760498307.6102684,0.02,0.003130378434434533,-0.08726227283477783,-0.0740480050444603,-0.00016525457613170147,0.036408741027116776,-0.9993369579315186,-0.31532323360443115,0.2508125305175781,-0.24675583839416504,-0.0710553303360939,0.03122776746749878,0.09735500812530518,0.05363414064049721,0.011078417301177979,-0.03700035810470581,-0.14060552418231964,-0.0054891109466552734,0.012832224369049072,0.06808187812566757,-0.014047384262084961,0.06415897607803345,0.0,0.0,0.0,0.0,0.022204777225852013,-0.00221501337364316,0.007392262574285269,-0.018686238676309586,-0.05209413170814514,-0.0072744423523545265,-0.04446966201066971,-0.004865996073931456,0.0007876146701164544,0.03722355514764786,0.0018124968046322465,-0.01162246149033308,0.07329509407281876,0.5206670165061951,0.16017001867294312,0.1604623645544052,1.9255200624465942,0.12441465258598328,-0.45583459734916687,-0.07243075966835022,-0.041863374412059784,-0.15405310690402985,-1.5596859455108643,0.051814958453178406,0.18298155069351196,-0.14065232872962952,-0.5484989285469055,0.5119165778160095,0.2738580107688904,0.9659531116485596,0.5938113331794739,0.4352835416793823
1760498307.66354,0.02,-0.0168790090829134,-0.05859899893403053,-0.06386806815862656,-0.005685004871338606,0.03654596954584122,-0.9993157982826233,-0.31532323360443115,0.2508125305175781,-0.24393880367279053,-0.06281920522451401,0.030374228954315186,0.10312366485595703,0.04465268924832344,-0.009979605674743652,-0.034403204917907715,-0.1496170610189438,-0.0007121562957763672,0.004249691963195801,0.0825280100107193,-0.014577031135559082,0.06551921367645264,0.0,0.0,0.0,0.0,0.0191926509141922,-0.0016130683943629265,0.017815550789237022,-0.01518233772367239,-0.04940546676516533,-0.017495034262537956,-0.01144732441753149,0.02298840694129467,-0.03782891482114792,0.03212016448378563,-0.00563743757084012,0.012452391907572746,0.06486516445875168,0.6158833503723145,0.15245603024959564,0.14728453755378723,1.659924864768982,0.06365963816642761,-0.4510253965854645,-0.06943634152412415,-0.029884837567806244,-0.11195292323827744,-1.507266640663147,0.00011030584573745728,0.2141878306865692,-0.10115315765142441,-0.6446635127067566,0.46228909492492676,0.21511203050613403,1.0963265895843506,0.5691396594047546,0.2929108142852783
1760498307.7171533,0.02,-0.019885938614606857,-0.01566062867641449,-0.046919047832489014,-0.008071213029325008,0.035786569118499756,-0.9993268847465515,-0.31532323360443115,0.2508125305175781,-0.24160921573638916,-0.053224269300699234,0.03018242120742798,0.11270701885223389,0.043269213289022446,-0.026471972465515137,-0.03845560550689697,-0.13890115916728973,0.015269696712493896,-0.021480321884155273,0.09703029692173004,-0.018692314624786377,0.07807576656341553,0.0,0.0,0.0,0.0,0.018662137910723686,4.0714839997235686e-05,0.026802433654665947,0.0028164999093860388,-0.03398765251040459,-0.03794651851058006,0.030442118644714355,0.0445915088057518,-0.07010409235954285,0.027968699112534523,-0.017207125201821327,0.04464324936270714,0.05375298857688904,0.6380409002304077,0.11573784798383713,0.14067226648330688,1.1178845167160034,-0.020175188779830933,-0.3864385187625885,-0.033704910427331924,0.0687985047698021,-0.11127852648496628,-1.1279370784759521,-0.19063666462898254,0.21635186672210693,0.024578802287578583,-0.6336846947669983,0.40735357999801636,0.19791913032531738,1.2274134159088135,0.4823790192604065,0.24647140502929688
1760498307.765664,0.02,0.0881945937871933,0.016893865540623665,-0.03802977502346039,-0.007558363489806652,0.02840343490242958,-0.999567985534668,-0.31532323360443115,0.2508125305175781,-0.23987746238708496,-0.03694223240017891,0.03076910972595215,0.12266623973846436,0.05818142741918564,-0.03290635347366333,-0.046428382396698,-0.11901794373989105,0.028048157691955566,-0.0361177921295166,0.11646922677755356,-0.02467447519302368,0.0945025086402893,0.0,0.0,0.0,0.0,0.039171069860458374,0.0020008909050375223,0.025399431586265564,0.03946743160486221,-0.005990258883684874,-0.019013186916708946,0.04992103576660156,0.03004627488553524,-0.032033320516347885,0.04534803330898285,-0.018570035696029663,0.04680779203772545,0.08862661570310593,0.3318394422531128,0.11138126999139786,0.1662803739309311,-0.003442782908678055,-0.13342657685279846,-0.1984734684228897,0.1305578649044037,0.24878960847854614,-0.21767811477184296,0.13763058185577393,-0.43041661381721497,0.30740103125572205,-0.001083829440176487,-0.44440433382987976,0.34405046701431274,0.21226903796195984,1.3169034719467163,0.4121832251548767,0.39913901686668396
1760498307.8182716,0.02,0.15020044147968292,0.008784095756709576,-0.025681013241410255,-0.006757410708814859,0.015058392658829689,-0.9998638033866882,-0.31532323360443115,0.2508125305175781,-0.23864829540252686,-0.016467073932290077,0.03471171855926514,0.12361598014831543,0.08040681481361389,-0.028977036476135254,-0.05109137296676636,-0.09421002864837646,0.03320115804672241,-0.040835022926330566,0.131987065076828,-0.02613002061843872,0.09217482805252075,0.0,0.0,0.0,0.0,0.04417744278907776,0.012384453788399696,-0.008430716581642628,0.05170725658535957,0.017343511804938316,-0.021253004670143127,0.05755925923585892,0.006768015678972006,-0.005572784226387739,0.022807102650403976,-0.0008483259007334709,-0.02263749949634075,0.07993486523628235,0.1844303160905838,0.15412059426307678,0.21719872951507568,-1.3376671075820923,-0.13284042477607727,0.12441910803318024,0.4801272451877594,0.3215230703353882,-0.4657325744628906,1.748555302619934,-0.45402809977531433,0.3952500820159912,-0.15392358601093292,-0.17473247647285461,0.2966417670249939,0.1757100224494934,0.7996885180473328,0.57448810338974,0.7704871892929077
1760498307.875927,0.02,0.12399710714817047,0.015689071267843246,-0.03369264304637909,-0.005828771274536848,0.0035963417030870914,-0.9999765753746033,-0.31532323360443115,0.2508125305175781,-0.23740923404693604,-0.004995101597160101,0.039597928524017334,0.11300539970397949,0.10039485991001129,-0.01666116714477539,-0.06012684106826782,-0.07137206941843033,0.032158493995666504,-0.04065847396850586,0.13599331676959991,-0.024701416492462158,0.07934319972991943,0.0,0.0,0.0,0.0,0.01643986627459526,0.010780074633657932,-0.03751341998577118,0.045919980853796005,0.03640342876315117,-0.027865905314683914,0.05248236283659935,-0.00738868722692132,0.007059714291244745,0.0019257219973951578,0.0029423334635794163,-0.028529558330774307,0.021102314814925194,0.10535498708486557,0.1939001977443695,0.2875330448150635,-1.804344892501831,-0.13246449828147888,0.3030490279197693,0.5576784014701843,0.4337976574897766,-0.5568209290504456,2.462407112121582,-0.4105880558490753,0.3383267819881439,-0.22706782817840576,0.038956522941589355,0.32396674156188965,-0.17131662368774414,0.5155606865882874,0.7116137146949768,1.0921108722686768
1760498307.9295402,0.02,0.07405746728181839,0.037758614867925644,-0.04623560979962349,-0.0035897046327590942,-0.0035106996074318886,-0.9999874234199524,-0.31532323360443115,0.2508125305175781,-0.23574721813201904,-0.006136009935289621,0.042865097522735596,0.09690487384796143,0.11574281752109528,-0.0006502270698547363,-0.0714159607887268,-0.05219070985913277,0.0281713604927063,-0.03762507438659668,0.1302701234817505,-0.021728456020355225,0.06815552711486816,0.0,0.0,0.0,0.0,-0.012400944717228413,0.005825710948556662,-0.04088921472430229,0.035331230610609055,0.04109807685017586,-0.025909995660185814,0.04316525533795357,-0.011532897129654884,0.01736215129494667,-0.019998980686068535,0.008559937588870525,-0.02212672494351864,-0.03739628568291664,0.10143287479877472,0.20084655284881592,0.34296488761901855,-1.7462462186813354,-0.037872642278671265,0.30146583914756775,0.3854416310787201,0.40549609065055847,-0.5769462585449219,2.626958131790161,-0.34934571385383606,0.3083397448062897,-0.4079117476940155,0.15275338292121887,0.3073241710662842,-0.3092120885848999,0.5165315270423889,0.8504529595375061,1.3479770421981812
1760498307.9918697,0.02,0.04583984240889549,0.06013583764433861,-0.05075070634484291,0.0004937963094562292,-0.007694738917052746,-0.9999702572822571,-0.31532323360443115,0.2508125305175781,-0.23383092880249023,-0.016038017347455025,0.045046985149383545,0.08056807518005371,0.12822751700878143,0.015454530715942383,-0.08040857315063477,-0.03539149835705757,0.024069011211395264,-0.03163743019104004,0.11453177779912949,-0.01418912410736084,0.05347788333892822,0.0,0.0,0.0,0.0,-0.030102143064141273,0.004237512592226267,-0.03964757174253464,0.030188171193003654,0.03897040709853172,-0.01715310476720333,0.04022902995347977,-0.011410578154027462,0.019549120217561722,-0.045051198452711105,0.02195293828845024,-0.03667231276631355,-0.0769607201218605,0.11041045188903809,0.21647687256336212,0.3851920962333679,-1.6673656702041626,0.03037923574447632,0.27043741941452026,0.32622718811035156,0.44364133477211,-0.582598090171814,2.569532871246338,-0.3156568706035614,0.3281534016132355,-0.5255218148231506,0.19923517107963562,0.22487229108810425,-0.414661169052124,0.578262984752655,0.880564272403717,1.4775320291519165
1760498308.043742,0.02,0.0012925384799018502,0.08288354426622391,-0.051877304911613464,0.006400230806320906,-0.008232343010604382,-0.9999456405639648,-0.31532323360443115,0.2508125305175781,-0.23182785511016846,-0.03337715566158295,0.04729008674621582,0.06387448310852051,0.13726478815078735,0.03103017807006836,-0.08568906784057617,-0.022053098306059837,0.02020329236984253,-0.02459549903869629,0.08796469122171402,-0.0025324225425720215,0.035541653633117676,0.0,0.0,0.0,0.0,-0.04632186517119408,0.005265270825475454,-0.04120054468512535,0.02190379612147808,0.036837100982666016,-0.006240427028387785,0.032531753182411194,-0.009617218747735023,0.0197261031717062,-0.07049482315778732,0.030492886900901794,-0.041551440954208374,-0.10965991020202637,0.11071517318487167,0.23345275223255157,0.3956739008426666,-1.6223119497299194,0.06189775466918945,0.18726053833961487,0.2813139259815216,0.49110257625579834,-0.574200451374054,2.293462038040161,-0.2900892198085785,0.3465757668018341,-0.5244451761245728,0.25858837366104126,0.14755605161190033,-0.5255686640739441,0.5978313088417053,0.8645875453948975,1.5099494457244873
1760498308.1038141,0.02,-0.03471456468105316,0.09973491728305817,-0.05195527523756027,0.013955517672002316,-0.00561408931389451,-0.9998868703842163,-0.31532323360443115,0.2508125305175781,-0.22979795932769775,-0.05479943007230759,0.049498677253723145,0.048889994621276855,0.1436726301908493,0.045508384704589844,-0.08654659986495972,-0.01143884938210249,0.01799529790878296,-0.01782822608947754,0.0557510070502758,0.009830832481384277,0.021352708339691162,0.0,0.0,0.0,0.0,-0.052176106721162796,0.0017894258489832282,-0.02108318917453289,0.01613513007760048,0.033737536519765854,0.003832381684333086,0.026798268780112267,-0.004021577071398497,0.016108622774481773,-0.07945849001407623,0.029464468359947205,-0.028170723468065262,-0.15629281103610992,0.11298801749944687,0.23596929013729095,0.3829919397830963,-1.5221916437149048,0.0853365957736969,0.0828666090965271,0.2439728081226349,0.532058596611023,-0.5533082485198975,1.931382656097412,-0.20948070287704468,0.3532734215259552,-0.40777769684791565,0.2723004221916199,0.0966363251209259,-0.5972358584403992,0.6128949522972107,0.8833078742027283,1.4603630304336548
1760498308.1572852,0.02,-0.06284845620393753,0.10034416615962982,-0.054945122450590134,0.022053612396121025,-0.0006900334265083075,-0.9997565746307373,-0.31532323360443115,0.2508125305175781,-0.22762763500213623,-0.07536612451076508,0.05057215690612793,0.04645240306854248,0.14829979836940765,0.059179604053497314,-0.08564633131027222,-0.002423202386125922,0.01766490936279297,-0.013909697532653809,0.027050726115703583,0.018459200859069824,0.01851898431777954,0.0,0.0,0.0,0.0,-0.04736698791384697,0.0036387001164257526,0.002176340902224183,0.011422059498727322,0.031586386263370514,0.0052912430837750435,0.022743262350559235,0.0009963145712390542,0.0061836251989007,-0.06451700627803802,0.01741638407111168,0.0026973180938512087,-0.13255946338176727,0.12589876353740692,0.2469688206911087,0.35303783416748047,-1.2091323137283325,0.11278894543647766,-0.06984971463680267,0.21502766013145447,0.5326884984970093,-0.507879376411438,1.3859258890151978,-0.056118495762348175,0.35593557357788086,-0.1859271079301834,0.20192071795463562,0.09981024265289307,-0.6358435153961182,0.6262253522872925,0.9982062578201294,1.3467029333114624
1760498308.219708,0.02,-0.10824869573116302,0.08948137611150742,-0.056407008320093155,0.029651591554284096,0.00783571507781744,-0.9995296001434326,-0.31532323360443115,0.2508125305175781,-0.2252863645553589,-0.0907941684126854,0.05053502321243286,0.05954170227050781,0.14929267764091492,0.07362121343612671,-0.08591783046722412,0.00334686366841197,0.0222206711769104,-0.020076990127563477,0.010627064853906631,0.01809638738632202,0.035676419734954834,0.0,0.0,0.0,0.0,-0.027783358469605446,-0.0006896877894178033,0.04894836246967316,0.001751314732246101,0.03624967858195305,-0.0023770274128764868,0.013577090576291084,0.016495773568749428,-0.024621417745947838,-0.028772179037332535,-0.008375449106097221,0.05417069420218468,-0.030855974182486534,0.11987656354904175,0.25733682513237,0.27272623777389526,-0.3832687735557556,0.08943548798561096,-0.30093804001808167,0.16015610098838806,0.4506346583366394,-0.44348177313804626,0.5080165863037109,0.1403290331363678,0.3002863824367523,0.05068781226873398,0.08670313656330109,0.21239592134952545,-0.4177996516227722,0.5664416551589966,1.0955002307891846,1.2011100053787231
1760498308.2730274,0.02,-0.18956086039543152,0.02533649280667305,-0.06443137675523758,0.03311368450522423,0.023145928978919983,-0.9991835355758667,-0.31532323360443115,0.2508125305175781,-0.22262108325958252,-0.09996448457241058,0.04357355833053589,0.08509671688079834,0.13416485488414764,0.08393502235412598,-0.0825456976890564,0.0003573593858163804,0.030443847179412842,-0.03875303268432617,0.006321643944829702,0.004476189613342285,0.0680420994758606,0.0,0.0,0.0,0.0,-0.021700145676732063,-0.015889763832092285,0.057164378464221954,-0.04598519951105118,0.01961222104728222,0.013974027708172798,-0.0020272762048989534,0.030337145552039146,-0.06973165273666382,-0.007579389959573746,-0.03715001046657562,0.0728338435292244,0.060970693826675415,0.10783340036869049,0.26314085721969604,0.20452265441417694,1.0018166303634644,0.05827069282531738,-0.6457401514053345,0.07182273268699646,0.25106486678123474,-0.346076637506485,-0.8437575101852417,0.3073540925979614,0.07405364513397217,0.344291627407074,-0.05636394023895264,0.41286468505859375,0.10980307310819626,0.35889753699302673,1.0730892419815063,1.0695135593414307
1760498308.3334959,0.02,-0.14742735028266907,-0.027449358254671097,-0.059342462569475174,0.03240823373198509,0.03902025520801544,-0.9987127184867859,-0.31532323360443115,0.2508125305175781,-0.22006630897521973,-0.10988690704107285,0.03588235378265381,0.09881412982940674,0.10783141106367111,0.0847083330154419,-0.07314407825469971,-0.014579304493963718,0.034193575382232666,-0.05023932456970215,0.0018230121349915862,-0.010699093341827393,0.0909380316734314,0.0,0.0,0.0,0.0,-0.013510815799236298,-0.01734406314790249,0.021644670516252518,-0.059016019105911255,-0.0069382586516439915,0.020393148064613342,-0.044349927455186844,0.00010720100544858724,-0.010454080067574978,-0.0020455613266676664,-0.03344971686601639,0.03732661157846451,0.16319727897644043,0.16938160359859467,0.25060901045799255,0.24496404826641083,2.049699544906616,0.14126089215278625,-0.7896578311920166,0.3044215142726898,0.06961191445589066,-0.3185223639011383,-1.6689598560333252,0.3837016820907593,-0.13272203505039215,0.5327247977256775,-0.21622899174690247,0.6991351842880249,0.5915495157241821,0.2755464017391205,1.0249627828598022,1.1843538284301758
1760498308.3884857,0.02,-0.018338359892368317,-0.06575425714254379,-0.05957014858722687,0.028428733348846436,0.04384379833936691,-0.9986338019371033,-0.31532323360443115,0.2508125305175781,-0.2177143096923828,-0.10806884616613388,0.03216463327407837,0.10064387321472168,0.09048743546009064,0.07836180925369263,-0.06311118602752686,-0.03639359027147293,0.027869760990142822,-0.04010343551635742,0.008401401340961456,-0.019485175609588623,0.09796112775802612,0.0,0.0,0.0,0.0,0.014409445226192474,-0.005802971310913563,-0.0036978372372686863,-0.030559932813048363,-0.01779833994805813,0.009104273281991482,-0.0628584697842598,-0.022442562505602837,0.034637343138456345,0.024979736655950546,-0.015651335939764977,0.0021914008539170027,0.16915450990200043,0.280681848526001,0.19726213812828064,0.22927959263324738,2.3536174297332764,0.20767012238502502,-0.7966780662536621,0.4035317599773407,0.13655370473861694,-0.26593339443206787,-1.7848901748657227,0.273598849773407,-0.16180256009101868,0.5142040252685547,-0.15505707263946533,0.7841119170188904,0.5780525207519531,0.31848010420799255,0.7800624966621399,1.0693309307098389
1760498308.4404948,0.02,0.04956558719277382,-0.09156287461519241,-0.0673886090517044,0.021857943385839462,0.041465725749731064,-0.998900830745697,-0.31532323360443115,0.2508125305175781,-0.2151949405670166,-0.09851587563753128,0.03134024143218994,0.09647393226623535,0.07995685189962387,0.06685012578964233,-0.05315589904785156,-0.06305262446403503,0.015539705753326416,-0.021222949028015137,0.023051457479596138,-0.02102726697921753,0.09254693984985352,0.0,0.0,0.0,0.0,0.02964433841407299,-0.001138571067713201,-0.01324912067502737,-0.01790744811296463,-0.03073430433869362,0.011948754079639912,-0.06823226064443588,-0.02960939146578312,0.03769754618406296,0.04135238751769066,0.000867963011842221,-0.02185608446598053,0.13862891495227814,0.35594701766967773,0.1293003410100937,0.19560584425926208,2.3956310749053955,0.13048550486564636,-0.7218348979949951,0.21544471383094788,0.1446165144443512,-0.2142481952905655,-1.6179096698760986,0.1319935917854309,-0.07400795817375183,0.2940770089626312,-0.22655856609344482,0.719292938709259,0.4329714775085449,0.663996160030365,0.5157480239868164,0.760263979434967
1760498308.4972029,0.02,0.04202669486403465,-0.09997235983610153,-0.0694652795791626,0.014139922335743904,0.03803497552871704,-0.9991763830184937,-0.31532323360443115,0.2508125305175781,-0.21253728866577148,-0.08764507621526718,0.03107208013534546,0.0923147201538086,0.07000981271266937,0.050659120082855225,-0.043543994426727295,-0.09110274910926819,0.003984808921813965,-0.005980491638183594,0.03950561210513115,-0.0188901424407959,0.08263534307479858,0.0,0.0,0.0,0.0,0.02748698554933071,-0.0004982254467904568,-0.01049064751714468,-0.019592024385929108,-0.04231966659426689,0.010221059434115887,-0.07105736434459686,-0.02950250543653965,0.03835400938987732,0.04157174378633499,0.0068749310448765755,-0.027283817529678345,0.07905726879835129,0.4069628417491913,0.11533238738775253,0.17288629710674286,2.2781615257263184,0.11280623078346252,-0.6028879880905151,0.05206891521811485,0.06582889705896378,-0.1899167150259018,-1.5515618324279785,0.08614375442266464,0.03745449706912041,0.061304107308387756,-0.3545771539211273,0.6365528106689453,0.37182965874671936,0.880684494972229,0.4388290345668793,0.5728395581245422
1760498308.5481434,0.02,0.014948093332350254,-0.09981685131788254,-0.06811162829399109,0.006112684030085802,0.03632497414946556,-0.9993213415145874,-0.31532323360443115,0.2508125305175781,-0.20985591411590576,-0.07812440395355225,0.03012406826019287,0.0911489725112915,0.05940902605652809,0.031198561191558838,-0.03714597225189209,-0.11834822595119476,-0.005302786827087402,0.005817711353302002,0.05484846234321594,-0.01585555076599121,0.07231289148330688,0.0,0.0,0.0,0.0,0.023393597453832626,-0.002948442008346319,-0.0011185893090441823,-0.019942352548241615,-0.049074262380599976,-0.0012047839118167758,-0.06453748792409897,-0.01955479569733143,0.02389352396130562,0.03761770576238632,0.006927599664777517,-0.024775434285402298,0.062370240688323975,0.46516942977905273,0.13661977648735046,0.16452322900295258,2.0713961124420166,0.1244107186794281,-0.5017494559288025,-0.03399292007088661,0.007041223347187042,-0.1678469330072403,-1.5578866004943848,0.06050165742635727,0.11373671889305115,-0.07369626313447952,-0.45382577180862427,0.5697124004364014,0.3401608467102051,0.9541529417037964,0.5076354146003723,0.4983983635902405
1760498308.5996673,0.02,-0.004211818799376488,-0.08334152400493622,-0.06254090368747711,-0.00106038898229599,0.03583468496799469,-0.9993571639060974,-0.31532323360443115,0.2508125305175781,-0.20727097988128662,-0.06930235773324966,0.02890092134475708,0.09424984455108643,0.0495983250439167,0.009930431842803955,-0.03333073854446411,-0.13828301429748535,-0.007924914360046387,0.008610188961029053,0.0693838894367218,-0.013608574867248535,0.06550043821334839,0.0,0.0,0.0,0.0,0.0210418701171875,-0.0026277874130755663,0.010310911573469639,-0.0175482090562582,-0.05180533602833748,-0.010729902423918247,-0.04138130322098732,0.001890234649181366,-0.005026957951486111,0.03419921174645424,0.0027950156945735216,-0.011026891879737377,0.04519381374120712,0.5515875816345215,0.155231773853302,0.15716616809368134,1.8510738611221313,0.1113673746585846,-0.4523294270038605,-0.07410773634910583,-0.02162826806306839,-0.13197357952594757,-1.5371425151824951,0.035926930606365204,0.18067918717861176,-0.1305466890335083,-0.5584118366241455,0.5028294324874878,0.28052031993865967,1.0270456075668335,0.5703334212303162,0.4060431122779846
1760498308.656821,0.02,-0.023250339552760124,-0.0517718642950058,-0.05284911394119263,-0.00609789090231061,0.036303095519542694,-0.999322235584259,-0.31532323360443115,0.2508125305175781,-0.20490825176239014,-0.061043232679367065,0.027718007564544678,0.10176849365234375,0.04143112152814865,-0.010598301887512207,-0.03165233135223389,-0.14534756541252136,-0.0006334781646728516,-0.002257704734802246,0.08283355087041855,-0.014006435871124268,0.06735265254974365,0.0,0.0,0.0,0.0,0.018232863396406174,-0.002111193025484681,0.021109821274876595,-0.013350823894143105,-0.04790760576725006,-0.019214818254113197,-0.006664707791060209,0.028236782178282738,-0.04175044596195221,0.029094025492668152,-0.00593541981652379,0.014993463642895222,0.04789366573095322,0.6339563727378845,0.15272150933742523,0.14785775542259216,1.6165965795516968,0.04561018943786621,-0.44369155168533325,-0.08630487322807312,-0.000585310161113739,-0.09299447387456894,-1.4803717136383057,-0.02610931545495987,0.2049814760684967,-0.0719117745757103,-0.629006564617157,0.4588989019393921,0.2298569679260254,1.1569989919662476,0.5790247917175293,0.3246474862098694
1760498308.7094705,0.02,-0.01747603341937065,-0.009530674666166306,-0.03408407047390938,-0.00791662186384201,0.035521313548088074,-0.9993375539779663,-0.31532323360443115,0.2508125305175781,-0.20305991172790527,-0.05113258212804794,0.027225911617279053,0.11281716823577881,0.041839707642793655,-0.02603691816329956,-0.037098586559295654,-0.1334693878889084,0.016069412231445312,-0.027499914169311523,0.09655431658029556,-0.018149077892303467,0.08012628555297852,0.0,0.0,0.0,0.0,0.019710129126906395,-0.000549917749594897,0.030250266194343567,0.007847608998417854,-0.031400661915540695,-0.040884409099817276,0.029142210260033607,0.043926846235990524,-0.06268720328807831,0.026271119713783264,-0.01697460561990738,0.043831437826156616,0.06504614651203156,0.6315513849258423,0.1151125431060791,0.14723233878612518,1.0600188970565796,-0.0402703583240509,-0.36890673637390137,-0.037292156368494034,0.0995149239897728,-0.1036527082324028,-1.0547149181365967,-0.22180339694023132,0.21108990907669067,0.05616987496614456,-0.6057536005973816,0.39828580617904663,0.2117876410484314,1.255315899848938,0.4951087236404419,0.28183817863464355
1760498308.7719672,0.02,0.10176730901002884,0.020255889743566513,-0.027694756165146828,-0.007075467146933079,0.027272235602140427,-0.9996029734611511,-0.31532323360443115,0.2508125305175781,-0.20177459716796875,-0.03381398320198059,0.028095901012420654,0.12324404716491699,0.05816734954714775,-0.03173619508743286,-0.043811261653900146,-0.11344627290964127,0.028106391429901123,-0.03934586048126221,0.1158900037407875,-0.023520350456237793,0.09480071067810059,0.0,0.0,0.0,0.0,0.04218675196170807,0.003194435266777873,0.02565804496407509,0.042264048010110855,-0.0034177035558968782,-0.012816335074603558,0.050727855414152145,0.029382307082414627,-0.024058885872364044,0.044531308114528656,-0.015635857358574867,0.03917422518134117,0.09660935401916504,0.298308789730072,0.10251253098249435,0.1702224761247635,-0.07561732828617096,-0.1501307487487793,-0.1910233348608017,0.1401861011981964,0.27900680899620056,-0.21236445009708405,0.25386056303977966,-0.4487023949623108,0.3104143738746643,0.010432309471070766,-0.4218657314777374,0.3331913948059082,0.21763533353805542,1.2817143201828003,0.42163902521133423,0.4189675450325012
1760498308.8262782,0.02,0.155375137925148,0.006425519473850727,-0.01742231659591198,-0.006336289457976818,0.013517956249415874,-0.99988853931427,-0.31532323360443115,0.2508125305175781,-0.20090246200561523,-0.013340481556952,0.032565951347351074,0.12313532829284668,0.08085823804140091,-0.026950299739837646,-0.04826521873474121,-0.08884502947330475,0.032695651054382324,-0.0424039363861084,0.13075248897075653,-0.02442854642868042,0.09007906913757324,0.0,0.0,0.0,0.0,0.04353838413953781,0.012789956294000149,-0.00979171134531498,0.05295577645301819,0.019620290026068687,-0.021773403510451317,0.05721668526530266,0.005403758957982063,-0.0025737129617482424,0.022147882729768753,-0.00025192328030243516,-0.027267610654234886,0.0814213752746582,0.17040054500102997,0.15956950187683105,0.22535257041454315,-1.4065120220184326,-0.14220136404037476,0.1514204442501068,0.5246921181678772,0.33366578817367554,-0.4749831259250641,1.8329486846923828,-0.45721378922462463,0.3855047821998596,-0.11833841353654861,-0.16285613179206848,0.29053959250450134,0.17188626527786255,0.7379434108734131,0.5818237662315369,0.8069460988044739
1760498308.8826754,0.02,0.1207306832075119,0.013421622104942799,-0.026112781837582588,-0.005608557723462582,0.002391525311395526,-0.9999814033508301,-0.31532323360443115,0.2508125305175781,-0.19999682903289795,-0.0030894982628524303,0.03749549388885498,0.11162459850311279,0.10060465335845947,-0.013696670532226562,-0.058729588985443115,-0.06689609587192535,0.031197071075439453,-0.04124808311462402,0.1343730241060257,-0.02367246150970459,0.07748162746429443,0.0,0.0,0.0,0.0,0.013457967899739742,0.01016243826597929,-0.03807432949542999,0.04551175981760025,0.03867436945438385,-0.03117050603032112,0.05075770244002342,-0.008457927033305168,0.008981774561107159,0.0019377096323296428,0.0006965078646317124,-0.026248473674058914,0.017770014703273773,0.10128005594015121,0.20062707364559174,0.2901266813278198,-1.834903597831726,-0.1410394012928009,0.3104301393032074,0.5876256227493286,0.4282616376876831,-0.5677919983863831,2.4581239223480225,-0.3969639241695404,0.34445708990097046,-0.18220998346805573,0.048413485288619995,0.32238394021987915,-0.17721015214920044,0.49110791087150574,0.7396926879882812,1.1251517534255981
1760498308.9429615,0.02,0.07635951042175293,0.03596189245581627,-0.03591175004839897,-0.0035121466498821974,-0.00458983238786459,-0.9999833106994629,-0.31532323360443115,0.2508125305175781,-0.1987210512161255,-0.005179628264158964,0.04061812162399292,0.09555411338806152,0.11601673811674118,0.0030319690704345703,-0.07143133878707886,-0.048455674201250076,0.026391804218292236,-0.03715324401855469,0.12880839407444,-0.021635115146636963,0.0671234130859375,0.0,0.0,0.0,0.0,-0.013818347826600075,0.005536209791898727,-0.04051552712917328,0.036428052932024,0.042502954602241516,-0.028994059190154076,0.04352989420294762,-0.014662682078778744,0.016107160598039627,-0.018789930269122124,0.0064945342019200325,-0.02096008136868477,-0.03919398412108421,0.09998156130313873,0.23119206726551056,0.3417564928531647,-1.7630831003189087,-0.04250693321228027,0.30159538984298706,0.4185020327568054,0.39299631118774414,-0.5879693627357483,2.5912153720855713,-0.332412451505661,0.32730743288993835,-0.3666897714138031,0.15460893511772156,0.3034660220146179,-0.3124799430370331,0.4993273913860321,0.8814159035682678,1.3539115190505981
1760498308.9995036,0.02,0.044465769082307816,0.06103411689400673,-0.04106094315648079,0.0005683733616024256,-0.008632482960820198,-0.999962568283081,-0.31532323360443115,0.2508125305175781,-0.19719505310058594,-0.016253625974059105,0.042905330657958984,0.07910048961639404,0.12852641940116882,0.019837498664855957,-0.0811646580696106,-0.03246181458234787,0.02084881067276001,-0.03022301197052002,0.11321941018104553,-0.014838933944702148,0.05361908674240112,0.0,0.0,0.0,0.0,-0.033156540244817734,0.004769511055201292,-0.04032975062727928,0.030295824632048607,0.040557678788900375,-0.018292365595698357,0.03853093832731247,-0.014678822830319405,0.02194221131503582,-0.04477296769618988,0.020495500415563583,-0.03363955020904541,-0.08212818950414658,0.10447152704000473,0.2389170378446579,0.37730491161346436,-1.6968177556991577,0.019133299589157104,0.25579866766929626,0.3465704917907715,0.43373894691467285,-0.5927170515060425,2.5276083946228027,-0.2991936504840851,0.34903568029403687,-0.4851715862751007,0.21099424362182617,0.22694970667362213,-0.442783921957016,0.5445489287376404,0.9040430188179016,1.4510091543197632
1760498309.0532975,0.02,0.0036201118491590023,0.08233140408992767,-0.04187852144241333,0.006484853103756905,-0.009301163256168365,-0.9999356865882874,-0.31532323360443115,0.2508125305175781,-0.19557905197143555,-0.03452477976679802,0.04532808065414429,0.062100768089294434,0.13787180185317993,0.035834431648254395,-0.0867687463760376,-0.01957317441701889,0.01639622449874878,-0.02211475372314453,0.08700554817914963,-0.003446221351623535,0.03642380237579346,0.0,0.0,0.0,0.0,-0.0483972541987896,0.005581229459494352,-0.04195249453186989,0.022891802713274956,0.03768220543861389,-0.007116666529327631,0.031442947685718536,-0.01030355878174305,0.022029360756278038,-0.06953628361225128,0.030329087749123573,-0.04078575596213341,-0.11672496795654297,0.1066969558596611,0.23963160812854767,0.3862026631832123,-1.6454015970230103,0.05190947651863098,0.1753464639186859,0.30079975724220276,0.4854081869125366,-0.5873969197273254,2.271754503250122,-0.2694149613380432,0.36142346262931824,-0.4844098389148712,0.2657296061515808,0.15049488842487335,-0.5570825338363647,0.5700334906578064,0.8941286206245422,1.4723938703536987
1760498309.1036465,0.02,-0.03682227060198784,0.10042094439268112,-0.04128478839993477,0.013973422348499298,-0.006693918723613024,-0.9998799562454224,-0.31532323360443115,0.2508125305175781,-0.19394934177398682,-0.05709287151694298,0.04830282926559448,0.04362618923187256,0.144517719745636,0.05044901371002197,-0.08787816762924194,-0.00953211635351181,0.014165639877319336,-0.014989733695983887,0.05539334565401077,0.008846938610076904,0.02283501625061035,0.0,0.0,0.0,0.0,-0.05628679320216179,0.006919173989444971,-0.045560020953416824,0.016482461243867874,0.033521365374326706,0.004550857003778219,0.024865668267011642,-0.0034470693208277225,0.01651250757277012,-0.07798565924167633,0.029487280175089836,-0.02635604701936245,-0.14088305830955505,0.11022543162107468,0.24267087876796722,0.3732792139053345,-1.5335607528686523,0.07745435833930969,0.069119393825531,0.25359758734703064,0.5288834571838379,-0.565254271030426,1.9077050685882568,-0.19348978996276855,0.36468085646629333,-0.3659410774707794,0.27440008521080017,0.10479600727558136,-0.6220518350601196,0.597298264503479,0.9216451644897461,1.4214260578155518
1760498309.1746187,0.02,-0.06785129010677338,0.10123910009860992,-0.043674588203430176,0.022367656230926514,-0.001088169403374195,-0.9997492432594299,-0.31532323360443115,0.2508125305175781,-0.19225215911865234,-0.07899703085422516,0.04890704154968262,0.03793942928314209,0.14889954030513763,0.0637824535369873,-0.08582866191864014,-0.0017803532537072897,0.014578819274902344,-0.011354327201843262,0.027193665504455566,0.01750624179840088,0.021420776844024658,0.0,0.0,0.0,0.0,-0.04795369878411293,-0.0013857719022780657,0.0055614048615098,0.011575850658118725,0.030921194702386856,0.006407563574612141,0.020453473553061485,0.0027646361850202084,0.004447747487574816,-0.06184568628668785,0.01760292612016201,0.005230487324297428,-0.014599129557609558,0.12341407686471939,0.2534013092517853,0.33693814277648926,-1.1699806451797485,0.11774101853370667,-0.09896406531333923,0.18592867255210876,0.5315349102020264,-0.5147067308425903,1.3444850444793701,-0.05201674997806549,0.3565555810928345,-0.15610279142856598,0.20725888013839722,0.11439602077007294,-0.6211264133453369,0.5998801589012146,1.0197004079818726,1.2813619375228882
1760498309.2269447,0.02,-0.11335790902376175,0.08311956375837326,-0.046075452119112015,0.029745297506451607,0.008014669641852379,-0.9995253682136536,-0.31532323360443115,0.2508125305175781,-0.19035279750823975,-0.09438943862915039,0.046950697898864746,0.05281031131744385,0.14971330761909485,0.07847005128860474,-0.08632093667984009,0.002889919327571988,0.020191311836242676,-0.018924355506896973,0.012212305329740047,0.017015278339385986,0.039656758308410645,0.0,0.0,0.0,0.0,-0.025695545598864555,-0.006522169802337885,0.0536796860396862,0.0018695145845413208,0.0378798171877861,-0.005660176742821932,0.011389798484742641,0.019158804789185524,-0.029366442933678627,-0.02408737689256668,-0.008980253711342812,0.05584430694580078,0.006998287048190832,0.11222530901432037,0.2603122591972351,0.2395087480545044,-0.3285979628562927,0.08617982268333435,-0.33867505192756653,0.1324247419834137,0.41993266344070435,-0.45938146114349365,0.46451452374458313,0.12992635369300842,0.284616619348526,0.06118497997522354,0.0769677609205246,0.23234815895557404,-0.29287704825401306,0.4918539822101593,1.0834133625030518,1.0819565057754517
1760498309.2823942,0.02,-0.19136463105678558,0.020222045481204987,-0.05441521853208542,0.03281213715672493,0.023701824247837067,-0.9991804361343384,-0.31532323360443115,0.2508125305175781,-0.18809902667999268,-0.10341143608093262,0.039040565490722656,0.07905018329620361,0.13348151743412018,0.08818191289901733,-0.08248966932296753,-0.0008601551526226103,0.02916485071182251,-0.038625478744506836,0.0077752587385475636,0.003903508186340332,0.07138311862945557,0.0,0.0,0.0,0.0,-0.021158188581466675,-0.016848279163241386,0.05726532265543938,-0.0492541529238224,0.016736336052417755,0.016114164143800735,-0.004633329808712006,0.028957193717360497,-0.06475918740034103,-0.009253261610865593,-0.034600045531988144,0.06931201368570328,0.07761957496404648,0.10934159904718399,0.2586139142513275,0.19499987363815308,1.02860689163208,0.08629274368286133,-0.6634784936904907,0.05092790350317955,0.2228868305683136,-0.35273197293281555,-0.8432437181472778,0.3002651333808899,0.06848601996898651,0.3394145667552948,-0.07398037612438202,0.43799489736557007,0.1659182608127594,0.3225439488887787,1.0723876953125,1.0027421712875366
1760498309.3338084,0.02,-0.1384250968694687,-0.02910458669066429,-0.04989617317914963,0.03190743178129196,0.038683805614709854,-0.9987419247627258,-0.31532323360443115,0.2508125305175781,-0.18593323230743408,-0.11202728748321533,0.031995952129364014,0.09256911277770996,0.10738082975149155,0.08783358335494995,-0.07219475507736206,-0.014550913125276566,0.03322118520736694,-0.050446391105651855,0.003722365014255047,-0.010239183902740479,0.09300333261489868,0.0,0.0,0.0,0.0,-0.011221881955862045,-0.01499136257916689,0.020359566435217857,-0.05802111700177193,-0.009075078181922436,0.020524565130472183,-0.040647730231285095,0.0008014310151338577,-0.011610089801251888,-0.001289932755753398,-0.031502436846494675,0.03559359908103943,0.14939604699611664,0.18658481538295746,0.24713435769081116,0.23719732463359833,2.0156099796295166,0.16918668150901794,-0.777583122253418,0.30278316140174866,0.0736669972538948,-0.3182065486907959,-1.618901252746582,0.3681553602218628,-0.1328096240758896,0.5339813828468323,-0.23045344650745392,0.70846027135849,0.5918667316436768,0.24954840540885925,1.0182294845581055,1.1584593057632446
1760498309.3860784,0.02,-0.02103274315595627,-0.0644698515534401,-0.05054902285337448,0.027971528470516205,0.04343189299106598,-0.9986647367477417,-0.31532323360443115,0.2508125305175781,-0.1839432716369629,-0.10977873206138611,0.028966069221496582,0.09467077255249023,0.08991629630327225,0.08099710941314697,-0.06249105930328369,-0.03549911826848984,0.02709108591079712,-0.04071378707885742,0.009941093623638153,-0.018818259239196777,0.10022258758544922,0.0,0.0,0.0,0.0,0.014117637649178505,-0.004349980037659407,-0.004044980276376009,-0.030812043696641922,-0.018651742488145828,0.0071569751016795635,-0.06126479059457779,-0.022157514467835426,0.03406382352113724,0.023381991311907768,-0.01569574885070324,0.003591539803892374,0.13285452127456665,0.3007363975048065,0.198214590549469,0.2254437506198883,2.346993923187256,0.21900597214698792,-0.7692060470581055,0.3861016035079956,0.15408813953399658,-0.2639475464820862,-1.7619030475616455,0.2570621371269226,-0.16751420497894287,0.5224727392196655,-0.16249138116836548,0.7924853563308716,0.5697329044342041,0.3442406952381134,0.7837464213371277,1.0798027515411377
1760498309.4413404,0.02,0.04598294943571091,-0.09048834443092346,-0.05851765722036362,0.021490365266799927,0.04132552072405815,-0.9989145994186401,-0.31532323360443115,0.2508125305175781,-0.18177425861358643,-0.10014814138412476,0.028160572052001953,0.09124672412872314,0.07928992807865143,0.06925356388092041,-0.05331152677536011,-0.061935558915138245,0.0146409273147583,-0.022182464599609375,0.02390223927795887,-0.02049577236175537,0.09488147497177124,0.0,0.0,0.0,0.0,0.029916221275925636,-0.0009155591251328588,-0.010010185651481152,-0.01785050705075264,-0.031288277357816696,0.010539313778281212,-0.06788963824510574,-0.029706168919801712,0.03628336265683174,0.03968114033341408,0.0005870955064892769,-0.02221221849322319,0.14359049499034882,0.3671097457408905,0.13144509494304657,0.1991339474916458,2.4409737586975098,0.14219877123832703,-0.6849256753921509,0.17724964022636414,0.16729885339736938,-0.21494682133197784,-1.6083362102508545,0.11486614495515823,-0.0844532698392868,0.28715965151786804,-0.21680542826652527,0.7257083058357239,0.4433543086051941,0.7208738923072815,0.5504078269004822,0.8094810247421265
1760498309.4961927,0.02,0.047834865748882294,-0.09876979887485504,-0.05850191414356232,0.013931116089224815,0.03758706897497177,-0.9991962313652039,-0.31532323360443115,0.2508125305175781,-0.17950689792633057,-0.08849804848432541,0.02809000015258789,0.08819854259490967,0.06995772570371628,0.052641332149505615,-0.04369419813156128,-0.08884365111589432,0.003466367721557617,-0.007752418518066406,0.04025258868932724,-0.018199503421783447,0.08443945646286011,0.0,0.0,0.0,0.0,0.03155189007520676,-0.0005521904095076025,-0.005375226028263569,-0.017627032473683357,-0.04344550892710686,0.010039600543677807,-0.06724076718091965,-0.027986794710159302,0.03580701723694801,0.0416850782930851,0.007297989912331104,-0.028914887458086014,0.13402080535888672,0.41424962878227234,0.1209053322672844,0.1757785975933075,2.3376967906951904,0.12029054760932922,-0.5791751146316528,0.020107056945562363,0.07786614447832108,-0.19124455749988556,-1.520430326461792,0.08175475150346756,0.03591693565249443,0.04231203347444534,-0.3593868315219879,0.6328653693199158,0.37604570388793945,0.9127412438392639,0.45348137617111206,0.5662478804588318
1760498309.5554335,0.02,0.021065549924969673,-0.09790053963661194,-0.056220170110464096,0.006146273110061884,0.03546418994665146,-0.9993520379066467,-0.31532323360443115,0.2508125305175781,-0.17725646495819092,-0.0781160295009613,0.027550697326660156,0.08809804916381836,0.05938464403152466,0.03232860565185547,-0.03597313165664673,-0.11439811438322067,-0.004758954048156738,0.002952277660369873,0.055499009788036346,-0.01471930742263794,0.07388359308242798,0.0,0.0,0.0,0.0,0.027025312185287476,-0.0021675957832485437,0.0035947628784924746,-0.01973237656056881,-0.05148623138666153,0.0010755282128229737,-0.05978890880942345,-0.016476772725582123,0.020791903138160706,0.03751031681895256,0.008094360120594501,-0.025286052376031876,0.11967744678258896,0.4839572012424469,0.13360179960727692,0.1588468700647354,2.0972421169281006,0.11553213000297546,-0.507239580154419,-0.04391268268227577,0.01575572043657303,-0.15656717121601105,-1.5259313583374023,0.060473740100860596,0.11072394251823425,-0.06691161543130875,-0.47975659370422363,0.5607455372810364,0.3374234139919281,0.9608139991760254,0.4856320321559906,0.41187506914138794
1760498309.6085625,0.02,-0.004700306337326765,-0.08286268264055252,-0.05211135372519493,-0.0008388813585042953,0.03492813557386398,-0.9993894696235657,-0.31532323360443115,0.2508125305175781,-0.1750708818435669,-0.06894861161708832,0.02667069435119629,0.09179937839508057,0.04852544888854027,0.010183632373809814,-0.030346930027008057,-0.13325411081314087,-0.006339669227600098,0.004876315593719482,0.0695091262459755,-0.011906325817108154,0.06724941730499268,0.0,0.0,0.0,0.0,0.021854570135474205,-0.002724831225350499,0.01108615193516016,-0.020096559077501297,-0.05378432944417,-0.008447890169918537,-0.03940633684396744,0.004025161266326904,-0.006837843451648951,0.032588522881269455,0.004155363887548447,-0.010822484269738197,0.06279212981462479,0.5777068138122559,0.14608214795589447,0.14609305560588837,1.8480896949768066,0.08847010135650635,-0.4756089150905609,-0.06706014275550842,-0.0023067817091941833,-0.10749208182096481,-1.5285873413085938,0.0248410627245903,0.16363413631916046,-0.09216693788766861,-0.5841886401176453,0.4986000657081604,0.280292272567749,1.0435645580291748,0.5198252201080322,0.30848991870880127
1760498309.6700788,0.02,-0.027658164501190186,-0.05346788465976715,-0.044362232089042664,-0.005881526041775942,0.03571850806474686,-0.9993445873260498,-0.31532323360443115,0.2508125305175781,-0.17304062843322754,-0.06079858914017677,0.025402843952178955,0.09938168525695801,0.03891861066222191,-0.01066732406616211,-0.027637004852294922,-0.14058098196983337,0.0011094212532043457,-0.005779266357421875,0.08210843056440353,-0.011877834796905518,0.06912726163864136,0.0,0.0,0.0,0.0,0.01795629970729351,-0.0024698872584849596,0.020765788853168488,-0.015705035999417305,-0.04914983734488487,-0.017447171732783318,-0.008481703698635101,0.02770233526825905,-0.039909034967422485,0.026965318247675896,-0.005087927915155888,0.014523756690323353,0.05632352456450462,0.6446028351783752,0.15146391093730927,0.1404052972793579,1.6240475177764893,0.03030496835708618,-0.4597216546535492,-0.08187130093574524,0.026700414717197418,-0.0650491937994957,-1.5009899139404297,-0.04731570929288864,0.17665927112102509,-0.02478788048028946,-0.6332655549049377,0.4641123414039612,0.23802369832992554,1.1886487007141113,0.5507702827453613,0.2982747554779053
1760498309.7214022,0.02,-0.02514979988336563,-0.014380158856511116,-0.02742875926196575,-0.00798703171312809,0.035447586327791214,-0.9993396401405334,-0.31532323360443115,0.2508125305175781,-0.17148101329803467,-0.0511753223836422,0.024736642837524414,0.11012470722198486,0.03781580179929733,-0.026212573051452637,-0.03261089324951172,-0.1300462782382965,0.017258644104003906,-0.030191421508789062,0.09491586685180664,-0.01562190055847168,0.08109074831008911,0.0,0.0,0.0,0.0,0.018806876614689827,-0.0008381415391340852,0.029242565855383873,0.004437110852450132,-0.03180771693587303,-0.04041358456015587,0.026431521400809288,0.04313032701611519,-0.06285960227251053,0.023846860975027084,-0.016012126579880714,0.041285838931798935,0.07067743688821793,0.6460553407669067,0.14785514771938324,0.1431490182876587,1.1288336515426636,-0.047114431858062744,-0.3876781761646271,-0.03856400027871132,0.11269605904817581,-0.07641943544149399,-1.1297101974487305,-0.22671720385551453,0.18052680790424347,0.0937247946858406,-0.6121684312820435,0.40754157304763794,0.22180742025375366,1.2574204206466675,0.49517911672592163,0.2722066640853882
1760498309.7767577,0.02,0.08868612349033356,0.01584731414914131,-0.019740097224712372,-0.007433206774294376,0.02801191434264183,-0.9995799660682678,-0.31532323360443115,0.2508125305175781,-0.17045986652374268,-0.03437264636158943,0.025537610054016113,0.12057268619537354,0.0530819296836853,-0.03257113695144653,-0.04068273305892944,-0.11113891750574112,0.02893918752670288,-0.04262089729309082,0.11343108117580414,-0.02089303731918335,0.09570664167404175,0.0,0.0,0.0,0.0,0.03993266448378563,0.003049281192943454,0.025709325447678566,0.04029437527060509,-0.006486446596682072,-0.020372988656163216,0.04533838853240013,0.02709946036338806,-0.023229852318763733,0.042995940893888474,-0.016742220148444176,0.04126369580626488,0.09568960219621658,0.33561161160469055,0.17168210446834564,0.1646716445684433,0.06466864049434662,-0.15280991792678833,-0.2175161987543106,0.12607446312904358,0.2761803865432739,-0.18031327426433563,0.10444328188896179,-0.44235333800315857,0.27960458397865295,0.05329836159944534,-0.45136427879333496,0.3426220417022705,0.20699819922447205,1.26350998878479,0.45342889428138733,0.37453484535217285
1760498309.8332038,0.02,0.1546313613653183,0.007111747283488512,-0.014509976841509342,-0.006638939492404461,0.014093124307692051,-0.9998786449432373,-0.31532323360443115,0.2508125305175781,-0.16978394985198975,-0.01322683785110712,0.030208885669708252,0.12168347835540771,0.07612552493810654,-0.02805382013320923,-0.04460209608078003,-0.08655557781457901,0.03334403038024902,-0.04555535316467285,0.12979282438755035,-0.022499442100524902,0.09329670667648315,0.0,0.0,0.0,0.0,0.04452720284461975,0.01283060759305954,-0.004788605961948633,0.052900392562150955,0.019420797005295753,-0.019881751388311386,0.05657497048377991,0.004521716386079788,-0.002865362446755171,0.02566913329064846,-0.0025017212610691786,-0.02062387578189373,0.07553886622190475,0.16647806763648987,0.17109906673431396,0.21002399921417236,-1.3302955627441406,-0.14642205834388733,0.104901522397995,0.49397793412208557,0.32921355962753296,-0.4410085678100586,1.7324753999710083,-0.4442274868488312,0.3801923096179962,-0.06861943751573563,-0.1995149403810501,0.2990073561668396,0.15025457739830017,0.7342773675918579,0.6388383507728577,0.7372534871101379
1760498309.8847342,0.02,0.13050812482833862,0.01182272657752037,-0.0169843677431345,-0.005999062210321426,0.0022416245192289352,-0.9999794960021973,-0.31532323360443115,0.2508125305175781,-0.1691654920578003,-0.001632911735214293,0.03564763069152832,0.11052370071411133,0.09678271412849426,-0.01484692096710205,-0.054997026920318604,-0.06426574289798737,0.031308531761169434,-0.04354047775268555,0.13434509932994843,-0.022034645080566406,0.08001708984375,0.0,0.0,0.0,0.0,0.017003191635012627,0.011366533115506172,-0.0372735820710659,0.04805219918489456,0.03895588591694832,-0.03219041973352432,0.05172361060976982,-0.009861481375992298,0.011487147770822048,0.0029135902877897024,0.00029376274324022233,-0.030884061008691788,0.013945276848971844,0.09801586717367172,0.20548541843891144,0.2830542027950287,-1.8355532884597778,-0.15518444776535034,0.3080325722694397,0.626348614692688,0.41372525691986084,-0.5691932439804077,2.43666410446167,-0.38263317942619324,0.3686577379703522,-0.1436878889799118,0.014884516596794128,0.31474316120147705,-0.1751464605331421,0.46119794249534607,0.7811131477355957,1.0749846696853638
1760498309.9415615,0.02,0.07758975774049759,0.034627512097358704,-0.028119629248976707,-0.004023700952529907,-0.0049044364131987095,-0.9999798536300659,-0.31532323360443115,0.2508125305175781,-0.1682525873184204,-0.003200086299329996,0.03910857439041138,0.0946493148803711,0.11252050846815109,0.0024556517601013184,-0.06858426332473755,-0.04619740694761276,0.02591484785079956,-0.03819310665130615,0.1285979449748993,-0.020560026168823242,0.06876033544540405,0.0,0.0,0.0,0.0,-0.013122660107910633,0.006120703183114529,-0.040291666984558105,0.03692089393734932,0.044290941208601,-0.031177878379821777,0.04286617413163185,-0.01609339937567711,0.018586745485663414,-0.01908390410244465,0.004749732557684183,-0.02185782790184021,-0.04340515658259392,0.09273365885019302,0.23549842834472656,0.33701521158218384,-1.7711490392684937,-0.05920782685279846,0.29074791073799133,0.43422991037368774,0.384674072265625,-0.5852236747741699,2.5531365871429443,-0.31963732838630676,0.3399149477481842,-0.31144794821739197,0.15266770124435425,0.3093510568141937,-0.33206477761268616,0.4667961299419403,0.904861330986023,1.3326925039291382
1760498309.998459,0.02,0.04939351603388786,0.059152476489543915,-0.033071696758270264,-8.940056432038546e-05,-0.009266014210879803,-0.9999570846557617,-0.31532323360443115,0.2508125305175781,-0.16706335544586182,-0.013820725493133068,0.04146343469619751,0.07844793796539307,0.12549223005771637,0.019793689250946045,-0.07924532890319824,-0.03039013221859932,0.01977139711380005,-0.030040264129638672,0.11339503526687622,-0.014640390872955322,0.05506742000579834,0.0,0.0,0.0,0.0,-0.032092850655317307,0.004721424542367458,-0.039584606885910034,0.03162756562232971,0.041809309273958206,-0.020475005730986595,0.038541994988918304,-0.01598682627081871,0.024361317977309227,-0.04321941360831261,0.018146200105547905,-0.03368834778666496,-0.08623799681663513,0.09917530417442322,0.24160586297512054,0.37443727254867554,-1.702093482017517,0.008244544267654419,0.2538413405418396,0.36833691596984863,0.4202802777290344,-0.5927171111106873,2.4999964237213135,-0.2864380180835724,0.35893714427948,-0.4290509521961212,0.20178240537643433,0.23272483050823212,-0.460965633392334,0.5172972083091736,0.923942506313324,1.4418764114379883
1760498310.0530868,0.02,0.008365238085389137,0.07992449402809143,-0.03424554690718651,0.005638948641717434,-0.01029987819492817,-0.9999310374259949,-0.31532323360443115,0.2508125305175781,-0.16577208042144775,-0.031843654811382294,0.04379671812057495,0.06176435947418213,0.1353449821472168,0.036220431327819824,-0.08579123020172119,-0.01762007363140583,0.014795362949371338,-0.021004676818847656,0.08807027339935303,-0.004277527332305908,0.03816801309585571,0.0,0.0,0.0,0.0,-0.04803215712308884,0.0052742743864655495,-0.041189420968294144,0.024155162274837494,0.03869853541254997,-0.009259811602532864,0.031365133821964264,-0.01145702600479126,0.023799868300557137,-0.06690238416194916,0.027833128347992897,-0.039797596633434296,-0.120607890188694,0.1020769476890564,0.24280047416687012,0.38348111510276794,-1.65159010887146,0.04267197847366333,0.1756925731897354,0.32256433367729187,0.47267889976501465,-0.5905565023422241,2.253929853439331,-0.25973227620124817,0.3708929419517517,-0.4336572289466858,0.25892961025238037,0.15921641886234283,-0.5736542344093323,0.5455178618431091,0.9157946109771729,1.4626381397247314
1760498310.1160014,0.02,-0.03195372596383095,0.09693504869937897,-0.03370349854230881,0.012865853495895863,-0.008061487227678299,-0.9998847246170044,-0.31532323360443115,0.2508125305175781,-0.16445839405059814,-0.05443144589662552,0.04654747247695923,0.04369819164276123,0.1424887627363205,0.05115938186645508,-0.08787482976913452,-0.007687545381486416,0.012120425701141357,-0.013386130332946777,0.0574830062687397,0.007222771644592285,0.024636387825012207,0.0,0.0,0.0,0.0,-0.05654437094926834,0.006289943587034941,-0.044523123651742935,0.017777562141418457,0.034276265650987625,0.0022112466394901276,0.024741074070334435,-0.004444544669240713,0.017332199960947037,-0.07532475143671036,0.027872461825609207,-0.026618340983986855,-0.14477871358394623,0.10664596408605576,0.24711573123931885,0.3708358108997345,-1.5502357482910156,0.06784394383430481,0.07431329786777496,0.27864325046539307,0.519202470779419,-0.572887659072876,1.9079062938690186,-0.19036614894866943,0.37323060631752014,-0.32834258675575256,0.27185124158859253,0.11300292611122131,-0.6392163634300232,0.5767174959182739,0.9455620050430298,1.4123708009719849
1760498310.1720586,0.02,-0.07562895864248276,0.1065002828836441,-0.032267697155475616,0.02134264074265957,-0.002383692190051079,-0.999769389629364,-0.31532323360443115,0.2508125305175781,-0.16315555572509766,-0.07796534895896912,0.04897218942642212,0.029834747314453125,0.14707693457603455,0.06445658206939697,-0.08556956052780151,-0.0005466660368256271,0.012502551078796387,-0.009366750717163086,0.029444459825754166,0.01563781499862671,0.023078620433807373,0.0,0.0,0.0,0.0,-0.05356594920158386,-0.002447542268782854,0.00504976324737072,0.009819685481488705,0.029059994965791702,0.01222977414727211,0.017547255381941795,0.003575381590053439,0.005429045297205448,-0.06337320059537888,0.01740460842847824,0.005624808836728334,-0.22281666100025177,0.10394790023565292,0.2583150565624237,0.3341091573238373,-1.2152265310287476,0.10728076100349426,-0.0865098237991333,0.2139427363872528,0.5273277759552002,-0.5271924138069153,1.3730416297912598,-0.05777020752429962,0.36592036485671997,-0.13558855652809143,0.2121460735797882,0.12028377503156662,-0.641507625579834,0.5833966135978699,1.0430707931518555,1.2757059335708618
1760498310.2227023,0.02,-0.1160450428724289,0.0931958332657814,-0.03710829094052315,0.02925904095172882,0.006709969136863947,-0.9995493292808533,-0.31532323360443115,0.2508125305175781,-0.16163384914398193,-0.09522920846939087,0.047122418880462646,0.0441131591796875,0.14827603101730347,0.07795333862304688,-0.08458733558654785,0.003661543130874634,0.017113566398620605,-0.015932798385620117,0.014173127710819244,0.01529991626739502,0.041435837745666504,0.0,0.0,0.0,0.0,-0.03275923430919647,-0.003387739881873131,0.052331455051898956,0.0020995554514229298,0.03410980477929115,0.001476197736337781,0.009583157487213612,0.01586609147489071,-0.025364592671394348,-0.026142090559005737,-0.008215826004743576,0.057299043983221054,-0.06110149249434471,0.12462861835956573,0.28330180048942566,0.24606144428253174,-0.34025317430496216,0.1025514304637909,-0.367064893245697,0.08770468831062317,0.4734427332878113,-0.4300996959209442,0.48975780606269836,0.13748598098754883,0.3136734664440155,0.08034355193376541,0.08973483741283417,0.23922766745090485,-0.5357712507247925,0.5735608339309692,1.2194795608520508,1.1276205778121948
1760498310.274417,0.02,-0.19386893510818481,0.02360781654715538,-0.04623200371861458,0.032825034111738205,0.021850910037755966,-0.9992222189903259,-0.31532323360443115,0.2508125305175781,-0.15973281860351562,-0.10400456935167313,0.03978341817855835,0.07209956645965576,0.13359738886356354,0.08749037981033325,-0.08028137683868408,0.0008579556015320122,0.0255013108253479,-0.035768866539001465,0.009738382883369923,0.0026370882987976074,0.07262319326400757,0.0,0.0,0.0,0.0,-0.02094765566289425,-0.015175274573266506,0.06312299519777298,-0.046945229172706604,0.01802719198167324,0.014060846529901028,-0.007823693566024303,0.026861140504479408,-0.06459066271781921,-0.010756121017038822,-0.034211624413728714,0.06835251301527023,0.059916235506534576,0.11127551645040512,0.2767825424671173,0.19897186756134033,0.9701072573661804,0.08500725030899048,-0.6854565143585205,0.0202079676091671,0.2508511245250702,-0.34352347254753113,-0.7587227821350098,0.2883002460002899,0.09092883765697479,0.292994886636734,-0.0649038627743721,0.4245873689651489,0.054471902549266815,0.32987329363822937,1.1708612442016602,1.0234687328338623
1760498310.3332083,0.02,-0.14194977283477783,-0.030713068321347237,-0.04522185027599335,0.03189864754676819,0.03702224791049957,-0.9988052248954773,-0.31532323360443115,0.2508125305175781,-0.1578381061553955,-0.11263761669397354,0.032812535762786865,0.08696329593658447,0.10837823152542114,0.08792442083358765,-0.07135313749313354,-0.013513319194316864,0.028852641582489014,-0.04810929298400879,0.005131908692419529,-0.011079013347625732,0.09278059005737305,0.0,0.0,0.0,0.0,-0.011733615770936012,-0.015574452467262745,0.022551126778125763,-0.05640534684062004,-0.006980916950851679,0.017643487080931664,-0.041002340614795685,0.00010642372217262164,-0.01592875085771084,-0.0027007712051272392,-0.03018982708454132,0.03160766139626503,0.1391659379005432,0.1829039603471756,0.2600977420806885,0.24233019351959229,1.967193603515625,0.15737149119377136,-0.7903012037277222,0.2738945782184601,0.08326704055070877,-0.31800854206085205,-1.5546947717666626,0.36397385597229004,-0.11690536141395569,0.5005373358726501,-0.21789544820785522,0.6961750388145447,0.5650225877761841,0.23964962363243103,1.0793120861053467,1.167094111442566
1760498310.3875365,0.02,-0.02828107587993145,-0.06409735977649689,-0.04498158022761345,0.02792665734887123,0.04220444709062576,-0.9987186193466187,-0.31532323360443115,0.2508125305175781,-0.1560877561569214,-0.11069372296333313,0.02942526340484619,0.09013688564300537,0.09178515523672104,0.08245515823364258,-0.06354671716690063,-0.03409042954444885,0.02287471294403076,-0.03976309299468994,0.010570673272013664,-0.019300520420074463,0.09881091117858887,0.0,0.0,0.0,0.0,0.012890835292637348,-0.005353301297873259,-0.0011383326491340995,-0.02947629801928997,-0.015046541579067707,0.004017012193799019,-0.060065802186727524,-0.022182248532772064,0.033744554966688156,0.02110571786761284,-0.015036930330097675,0.001721650012768805,0.13174685835838318,0.2751045525074005,0.21414640545845032,0.22879670560359955,2.3638417720794678,0.22740808129310608,-0.7484387159347534,0.35579872131347656,0.15795305371284485,-0.278531014919281,-1.7110140323638916,0.26020678877830505,-0.15167644619941711,0.48767492175102234,-0.16158095002174377,0.7809507846832275,0.5824344158172607,0.3378276526927948,0.8505272269248962,1.0850051641464233
1760498310.446422,0.02,0.03733062371611595,-0.08387148380279541,-0.05020121484994888,0.021779274567961693,0.04057498648762703,-0.9989390969276428,-0.31532323360443115,0.2508125305175781,-0.15423214435577393,-0.10132195055484772,0.028670847415924072,0.08818113803863525,0.08224723488092422,0.07251650094985962,-0.056236207485198975,-0.058534108102321625,0.012518167495727539,-0.02431511878967285,0.02363492362201214,-0.02108818292617798,0.09399116039276123,0.0,0.0,0.0,0.0,0.0272767785936594,-0.0009275074116885662,-0.008292864076793194,-0.01657967083156109,-0.026599882170557976,0.008189389482140541,-0.06257735937833786,-0.02439730055630207,0.031160105019807816,0.036698129028081894,-0.0004608251329045743,-0.018300635740160942,0.11019430309534073,0.3263610303401947,0.16667261719703674,0.19824765622615814,2.511235237121582,0.16992399096488953,-0.6494828462600708,0.15233561396598816,0.16145017743110657,-0.24186433851718903,-1.5617444515228271,0.1212315782904625,-0.08164173364639282,0.272379070520401,-0.20887762308120728,0.7256972789764404,0.4923470616340637,0.6587648987770081,0.6272862553596497,0.8262457847595215
1760498310.5006125,0.02,0.03633565828204155,-0.09219788759946823,-0.05086565390229225,0.014731742441654205,0.037862177938222885,-0.9991743564605713,-0.31532323360443115,0.2508125305175781,-0.15230238437652588,-0.09047141671180725,0.028350830078125,0.08643114566802979,0.07297675311565399,0.057959675788879395,-0.04814058542251587,-0.08478960394859314,0.0027695298194885254,-0.010700106620788574,0.03845768794417381,-0.019707918167114258,0.08558940887451172,0.0,0.0,0.0,0.0,0.028200805187225342,-0.001518684788607061,-0.005042230244725943,-0.01836000382900238,-0.03856977820396423,0.00912257470190525,-0.06677958369255066,-0.025358304381370544,0.03541304171085358,0.03818778693675995,0.005005939397960901,-0.023862970992922783,0.09347691386938095,0.3699922263622284,0.15124186873435974,0.17813719809055328,2.488309144973755,0.14719483256340027,-0.5536551475524902,-0.004514191299676895,0.07443273812532425,-0.2228374034166336,-1.529401421546936,0.08898105472326279,0.008082758635282516,0.0800207257270813,-0.32579582929611206,0.6638675928115845,0.4510324001312256,0.8185898661613464,0.585503876209259,0.6610040068626404
1760498310.5620427,0.02,0.020252633839845657,-0.09534084796905518,-0.04942593351006508,0.007242731284350157,0.035985223948955536,-0.9993260502815247,-0.31532323360443115,0.2508125305175781,-0.15036773681640625,-0.08003772050142288,0.027418196201324463,0.08663523197174072,0.06244456768035889,0.03910714387893677,-0.04057276248931885,-0.11043994128704071,-0.005341768264770508,0.0009031295776367188,0.05304897204041481,-0.01709449291229248,0.0759812593460083,0.0,0.0,0.0,0.0,0.02633080445230007,-0.0030359334778040648,0.0009340615943074226,-0.020764140412211418,-0.048358406871557236,0.0041312845423817635,-0.0611453615128994,-0.017545295879244804,0.024704543873667717,0.03642516955733299,0.0063080983236432076,-0.02402099408209324,0.07963668555021286,0.43681463599205017,0.16078704595565796,0.16819174587726593,2.310610294342041,0.15346387028694153,-0.4884278476238251,-0.09868469834327698,0.013501636683940887,-0.18908952176570892,-1.5316176414489746,0.059931375086307526,0.08432894945144653,-0.05934401601552963,-0.4238933026790619,0.5924479365348816,0.4223605990409851,0.8810482025146484,0.6053723096847534,0.5451933145523071
1760498310.6183207,0.02,0.0019538505002856255,-0.08433385193347931,-0.04447202384471893,0.00023667654022574425,0.03518396243453026,-0.9993808269500732,-0.31532323360443115,0.2508125305175781,-0.14852213859558105,-0.07019913196563721,0.026264846324920654,0.09011673927307129,0.050996363162994385,0.017186999320983887,-0.03348672389984131,-0.1304490864276886,-0.008050978183746338,0.005347549915313721,0.06695239990949631,-0.01475536823272705,0.06860929727554321,0.0,0.0,0.0,0.0,0.024051977321505547,-0.0023352671414613724,0.010244116187095642,-0.022073272615671158,-0.054289478808641434,-0.0017603507731109858,-0.042991481721401215,9.707044955575839e-05,0.0011391266016289592,0.033228836953639984,0.0036823523696511984,-0.014083832502365112,0.06048198416829109,0.5353254079818726,0.17375145852565765,0.15917883813381195,2.057027578353882,0.12731292843818665,-0.4577181041240692,-0.12595203518867493,-0.016066841781139374,-0.13438834249973297,-1.5392640829086304,0.03001268208026886,0.15129409730434418,-0.12203670293092728,-0.5265650153160095,0.5234586596488953,0.35515540838241577,0.973430335521698,0.6397291421890259,0.43460917472839355
1760498310.6710093,0.02,-0.020953122526407242,-0.06056031957268715,-0.037104714661836624,-0.005195101257413626,0.0356428362429142,-0.9993510842323303,-0.31532323360443115,0.2508125305175781,-0.14683318138122559,-0.06128203868865967,0.025004267692565918,0.09730398654937744,0.039598602801561356,-0.004997313022613525,-0.027762532234191895,-0.14062561094760895,-0.0026163458824157715,-0.001316070556640625,0.07959640771150589,-0.01436227560043335,0.06811964511871338,0.0,0.0,0.0,0.0,0.020418453961610794,-0.002451537875458598,0.019382687285542488,-0.02074742130935192,-0.05303850769996643,-0.009254463016986847,-0.016395321115851402,0.02262033335864544,-0.030637487769126892,0.027864739298820496,-0.003027016296982765,0.006862408947199583,0.061944883316755295,0.620494544506073,0.17215754091739655,0.14796574413776398,1.7925161123275757,0.05303838849067688,-0.4632342755794525,-0.11913958191871643,0.0020584389567375183,-0.07450344413518906,-1.5389653444290161,-0.024092845618724823,0.17632067203521729,-0.07280313223600388,-0.6021047234535217,0.4788719415664673,0.2778986692428589,1.1217743158340454,0.6336358189582825,0.3393453359603882
1760498310.7232032,0.02,-0.025677992030978203,-0.024160264059901237,-0.024818742647767067,-0.008057404309511185,0.035841479897499084,-0.9993249773979187,-0.31532323360443115,0.2508125305175781,-0.1454695463180542,-0.051752328872680664,0.02440112829208374,0.10759413242340088,0.033904027193784714,-0.023116886615753174,-0.02771073579788208,-0.13394053280353546,0.012319564819335938,-0.02355825901031494,0.09195040166378021,-0.01705223321914673,0.077564537525177,0.0,0.0,0.0,0.0,0.019993340596556664,-0.0002723257930483669,0.027415454387664795,-0.005617172457277775,-0.03909086436033249,-0.02760917879641056,0.028471488505601883,0.04553015157580376,-0.07287129759788513,0.024453409016132355,-0.012932906858623028,0.03605479747056961,0.07020007818937302,0.6548931002616882,0.12885116040706635,0.13674437999725342,1.365695834159851,-0.030635833740234375,-0.43252357840538025,-0.07683184742927551,0.07925128191709518,-0.05344780534505844,-1.3174902200698853,-0.17129075527191162,0.1703389436006546,0.05781138688325882,-0.6142594814300537,0.43316125869750977,0.23454970121383667,1.2168973684310913,0.5613823533058167,0.26351481676101685
1760498310.7707422,0.02,0.05502886697649956,0.009070862084627151,-0.012357018887996674,-0.008149811998009682,0.03081871010363102,-0.9994917511940002,-0.31532323360443115,0.2508125305175781,-0.14471125602722168,-0.03673110529780388,0.024740278720855713,0.11891305446624756,0.045876409858465195,-0.03133350610733032,-0.03800016641616821,-0.11747676134109497,0.02590346336364746,-0.039290785789489746,0.10824372619390488,-0.021791398525238037,0.09202682971954346,0.0,0.0,0.0,0.0,0.035495635122060776,0.00120897451415658,0.02928251586854458,0.035314515233039856,-0.012102866545319557,-0.034491878002882004,0.041482437402009964,0.0348723940551281,-0.0358814038336277,0.037384867668151855,-0.01626655086874962,0.04422710835933685,0.09796419739723206,0.41407662630081177,0.11853630840778351,0.15845933556556702,0.38325414061546326,-0.14331483840942383,-0.272048681974411,0.08446502685546875,0.23475144803524017,-0.14188651740550995,-0.3136225640773773,-0.4044807255268097,0.24217453598976135,0.10368552803993225,-0.4967198371887207,0.35993677377700806,0.2323274314403534,1.2706761360168457,0.4496924877166748,0.31310856342315674
1760498310.8178306,0.02,0.14330105483531952,0.008839597925543785,-0.011658849194645882,-0.007294654846191406,0.018023310229182243,-0.9998109340667725,-0.31532323360443115,0.2508125305175781,-0.14420926570892334,-0.014789528213441372,0.027662694454193115,0.12459433078765869,0.06812655925750732,-0.02827352285385132,-0.042638182640075684,-0.09399925172328949,0.03215080499649048,-0.043474674224853516,0.12533116340637207,-0.02388697862625122,0.09360623359680176,0.0,0.0,0.0,0.0,0.04902248457074165,0.00815524347126484,0.00973814632743597,0.05085021257400513,0.015657326206564903,-0.019721833989024162,0.0540367066860199,0.008876284584403038,-0.004465695004910231,0.028654441237449646,-0.004552253056317568,-0.008650450967252254,0.10361108928918839,0.19398055970668793,0.16212956607341766,0.18894313275814056,-1.0638304948806763,-0.1625901162624359,0.010638728737831116,0.4051497280597687,0.33644747734069824,-0.3665851652622223,1.3399461507797241,-0.46410658955574036,0.39266371726989746,-0.014754907228052616,-0.25112974643707275,0.2991887032985687,0.24155756831169128,0.9007542729377747,0.5941802263259888,0.6513752341270447
1760498310.8685884,0.02,0.15030573308467865,0.007671377621591091,-0.008319378830492496,-0.006817038636654615,0.004684749059379101,-0.9999657869338989,-0.31532323360443115,0.2508125305175781,-0.14384353160858154,0.0007910312851890922,0.03247326612472534,0.11599195003509521,0.0905679240822792,-0.015990912914276123,-0.05209183692932129,-0.0704505443572998,0.03124082088470459,-0.04119753837585449,0.1324935406446457,-0.0231015682220459,0.08025944232940674,0.0,0.0,0.0,0.0,0.026485523208975792,0.011124650947749615,-0.035464268177747726,0.05276433750987053,0.037431564182043076,-0.031563740223646164,0.055057257413864136,-0.007291537709534168,0.011795817874372005,0.00810875091701746,0.0014281560434028506,-0.03527417033910751,0.04147648438811302,0.10048599541187286,0.19471821188926697,0.2606531083583832,-1.84815514087677,-0.18299934267997742,0.3164338767528534,0.7161353230476379,0.3902016878128052,-0.5723555684089661,2.2962677478790283,-0.3848312199115753,0.4040374457836151,-0.04748929291963577,-0.037991903722286224,0.29273250699043274,-0.0632680132985115,0.44396695494651794,0.7569473385810852,0.9560818672180176
1760498310.9209964,0.02,0.08188521862030029,0.02730618789792061,-0.017645427957177162,-0.005348675884306431,-0.0029727178625762463,-0.9999812841415405,-0.31532323360443115,0.2508125305175781,-0.1432943344116211,0.001303723780438304,0.03559917211532593,0.10020768642425537,0.10705199092626572,0.0018139481544494629,-0.06683140993118286,-0.052339401096105576,0.02639251947402954,-0.03604722023010254,0.12859869003295898,-0.022361695766448975,0.0696568489074707,0.0,0.0,0.0,0.0,-0.008978726342320442,0.005079483613371849,-0.041225384920835495,0.03840097784996033,0.04646490514278412,-0.03576593101024628,0.042421694844961166,-0.014937974512577057,0.01782110147178173,-0.014000795781612396,0.0018536068964749575,-0.018491564318537712,-0.02492949366569519,0.08626250177621841,0.23294775187969208,0.3147181570529938,-1.8128851652145386,-0.0946933925151825,0.30144941806793213,0.500217080116272,0.3590891361236572,-0.6013658046722412,2.427293062210083,-0.31915348768234253,0.35730627179145813,-0.19230076670646667,0.1415814906358719,0.3168659806251526,-0.2830510139465332,0.4096408784389496,0.9147931337356567,1.2472649812698364
1760498310.9791646,0.02,0.06270882487297058,0.05201798304915428,-0.024870891124010086,-0.001997910672798753,-0.008347841911017895,-0.9999631643295288,-0.31532323360443115,0.2508125305175781,-0.1424466371536255,-0.007488288916647434,0.03740191459655762,0.08361244201660156,0.12130609154701233,0.01967787742614746,-0.07885241508483887,-0.03589814156293869,0.020157039165496826,-0.028325200080871582,0.11760591715574265,-0.01827460527420044,0.05919909477233887,0.0,0.0,0.0,0.0,-0.0283218901604414,0.0032163753639906645,-0.04071926325559616,0.034898798912763596,0.043000783771276474,-0.023855676874518394,0.040212180465459824,-0.016529662534594536,0.02315293252468109,-0.031460754573345184,0.013225117698311806,-0.024606812745332718,-0.07338782399892807,0.09473442286252975,0.24842830002307892,0.35299190878868103,-1.7394078969955444,-0.015810489654541016,0.27240994572639465,0.41158267855644226,0.38269907236099243,-0.6062650084495544,2.4731571674346924,-0.2894030809402466,0.3638235330581665,-0.33535805344581604,0.17793384194374084,0.2582623362541199,-0.4232991337776184,0.47496911883354187,0.9629554152488708,1.37352454662323
1760498311.031469,0.02,0.025412876158952713,0.07330839335918427,-0.026668043807148933,0.0031776258256286383,-0.010784434154629707,-0.9999368190765381,-0.31532323360443115,0.2508125305175781,-0.1414623260498047,-0.024216752499341965,0.03931784629821777,0.06643426418304443,0.1327921748161316,0.036336421966552734,-0.086536705493927,-0.02209284156560898,0.01470327377319336,-0.019617795944213867,0.09706815332174301,-0.00927358865737915,0.044810950756073,0.0,0.0,0.0,0.0,-0.04581577330827713,0.004461249802261591,-0.04247136786580086,0.02810356579720974,0.03927658125758171,-0.01218455471098423,0.03366374596953392,-0.012920515611767769,0.023400355130434036,-0.05576733499765396,0.025447091087698936,-0.03554929420351982,-0.11202075332403183,0.10038446635007858,0.25226032733917236,0.36779579520225525,-1.681976318359375,0.02794802188873291,0.20092257857322693,0.35181474685668945,0.4381183385848999,-0.6094342470169067,2.313650369644165,-0.27192655205726624,0.3800160884857178,-0.40252408385276794,0.2369185984134674,0.18598873913288116,-0.5490019917488098,0.5152052044868469,0.9614828824996948,1.4034343957901
