vaithak/rl_training/csvs/data_obs_m20_10_env_0.csv
timestamp,dt,base_ang_vel_0,base_ang_vel_1,base_ang_vel_2,projected_gravity_0,projected_gravity_1,projected_gravity_2,velocity_commands_0,velocity_commands_1,velocity_commands_2,joint_pos_0,joint_pos_1,joint_pos_2,joint_pos_3,joint_pos_4,joint_pos_5,joint_pos_6,joint_pos_7,joint_pos_8,joint_pos_9,joint_pos_10,joint_pos_11,joint_pos_12,joint_pos_13,joint_pos_14,joint_pos_15,joint_vel_0,joint_vel_1,joint_vel_2,joint_vel_3,joint_vel_4,joint_vel_5,joint_vel_6,joint_vel_7,joint_vel_8,joint_vel_9,joint_vel_10,joint_vel_11,joint_vel_12,joint_vel_13,joint_vel_14,joint_vel_15,actions_0,actions_1,actions_2,actions_3,actions_4,actions_5,actions_6,actions_7,actions_8,actions_9,actions_10,actions_11,actions_12,actions_13,actions_14,actions_15
1760498992.9944625,0.02,0.21382957696914673,0.7701952457427979,-0.012509208172559738,0.06526383757591248,0.17045144736766815,-0.9832023978233337,-0.5273358821868896,0.7478164434432983,-0.1563938856124878,-0.33895331621170044,0.14790943264961243,0.7441900968551636,0.36476969718933105,0.29757416248321533,-0.020774483680725098,-0.23778347671031952,0.4147738218307495,-0.7189948558807373,0.11610695719718933,0.39956605434417725,-0.09429991245269775,0.0,0.0,0.0,0.0,-0.08847417682409286,-0.00844698678702116,0.09777400642633438,0.14427562057971954,0.03984146937727928,0.0336415134370327,6.327275332296267e-05,-0.23132441937923431,0.3465251922607422,-0.11459582298994064,0.06581450253725052,0.11826666444540024,0.42185288667678833,0.6528172492980957,0.6088301539421082,-1.2519644498825073,-3.4861974716186523,0.1700814962387085,1.9567116498947144,1.458712100982666,0.6554680466651917,-1.1609779596328735,5.448497772216797,0.8349077105522156,-1.6514140367507935,-0.03181663900613785,1.4272727966308594,-0.4372944235801697,1.3003655672073364,4.483287811279297,2.8193798065185547,-1.9073177576065063
1760498993.050338,0.02,0.3715110123157501,0.5519153475761414,-0.010252730920910835,0.11486443132162094,0.13964399695396423,-0.9835169911384583,-0.5273358821868896,0.7478164434432983,-0.15258240699768066,-0.3527538776397705,0.151582270860672,0.7614414691925049,0.4325414299964905,0.295604944229126,-0.015382707118988037,-0.21636879444122314,0.33233344554901123,-0.5906915664672852,0.08972205221652985,0.4255948066711426,-0.0713801383972168,0.0,0.0,0.0,0.0,-0.03185368329286575,0.013270710594952106,0.016027307137846947,0.1516466736793518,-0.025495797395706177,0.004381926730275154,0.07691718637943268,-0.18651096522808075,0.28713542222976685,-0.04764242470264435,0.04494587704539299,0.10281666368246078,0.33321085572242737,0.8756679892539978,0.5031698346138,-1.0323528051376343,-1.657694697380066,0.04898844659328461,1.580174207687378,1.3333559036254883,0.7592633366584778,-1.15999436378479,3.881273031234741,1.0251052379608154,-1.7134745121002197,0.024790681898593903,1.4015681743621826,-0.34426575899124146,0.7226242423057556,3.8071820735931396,2.1551482677459717,-2.755767345428467
1760498993.1062694,0.02,0.6166279911994934,0.09113018959760666,0.06633397191762924,0.13485637307167053,0.08568477630615234,-0.9871534109115601,-0.5273358821868896,0.7478164434432983,-0.15317785739898682,-0.3125012516975403,0.1524396538734436,0.7477047443389893,0.5013110637664795,0.254241943359375,-0.007812201976776123,-0.1557265818119049,0.27346765995025635,-0.5231033563613892,0.1201351061463356,0.43801283836364746,-0.06249856948852539,0.0,0.0,0.0,0.0,0.11085744202136993,-0.004109296947717667,-0.06731884926557541,0.12960827350616455,-0.13530944287776947,0.010299618355929852,0.14605040848255157,-0.12002568691968918,0.0913078784942627,0.0954444631934166,0.012755230069160461,0.03776346892118454,0.2808217704296112,0.7445618510246277,0.4136171042919159,-0.82887202501297,2.19575572013855,-0.06205461919307709,0.7861253023147583,0.5016512274742126,0.7334068417549133,-0.9560204744338989,-0.004988759756088257,1.1657133102416992,-2.0089340209960938,0.9659804105758667,0.8964871764183044,-0.30224519968032837,0.7335662841796875,2.9495012760162354,1.6015417575836182,-2.312427043914795
1760498993.166232,0.02,0.4933243691921234,-0.21790553629398346,0.10656876862049103,0.12721949815750122,0.03846314549446106,-0.9911285638809204,-0.5273358821868896,0.7478164434432983,-0.15711164474487305,-0.2629702389240265,0.13878610730171204,0.7012255191802979,0.5303430557250977,0.1812015175819397,0.009149312973022461,-0.11045155674219131,0.21810799837112427,-0.48125922679901123,0.19114620983600616,0.40549540519714355,-0.02546858787536621,0.0,0.0,0.0,0.0,0.11239564418792725,-0.04606333747506142,-0.14789296686649323,0.03170255571603775,-0.19250521063804626,0.013482785783708096,0.08273356407880783,-0.1363316774368286,0.08157603442668915,0.20172110199928284,-0.12532398104667664,0.1358911544084549,0.4252384603023529,0.5964988470077515,0.13324348628520966,-0.6198313236236572,2.6839873790740967,-0.5400935411453247,-0.033150143921375275,-0.11033257842063904,0.47043129801750183,-0.37375590205192566,-2.1467761993408203,0.7763683199882507,-1.7669931650161743,2.528001546859741,0.03546416759490967,-0.01593668758869171,1.0161328315734863,2.1765480041503906,0.530605673789978,-0.580143928527832
1760498993.2166152,0.02,0.18338483572006226,-0.42437881231307983,0.07038819789886475,0.10113681852817535,0.019489852711558342,-0.9946815967559814,-0.5273358821868896,0.7478164434432983,-0.1604999303817749,-0.24131539463996887,0.1140032410621643,0.628017783164978,0.4937877655029297,0.07820016145706177,0.062652587890625,-0.10670802742242813,0.1620427966117859,-0.45634686946868896,0.2743578553199768,0.3131869435310364,0.08768922090530396,0.0,0.0,0.0,0.0,0.04759670048952103,-0.06672319024801254,-0.21037054061889648,-0.12833978235721588,-0.27702784538269043,0.14771950244903564,-0.011443492956459522,-0.12310220301151276,0.004797859583050013,0.22077825665473938,-0.2649863362312317,0.33513256907463074,0.5118998885154724,0.46690303087234497,0.04166833311319351,-0.7181603312492371,1.2242377996444702,-0.4185713827610016,-0.7508420944213867,0.42685195803642273,0.17476299405097961,0.6611289978027344,-2.992370843887329,0.28420838713645935,-1.7580033540725708,2.915661573410034,-0.21948862075805664,0.5479677319526672,1.5890532732009888,1.6791539192199707,-0.7108365297317505,0.5651363134384155
1760498993.2651658,0.02,-0.029570817947387695,-0.4672248661518097,0.06785035878419876,0.06602022051811218,0.01912499964237213,-0.997635006904602,-0.5273358821868896,0.7478164434432983,-0.16348493099212646,-0.23882190883159637,0.0943458080291748,0.5379050970077515,0.41499629616737366,-0.03565835952758789,0.12935757637023926,-0.1366005390882492,0.11856657266616821,-0.4495246410369873,0.3399040699005127,0.1954362392425537,0.23440873622894287,0.0,0.0,0.0,0.0,-0.000590347801335156,-0.03832782059907913,-0.23965410888195038,-0.210316464304924,-0.2722580134868622,0.13707078993320465,-0.09290046989917755,-0.09941171854734421,0.015745291486382484,0.1428554654121399,-0.29099041223526,0.375542014837265,0.4589618146419525,0.24184612929821014,-0.11289983987808228,-1.2008408308029175,-0.16548538208007812,-0.21461650729179382,-0.8562381267547607,2.3109660148620605,-0.019008897244930267,1.1443835496902466,-3.5804083347320557,-0.12601330876350403,-1.5677539110183716,2.0543453693389893,-0.6966436505317688,1.0993292331695557,1.4676403999328613,0.6683561205863953,-1.159125804901123,0.49942582845687866
1760498993.3165371,0.02,-0.09112045168876648,-0.4219220280647278,0.11397838592529297,0.030566910281777382,0.021243991330266,-0.9993069171905518,-0.5273358821868896,0.7478164434432983,-0.1680847406387329,-0.23741723597049713,0.08842617273330688,0.44344818592071533,0.33971449732780457,-0.12472414970397949,0.1551722288131714,-0.17515401542186737,0.0847516655921936,-0.4385824203491211,0.3842264413833618,0.09034216403961182,0.3296016454696655,0.0,0.0,0.0,0.0,-0.007682811003178358,-0.0039048015605658293,-0.22997544705867767,-0.18542401492595673,-0.17852316796779633,0.008162162266671658,-0.10371803492307663,-0.07429030537605286,0.02939942292869091,0.08622438460588455,-0.26083412766456604,0.2514066696166992,0.3639677166938782,0.051386620849370956,-0.19830860197544098,-0.9019030928611755,-0.5902061462402344,-0.3092990219593048,-0.4254465699195862,2.90659236907959,-0.022869594395160675,1.0696758031845093,-3.008134365081787,-0.17900028824806213,-1.3517266511917114,1.8138835430145264,-1.608180284500122,1.22122061252594,0.7863132357597351,-0.06146112456917763,-1.3042162656784058,-0.3858187794685364
1760498993.3741813,0.02,-0.13425852358341217,-0.2552410364151001,0.14025358855724335,0.005294075235724449,0.029392840340733528,-0.999553918838501,-0.5273358821868896,0.7478164434432983,-0.17383849620819092,-0.23480139672756195,0.08203244209289551,0.3737093210220337,0.28213590383529663,-0.1611519455909729,0.13521718978881836,-0.20601405203342438,0.06252419948577881,-0.4212203025817871,0.40313345193862915,-0.0028333663940429688,0.40031081438064575,0.0,0.0,0.0,0.0,0.004518910776823759,-0.022209111601114273,-0.15122859179973602,-0.12781564891338348,-0.03794695436954498,-0.07667276263237,-0.07095396518707275,-0.04315199330449104,0.052275996655225754,0.024350730702280998,-0.22558656334877014,0.19297362864017487,0.19161394238471985,0.0685560330748558,-0.09955690056085587,-0.7079558372497559,-0.5697212219238281,-0.541118860244751,-0.016212791204452515,1.807936429977417,0.18808448314666748,0.8902233242988586,-0.92552649974823,-0.2566536068916321,-0.9858343005180359,1.7125604152679443,-1.6307587623596191,1.4578604698181152,0.3492799997329712,0.2715543210506439,-1.0150550603866577,-1.0732494592666626
1760498993.426191,0.02,-0.3463515639305115,0.015828311443328857,0.10510540008544922,-0.0011453237384557724,0.05258481204509735,-0.9986158013343811,-0.5273358821868896,0.7478164434432983,-0.17914700508117676,-0.250331848859787,0.05722057819366455,0.35400569438934326,0.24877046048641205,-0.13325726985931396,0.06014418601989746,-0.24492736160755157,0.033878862857818604,-0.37132132053375244,0.37322190403938293,-0.055931150913238525,0.40900301933288574,0.0,0.0,0.0,0.0,-0.05908733606338501,-0.07856404781341553,-0.012707069516181946,-0.07371359318494797,0.11186082661151886,-0.18974833190441132,-0.10338611900806427,-0.08602077513933182,0.16665546596050262,-0.11058582365512848,-0.11517300456762314,0.040359385311603546,0.12289471924304962,0.2640683650970459,0.03405158221721649,-0.6693967580795288,-2.6563313007354736,-0.5417304039001465,1.1422542333602905,1.0746784210205078,0.7348939776420593,0.351024866104126,4.474796295166016,-0.09096332639455795,-0.4611962139606476,1.2014362812042236,-0.8450878262519836,1.4770742654800415,0.48313748836517334,1.8451144695281982,0.5215906500816345,-1.6180251836776733
1760498993.4793048,0.02,-0.3342207670211792,0.23078946769237518,-0.007226560264825821,0.008899766951799393,0.07683251798152924,-0.9970042705535889,-0.5273358821868896,0.7478164434432983,-0.18081140518188477,-0.2797059416770935,0.027530550956726074,0.3563591241836548,0.24047204852104187,-0.05894571542739868,-0.03319728374481201,-0.26303744316101074,0.00206148624420166,-0.31019723415374756,0.30387476086616516,-0.033208608627319336,0.3039661645889282,0.0,0.0,0.0,0.0,-0.09584090858697891,-0.07066091895103455,0.021303268149495125,-0.00675218878313899,0.2339383214712143,-0.23456381261348724,-0.01619832031428814,-0.07223071157932281,0.158656507730484,-0.20716217160224915,0.02104666456580162,-0.07590252161026001,0.11423460394144058,0.6980321407318115,0.3741990029811859,-1.4587143659591675,-3.5134072303771973,-0.16895267367362976,1.5921025276184082,0.38072851300239563,1.6380647420883179,-0.1656837910413742,8.899930000305176,0.5888817310333252,-0.4196971356868744,0.8988728523254395,0.5386850237846375,1.0626744031906128,0.45826125144958496,3.775799512863159,1.9353930950164795,-1.852521538734436
1760498993.5353618,0.02,-0.16570906341075897,0.37229281663894653,-0.07774984836578369,0.03163262456655502,0.08777640759944916,-0.995637834072113,-0.5273358821868896,0.7478164434432983,-0.17856085300445557,-0.31105494499206543,0.005896270275115967,0.34709203243255615,0.2548130750656128,0.035164475440979004,-0.1038859486579895,-0.25592511892318726,-0.026362121105194092,-0.23089158535003662,0.20846295356750488,0.046495139598846436,0.11777645349502563,0.0,0.0,0.0,0.0,-0.09750333428382874,-0.05077043175697327,-0.030332311987876892,0.03034260869026184,0.24651077389717102,-0.1500655561685562,0.03320477902889252,-0.06455808132886887,0.21092520654201508,-0.2671007513999939,0.13407450914382935,-0.2398076355457306,-0.02354045771062374,0.4005705416202545,0.2760441303253174,-1.7768148183822632,-3.5702764987945557,-0.36394426226615906,1.122003197669983,-0.04976150766015053,1.043758749961853,-0.545401930809021,8.530770301818848,0.6272557973861694,-0.08356663584709167,0.37832024693489075,0.716923713684082,0.09206883609294891,-0.13341867923736572,2.3561699390411377,1.2931492328643799,-2.913313150405884
1760498993.5903924,0.02,0.11875015497207642,0.41500526666641235,-0.09901800751686096,0.06223267316818237,0.0823599100112915,-0.9946576952934265,-0.5273358821868896,0.7478164434432983,-0.17404401302337646,-0.32921987771987915,-0.0019107460975646973,0.3110116720199585,0.28445520997047424,0.1206139326095581,-0.13834917545318604,-0.22475402057170868,-0.047121644020080566,-0.1379772424697876,0.11244488507509232,0.10669642686843872,0.00019735097885131836,0.0,0.0,0.0,0.0,-0.03358178958296776,-0.0092221200466156,-0.10721226781606674,0.0794917568564415,0.19674836099147797,-0.050722844898700714,0.10238271206617355,-0.03688540682196617,0.22256295382976532,-0.22977745532989502,0.10752743482589722,-0.1702851802110672,-0.13145482540130615,0.25632134079933167,0.15681631863117218,-1.288602352142334,-2.949582099914551,-0.016417473554611206,0.867364764213562,0.17689236998558044,0.7705864310264587,-0.8164638876914978,5.29247522354126,0.8364687561988831,0.07478925585746765,0.6776071190834045,0.6395829916000366,-0.25853031873703003,-0.540697455406189,1.6364156007766724,0.7354974150657654,-3.682999849319458
1760498993.6515446,0.02,0.14018261432647705,0.3558678925037384,-0.07861392945051193,0.0915248841047287,0.06952337175607681,-0.993372917175293,-0.5273358821868896,0.7478164434432983,-0.16970086097717285,-0.32599347829818726,0.009382665157318115,0.2513216733932495,0.3140358328819275,0.1787256896495819,-0.14533793926239014,-0.18269935250282288,-0.056973397731781006,-0.05340147018432617,0.02992505580186844,0.12286537885665894,-0.017647266387939453,0.0,0.0,0.0,0.0,-0.002394153969362378,0.009991233237087727,-0.01219690777361393,0.05839572101831436,0.1121138259768486,0.012167394161224365,0.10490678995847702,-0.009077036753296852,0.18651947379112244,-0.1958414763212204,-0.004294383339583874,0.0716279074549675,0.4297752380371094,0.21867051720619202,0.15509238839149475,-1.108109712600708,-1.5533510446548462,0.35943934321403503,0.3198898732662201,0.3015776574611664,0.5143847465515137,-1.0691815614700317,1.4451439380645752,0.6543201208114624,0.15924209356307983,0.5581717491149902,0.5928284525871277,-0.12187661230564117,-0.451837420463562,1.3201700448989868,0.6860129237174988,-3.1323440074920654
1760498993.706358,0.02,0.26350346207618713,0.10354645550251007,-0.023461541160941124,0.10555493086576462,0.04529118165373802,-0.9933815002441406,-0.5273358821868896,0.7478164434432983,-0.167854905128479,-0.3020182251930237,0.027231037616729736,0.2332369089126587,0.3420391380786896,0.20160457491874695,-0.14327770471572876,-0.12759247422218323,-0.04691469669342041,-0.024883270263671875,-0.015774548053741455,0.11952894926071167,-0.013558149337768555,0.0,0.0,0.0,0.0,0.04895839840173721,0.06675707548856735,-0.0814698189496994,0.04842521250247955,0.03461184725165367,-0.017393704503774643,0.1311732828617096,0.03852342069149017,0.02948668599128723,-0.05988462641835213,0.002586383605375886,-0.0036919761914759874,0.12080230563879013,0.18152989447116852,0.2659749686717987,-0.8144580125808716,1.3676891326904297,0.41671067476272583,0.01987871527671814,-0.2312343418598175,0.735285222530365,-1.212019681930542,-0.577151894569397,0.46256402134895325,-0.06357511878013611,0.028455056250095367,0.3267696499824524,0.06295181810855865,0.21138489246368408,1.0753393173217773,1.0541306734085083,-2.6127097606658936
1760498993.755465,0.02,0.17804735898971558,0.01962611824274063,-0.03148198872804642,0.10907363146543503,0.028171155601739883,-0.9936344027519226,-0.5273358821868896,0.7478164434432983,-0.1665104627609253,-0.27825048565864563,0.04994618892669678,0.20393002033233643,0.3562009036540985,0.21395456790924072,-0.17121541500091553,-0.07402053475379944,-0.026566684246063232,-0.03379416465759277,-0.00107504369225353,0.106228768825531,0.0333484411239624,0.0,0.0,0.0,0.0,0.051649224013090134,0.059956904500722885,-0.08601225912570953,0.019077900797128677,0.021975615993142128,-0.0714116021990776,0.12832863628864288,0.05185330659151077,-0.03218013420701027,0.047770243138074875,-0.02599179744720459,0.15095363557338715,0.11395720392465591,0.3271412253379822,0.2516009509563446,-0.2065211832523346,2.496469020843506,0.42844435572624207,-0.03373926877975464,-1.2556252479553223,0.7732237577438354,-1.1408573389053345,-0.6808406114578247,0.3075832426548004,-0.22762474417686462,0.3062935471534729,0.08875623345375061,0.4704098105430603,0.7022875547409058,1.375892996788025,1.006560206413269,-1.3028498888015747
1760498993.8094027,0.02,0.16027164459228516,-0.06592673808336258,0.0002828226424753666,0.10600170493125916,0.013362031430006027,-0.9942761659622192,-0.5273358821868896,0.7478164434432983,-0.1660696268081665,-0.25056028366088867,0.07033658027648926,0.17025399208068848,0.3526691198348999,0.20050564408302307,-0.17639273405075073,-0.024273356422781944,-0.00925302505493164,-0.04640758037567139,0.019429167732596397,0.08586233854293823,0.07725739479064941,0.0,0.0,0.0,0.0,0.0651988610625267,0.049034278839826584,-0.08880680054426193,-0.02997758984565735,-0.05729003623127937,0.011020947247743607,0.11488735675811768,0.03878910839557648,-0.02897772192955017,0.04370817914605141,-0.05296928435564041,0.09163987636566162,0.11984080076217651,0.4623532295227051,0.16737602651119232,0.05328259989619255,2.900672435760498,0.4464137852191925,-0.19917994737625122,-1.772104263305664,0.6082211136817932,-0.982532799243927,-0.8070743083953857,0.4247293472290039,-0.2472229301929474,0.626097559928894,-0.1565222144126892,0.6179413199424744,0.6548527479171753,1.8805679082870483,0.6810824871063232,0.06161530315876007
1760498993.8638544,0.02,0.05630343779921532,-0.0991695374250412,-0.023266462609171867,0.09905670583248138,0.007132522761821747,-0.9950562119483948,-0.5273358821868896,0.7478164434432983,-0.1654585599899292,-0.2259831577539444,0.0868564248085022,0.13856613636016846,0.3262041211128235,0.1722431480884552,-0.15977853536605835,0.016170591115951538,0.008705079555511475,-0.06906712055206299,0.033778220415115356,0.05286526679992676,0.11831784248352051,0.0,0.0,0.0,0.0,0.062233008444309235,0.03884315863251686,-0.0784079059958458,-0.07935266941785812,-0.07293803244829178,0.04921684414148331,0.0958302915096283,0.04249931871891022,-0.05785425379872322,0.031751327216625214,-0.08625771105289459,0.09901655465364456,0.11513932049274445,0.5124300718307495,0.06346290558576584,0.2020423412322998,2.5539400577545166,0.35701584815979004,-0.34478244185447693,-1.8109732866287231,0.7349919080734253,-0.7105218768119812,-0.9787391424179077,0.4059925973415375,-0.4108797013759613,1.231175184249878,-0.08957916498184204,0.9004960060119629,0.455000638961792,2.0355868339538574,0.2597646415233612,0.9642261862754822
1760498993.9171627,0.02,0.07079324126243591,-0.11892402917146683,-0.039675772190093994,0.09025293588638306,0.0019482485949993134,-0.9959169626235962,-0.5273358821868896,0.7478164434432983,-0.16409993171691895,-0.19583502411842346,0.09875446557998657,0.11479175090789795,0.2926478981971741,0.14217901229858398,-0.13380581140518188,0.05314375087618828,0.025740861892700195,-0.09627330303192139,0.050182320177555084,0.013388216495513916,0.15621823072433472,0.0,0.0,0.0,0.0,0.0838213711977005,0.025330154225230217,-0.052689868956804276,-0.08534010499715805,-0.07077036798000336,0.06202945113182068,0.0876055508852005,0.038276731967926025,-0.06351993978023529,0.04340421408414841,-0.0985308289527893,0.08802913874387741,0.10889097303152084,0.5283209681510925,-0.013087299652397633,0.3067719638347626,2.482956647872925,0.3234810531139374,-0.3417428731918335,-1.4364826679229736,0.6867533326148987,-0.5592319369316101,-1.4691622257232666,0.4076359272003174,-0.5338608622550964,1.5236053466796875,-0.04507941007614136,1.064606785774231,0.3995957374572754,2.0867981910705566,-0.04088281840085983,1.5079158544540405
1760498993.9744647,0.02,0.06911040097475052,-0.1363123655319214,-0.044453755021095276,0.0800260603427887,-0.0032442230731248856,-0.9967874884605408,-0.5273358821868896,0.7478164434432983,-0.16232597827911377,-0.1614348143339157,0.10630029439926147,0.09787094593048096,0.2576073706150055,0.11465159058570862,-0.10709547996520996,0.08182365447282791,0.040109097957611084,-0.12243103981018066,0.0689450353384018,-0.026021242141723633,0.18821007013320923,0.0,0.0,0.0,0.0,0.08969296514987946,0.01591487042605877,-0.03919888660311699,-0.08624857664108276,-0.06353660672903061,0.05927940830588341,0.060932707041502,0.031194845214486122,-0.05831167846918106,0.04847196117043495,-0.09484431892633438,0.07023454457521439,0.1256512701511383,0.5008272528648376,-0.04677320644259453,0.34209927916526794,2.4595866203308105,0.32037344574928284,-0.3855442404747009,-1.044082522392273,0.5615969896316528,-0.47998329997062683,-1.9352307319641113,0.4252198040485382,-0.6267340779304504,1.5265321731567383,0.018754780292510986,1.1795740127563477,0.4886603355407715,1.9536504745483398,-0.17168685793876648,1.6984500885009766
1760498994.024867,0.02,0.03714349493384361,-0.13715475797653198,-0.049741290509700775,0.06948187202215195,-0.005568506196141243,-0.9975676536560059,-0.5273358821868896,0.7478164434432983,-0.16026127338409424,-0.13039058446884155,0.1107703447341919,0.08510959148406982,0.22034598886966705,0.09121835231781006,-0.08223241567611694,0.09545305371284485,0.051117122173309326,-0.14365530014038086,0.08662894368171692,-0.06067788600921631,0.2190101146697998,0.0,0.0,0.0,0.0,0.07838477939367294,0.009052222594618797,-0.03171125426888466,-0.08879541605710983,-0.05407390743494034,0.055509474128484726,0.021617863327264786,0.023151708766818047,-0.04618966951966286,0.04620922729372978,-0.07946594804525375,0.06505265086889267,0.13729892671108246,0.4406590163707733,-0.05948342755436897,0.28207066655158997,2.4205169677734375,0.2903061807155609,-0.47337988018989563,-0.7309093475341797,0.43595391511917114,-0.4021681249141693,-2.289757251739502,0.39522942900657654,-0.7048273682594299,1.4601136445999146,0.0834226906299591,1.3214586973190308,0.5434746146202087,1.692917823791504,-0.22572097182273865,1.5067754983901978
1760498994.0720575,0.02,0.02368752658367157,-0.12718024849891663,-0.05280124023556709,0.05947042629122734,-0.0062624309211969376,-0.9982104301452637,-0.5273358821868896,0.7478164434432983,-0.15803754329681396,-0.10418292135000229,0.11248314380645752,0.07547008991241455,0.18417726457118988,0.07132399082183838,-0.05877363681793213,0.09370385855436325,0.05878371000289917,-0.16017675399780273,0.10416524857282639,-0.08873438835144043,0.24826639890670776,0.0,0.0,0.0,0.0,0.06484895944595337,0.0019649562891572714,-0.02403360791504383,-0.08277921378612518,-0.0462271086871624,0.05258861929178238,-0.015829790383577347,0.015292053110897541,-0.036997999995946884,0.0471719428896904,-0.0625329539179802,0.06108576059341431,0.12666240334510803,0.35370585322380066,-0.07929179817438126,0.2168656438589096,2.486124277114868,0.2734204828739166,-0.5397371649742126,-0.5084367394447327,0.31039926409721375,-0.3466261923313141,-2.5901288986206055,0.318005234003067,-0.7821641564369202,1.4111946821212769,0.08881580829620361,1.467881441116333,0.5506284236907959,1.3178889751434326,-0.31282439827919006,1.287980556488037
1760498994.123299,0.02,0.030395543202757835,-0.12015913426876068,-0.04999812692403793,0.05000484734773636,-0.007688760757446289,-0.9987193942070007,-0.5273358821868896,0.7478164434432983,-0.15588271617889404,-0.08093331009149551,0.11134472489356995,0.06841170787811279,0.1528400331735611,0.053350746631622314,-0.036651015281677246,0.07850100100040436,0.06184262037277222,-0.17147910594940186,0.1237177774310112,-0.11009201407432556,0.27256256341934204,0.0,0.0,0.0,0.0,0.055601514875888824,-0.004310458432883024,-0.01955832727253437,-0.07061567902565002,-0.04258907958865166,0.04919428005814552,-0.04923008009791374,0.003265758976340294,-0.024875884875655174,0.05194121226668358,-0.04665360972285271,0.049677375704050064,0.10932552814483643,0.26332470774650574,-0.10447032749652863,0.17599904537200928,2.680011749267578,0.2825610339641571,-0.5779176950454712,-0.4981245696544647,0.18954268097877502,-0.32083216309547424,-2.7833878993988037,0.2082870602607727,-0.8258274793624878,1.3614468574523926,0.04426535964012146,1.5623571872711182,0.49393606185913086,0.9322279095649719,-0.4188259541988373,1.1301093101501465
1760498994.173217,0.02,0.03277614340186119,-0.11700090020895004,-0.041092999279499054,0.04082841798663139,-0.01004290021955967,-0.9991157054901123,-0.5273358821868896,0.7478164434432983,-0.15401792526245117,-0.059897661209106445,0.1083957850933075,0.06424820423126221,0.1255149096250534,0.034562110900878906,-0.014522731304168701,0.0508626326918602,0.05852353572845459,-0.17523956298828125,0.14531761407852173,-0.12612664699554443,0.2907015085220337,0.0,0.0,0.0,0.0,0.048301760107278824,-0.0058582015335559845,-0.012482083402574062,-0.06390789151191711,-0.04696836322546005,0.05080365762114525,-0.08003026992082596,-0.01271685492247343,-0.006367959082126617,0.05542534217238426,-0.03472960740327835,0.03568681702017784,0.11322572082281113,0.18340805172920227,-0.11642376333475113,0.1574043482542038,2.941141128540039,0.3201875388622284,-0.6008684635162354,-0.6863980293273926,0.04840824753046036,-0.2914993464946747,-2.8609166145324707,0.10037050396203995,-0.8212156891822815,1.31217360496521,-0.06268459558486938,1.6106762886047363,0.4116055369377136,0.5859999060630798,-0.469925194978714,1.0259771347045898
1760498994.2226305,0.02,0.0120332520455122,-0.12377054989337921,-0.02670663595199585,0.03141576424241066,-0.011873753741383553,-0.9994359016418457,-0.5273358821868896,0.7478164434432983,-0.1526491641998291,-0.039918892085552216,0.10516595840454102,0.06466543674468994,0.09866806119680405,0.012960731983184814,0.00720059871673584,0.011579719372093678,0.04685389995574951,-0.1660066843032837,0.1673809140920639,-0.13907110691070557,0.30356019735336304,0.0,0.0,0.0,0.0,0.04852819815278053,-0.007558449637144804,0.0027828195597976446,-0.0675068199634552,-0.05454676225781441,0.047041211277246475,-0.10827287286520004,-0.03309594467282295,0.026688341051340103,0.052152205258607864,-0.02729242481291294,0.017490051686763763,0.07040576636791229,0.11312500387430191,-0.09908831119537354,0.15733422338962555,3.0108754634857178,0.3439789116382599,-0.6493511199951172,-0.9042786955833435,-0.08865460008382797,-0.24798806011676788,-2.7817468643188477,0.03230194002389908,-0.7260550856590271,1.245072841644287,-0.2266770601272583,1.608433485031128,0.30040818452835083,0.2835324704647064,-0.40199652314186096,0.920269787311554
1760498994.2795641,0.02,-0.04239949211478233,-0.1466868370771408,-0.021236181259155273,0.02061714231967926,-0.010065878741443157,-0.9997367858886719,-0.5273358821868896,0.7478164434432983,-0.15170729160308838,-0.021768582984805107,0.10088258981704712,0.06933331489562988,0.06738019734621048,-0.01097869873046875,0.02443516254425049,-0.038363225758075714,0.02737957239151001,-0.14291095733642578,0.1869334727525711,-0.15181678533554077,0.3120591640472412,0.0,0.0,0.0,0.0,0.04243456944823265,-0.011122187599539757,0.01144442893564701,-0.08196736872196198,-0.05963402986526489,0.0342836007475853,-0.1315653771162033,-0.050083380192518234,0.0578673891723156,0.04461876302957535,-0.02683163993060589,0.0070320055820047855,0.03986306115984917,0.0623590424656868,-0.02995208278298378,0.17111630737781525,2.706204652786255,0.3408840298652649,-0.7300478219985962,-0.9970381855964661,-0.19568175077438354,-0.18078269064426422,-2.6038875579833984,0.003353394567966461,-0.5665003657341003,1.1510224342346191,-0.37464818358421326,1.5818166732788086,0.20175492763519287,0.09140893071889877,-0.12872934341430664,0.9429861903190613
1760498994.3386707,0.02,-0.09750531613826752,-0.17429842054843903,-0.020179422572255135,0.007666959427297115,-0.004079423379153013,-0.9999622702598572,-0.5273358821868896,0.7478164434432983,-0.1509166955947876,-0.006426692474633455,0.09600651264190674,0.07589530944824219,0.031972333788871765,-0.03578084707260132,0.03455054759979248,-0.09435872733592987,0.0031256675720214844,-0.10842680931091309,0.20366708934307098,-0.16390129923820496,0.3140518069267273,0.0,0.0,0.0,0.0,0.03501582518219948,-0.012621941044926643,0.017106538638472557,-0.09103606641292572,-0.05998113751411438,0.014883426018059254,-0.142162024974823,-0.05799102783203125,0.08230365812778473,0.0377204492688179,-0.025478346273303032,-0.0077138966880738735,0.005233393516391516,0.027548644691705704,0.07595415413379669,0.19611339271068573,2.165459394454956,0.36300620436668396,-0.7496135234832764,-0.8211628198623657,-0.2836480736732483,-0.11610334366559982,-2.3623251914978027,0.035313136875629425,-0.36810213327407837,1.0279641151428223,-0.5454239249229431,1.5252411365509033,0.11857926100492477,-0.02749994769692421,0.29299864172935486,0.9829146862030029
1760498994.3927479,0.02,-0.13535644114017487,-0.20056195557117462,-0.02955617383122444,-0.007304971106350422,0.005358049646019936,-0.9999589920043945,-0.5273358821868896,0.7478164434432983,-0.15005230903625488,0.006595623679459095,0.08976751565933228,0.08879077434539795,-0.0015187251847237349,-0.05717271566390991,0.03458893299102783,-0.14937463402748108,-0.02234470844268799,-0.06484079360961914,0.21866020560264587,-0.17418956756591797,0.310655415058136,0.0,0.0,0.0,0.0,0.029331425204873085,-0.019380180165171623,0.041192732751369476,-0.08063589781522751,-0.04705958068370819,-0.011408775113523006,-0.13259023427963257,-0.057664599269628525,0.09967359900474548,0.03539174422621727,-0.02060643583536148,-0.018250079825520515,-0.05678822472691536,0.023670220747590065,0.16338245570659637,0.20033049583435059,1.5159128904342651,0.3950890600681305,-0.6284053325653076,-0.46844616532325745,-0.2987787127494812,-0.11262915283441544,-1.7649579048156738,0.052160926163196564,-0.14581280946731567,0.8577703237533569,-0.7033123970031738,1.438520073890686,0.004437975585460663,-0.015113507397472858,0.6375356912612915,0.9225068688392639
1760498994.4458463,0.02,-0.3053697347640991,-0.20991402864456177,-0.037359803915023804,-0.023427490144968033,0.02490616962313652,-0.9994152188301086,-0.5273358821868896,0.7478164434432983,-0.14905107021331787,0.009996211156249046,0.08226686716079712,0.11006724834442139,-0.02824174240231514,-0.06391096115112305,0.015324234962463379,-0.20201900601387024,-0.056444525718688965,0.013242483139038086,0.21741721034049988,-0.17451971769332886,0.28944188356399536,0.0,0.0,0.0,0.0,-0.0024388537276536226,-0.021208008751273155,0.061036136001348495,-0.061194974929094315,0.002892166143283248,-0.07173988223075867,-0.12379234284162521,-0.07891938835382462,0.19137747585773468,-0.014402496628463268,0.0038162691053003073,-0.0537651963531971,-0.10501088947057724,0.13329869508743286,0.24531543254852295,0.1992921233177185,0.010709341615438461,0.3957776129245758,-0.1855720728635788,-0.1305062472820282,-0.15618440508842468,-0.29354724287986755,0.40637198090553284,-0.15393729507923126,0.3375382125377655,0.27059802412986755,-0.6791133284568787,1.1868538856506348,-0.14056050777435303,0.4883567988872528,0.960765540599823,0.7763946652412415
1760498994.5018344,0.02,-0.2651124894618988,0.012064807116985321,-0.007723576854914427,-0.031095130369067192,0.05015488713979721,-0.9982572793960571,-0.5273358821868896,0.7478164434432983,-0.14792680740356445,0.006567149888724089,0.07911425828933716,0.14543092250823975,-0.03279973566532135,-0.049578189849853516,-0.021621286869049072,-0.21984542906284332,-0.0554502010345459,0.010993361473083496,0.2008611112833023,-0.1698506474494934,0.28347814083099365,0.0,0.0,0.0,0.0,0.0009091086103580892,0.007345111109316349,0.10442254692316055,0.006238848436623812,0.04124594107270241,-0.0658089891076088,0.008004049770534039,0.07385698705911636,-0.1734955608844757,-0.05714837834239006,0.015715962275862694,0.014361172914505005,-0.14004522562026978,0.251754492521286,0.4458235204219818,0.2143193930387497,-1.347933053970337,0.07860645651817322,0.28786373138427734,0.6175246238708496,-0.012231074273586273,-0.627799391746521,3.833913564682007,0.09642752259969711,0.7163125872612,-0.25871989130973816,-0.5373703837394714,1.1798248291015625,-0.6317628622055054,1.2094148397445679,1.8114211559295654,0.8642945885658264
1760498994.5552268,0.02,-0.10240992903709412,0.13845321536064148,-0.007231918629258871,-0.02376279979944229,0.06123600900173187,-0.997840404510498,-0.5273358821868896,0.7478164434432983,-0.14754080772399902,0.003580294782295823,0.082827627658844,0.1732625961303711,-0.02198825590312481,-0.028211474418640137,-0.03325629234313965,-0.20822131633758545,-0.04245501756668091,-0.01816260814666748,0.16714686155319214,-0.1411956548690796,0.2576128840446472,0.0,0.0,0.0,0.0,-0.019162273034453392,0.006655897945165634,0.0529862605035305,0.03259609267115593,0.05934492498636246,-0.0187048502266407,0.03752722963690758,0.009971505962312222,-0.022471636533737183,-0.09536661952733994,0.08160730451345444,-0.05819863826036453,-0.21735547482967377,0.10969918221235275,0.3841019570827484,0.1788940131664276,-1.7860499620437622,-0.6210408210754395,0.4019583463668823,0.7320572137832642,0.5301552414894104,-0.9212608337402344,5.941619873046875,0.25123676657676697,0.7436930537223816,0.23026026785373688,-0.051110923290252686,1.0225883722305298,-1.0408560037612915,0.9080594182014465,2.3802554607391357,0.7954915165901184
1760498994.6105103,0.02,0.07427088916301727,0.1531757414340973,-0.04619932174682617,-0.012700406834483147,0.05804254859685898,-0.9982333183288574,-0.5273358821868896,0.7478164434432983,-0.14608001708984375,-0.001013602246530354,0.0826185941696167,0.17979907989501953,0.0019159094663336873,-0.0074613094329833984,-0.03942614793777466,-0.18011142313480377,-0.046264588832855225,-0.020134329795837402,0.1322728395462036,-0.09670180082321167,0.21543210744857788,0.0,0.0,0.0,0.0,-0.017027439549565315,-0.007856246083974838,0.002652199938893318,0.0665057972073555,0.05241735652089119,-0.014445560984313488,0.0822024717926979,-0.019900260493159294,0.009885978884994984,-0.0791826993227005,0.10513567924499512,-0.07003401219844818,-0.30178043246269226,0.17397592961788177,0.4544239938259125,0.09031554311513901,-1.4411174058914185,-0.39120814204216003,0.5321770906448364,0.4803016781806946,0.6233060359954834,-0.927811324596405,6.904983997344971,0.4154651463031769,0.4870844781398773,0.3476901948451996,0.08775794506072998,0.8416646718978882,-1.2650936841964722,1.275468111038208,2.473808526992798,0.9653106331825256
1760498994.6679971,0.02,0.13948166370391846,0.1657368540763855,-0.06780645996332169,-0.0006329212337732315,0.04702109843492508,-0.998893678188324,-0.5273358821868896,0.7478164434432983,-0.14358890056610107,-0.009004974737763405,0.07808876037597656,0.17091572284698486,0.03390200808644295,0.0121307373046875,-0.04793345928192139,-0.14139002561569214,-0.05602431297302246,-0.01046454906463623,0.0975382998585701,-0.04938262701034546,0.17312216758728027,0.0,0.0,0.0,0.0,-0.028594080358743668,-0.016467755660414696,-0.026495108380913734,0.08100349456071854,0.05165274813771248,-0.0242446418851614,0.10109951347112656,-0.027602985501289368,0.035320427268743515,-0.08489707857370377,0.1061287671327591,-0.06803648918867111,-0.3335563540458679,0.24768641591072083,0.4208512306213379,-0.002216339809820056,-1.356070876121521,-0.16453617811203003,0.5707387924194336,0.3911789655685425,0.6314667463302612,-0.9715719819068909,6.920769691467285,0.5125718116760254,0.5181899666786194,0.20113281905651093,0.06515944004058838,0.6138396263122559,-1.3597816228866577,1.5068577527999878,2.235215663909912,0.870307981967926
1760498994.72371,0.02,0.11062365025281906,0.18209992349147797,-0.0717347115278244,0.012683503329753876,0.036650024354457855,-0.999247670173645,-0.5273358821868896,0.7478164434432983,-0.14066672325134277,-0.026493150740861893,0.0720146894454956,0.15324389934539795,0.0662778913974762,0.03353625535964966,-0.061764657497406006,-0.10169646143913269,-0.06578940153121948,0.007881700992584229,0.054470330476760864,-0.004287540912628174,0.13167482614517212,0.0,0.0,0.0,0.0,-0.05427348613739014,-0.017255010083317757,-0.04475371167063713,0.07822304219007492,0.05669019743800163,-0.03740575537085533,0.09725943952798843,-0.02491934411227703,0.056328654289245605,-0.11703015863895416,0.08753906935453415,-0.043800365179777145,-0.3450227379798889,0.2967660427093506,0.3521687686443329,-0.13528643548488617,-1.463159441947937,-0.024944454431533813,0.5218310356140137,0.47704198956489563,0.661775529384613,-1.014967679977417,5.9973907470703125,0.5928077697753906,0.6176360249519348,0.10940026491880417,0.14395266771316528,0.39562147855758667,-1.3877172470092773,1.6405757665634155,1.944433569908142,0.6714037656784058
1760498994.7834957,0.02,0.06561034172773361,0.19380325078964233,-0.06972449272871017,0.02690100483596325,0.02926008403301239,-0.9992097616195679,-0.5273358821868896,0.7478164434432983,-0.13779497146606445,-0.05432705208659172,0.06728661060333252,0.12815678119659424,0.0971905067563057,0.05673009157180786,-0.08004546165466309,-0.06405898928642273,-0.07240170240402222,0.030025720596313477,0.002848866395652294,0.03762310743331909,0.08758097887039185,0.0,0.0,0.0,0.0,-0.0805656760931015,-0.012047125957906246,-0.059740062803030014,0.0731823742389679,0.06074541434645653,-0.04666101187467575,0.0903591439127922,-0.014577941969037056,0.062420763075351715,-0.13133607804775238,0.0793839767575264,-0.049945343285799026,-0.3093516230583191,0.332070916891098,0.30991804599761963,-0.2946934700012207,-1.7270588874816895,0.07812979817390442,0.4339689612388611,0.6788843274116516,0.7328800559043884,-1.0319422483444214,4.518525123596191,0.6218989491462708,0.6970258355140686,0.18168124556541443,0.3058547377586365,0.19794125854969025,-1.2301498651504517,1.7758934497833252,1.726555585861206,0.3091042637825012
1760498994.8392417,0.02,0.03341040015220642,0.18669965863227844,-0.06554273515939713,0.04096216708421707,0.023843849077820778,-0.99887615442276,-0.5273358821868896,0.7478164434432983,-0.13505232334136963,-0.08871366828680038,0.06612855195999146,0.09513270854949951,0.1280571073293686,0.08063006401062012,-0.09988677501678467,-0.02738899737596512,-0.0734662413597107,0.04795330762863159,-0.04600297659635544,0.0741724967956543,0.03884458541870117,0.0,0.0,0.0,0.0,-0.09486214816570282,-0.0020213339012116194,-0.07730015367269516,0.0698545053601265,0.05823066458106041,-0.04399256780743599,0.08632320165634155,0.0016160140512511134,0.044731397181749344,-0.1159520149230957,0.059953153133392334,-0.05446907505393028,-0.2299020141363144,0.32074281573295593,0.2942807674407959,-0.476428747177124,-1.8170132637023926,0.21295025944709778,0.2913932502269745,0.8560435175895691,0.7779071927070618,-0.9826538562774658,2.955423593521118,0.5187077522277832,0.6519527435302734,0.2461717426776886,0.3207414746284485,-0.024471037089824677,-0.8981801867485046,1.7698627710342407,1.5169429779052734,-0.08167630434036255
1760498994.893438,0.02,0.08405432105064392,0.17127342522144318,-0.03850823640823364,0.054407794028520584,0.01661444455385208,-0.9983805418014526,-0.5273358821868896,0.7478164434432983,-0.13308608531951904,-0.1159527525305748,0.07010579109191895,0.06062185764312744,0.16359727084636688,0.10440003871917725,-0.11995244026184082,0.011718019843101501,-0.06389284133911133,0.046962082386016846,-0.07740483433008194,0.09083884954452515,0.013687849044799805,0.0,0.0,0.0,0.0,-0.05659922957420349,0.0063434443436563015,-0.04728958383202553,0.08753567934036255,0.05763046815991402,-0.04619188234210014,0.09690627455711365,0.029762789607048035,-0.008219489827752113,-0.060772605240345,0.01203907560557127,-0.006277031730860472,-0.07574321329593658,0.3125736713409424,0.3289531171321869,-0.6147953271865845,-1.265163779258728,0.353307843208313,0.026991471648216248,0.8182666301727295,0.8275508284568787,-0.9188130497932434,1.3546139001846313,0.5859593152999878,0.5442326664924622,0.32908543944358826,0.21489107608795166,-0.08633963763713837,-0.4765211343765259,1.629515528678894,1.5679374933242798,-0.8046750426292419
1760498994.9471169,0.02,0.19755935668945312,0.018635153770446777,-0.053022947162389755,0.06022430956363678,0.0017850100994110107,-0.9981832504272461,-0.5273358821868896,0.7478164434432983,-0.1313154697418213,-0.0951889306306839,0.06472772359848022,0.07770299911499023,0.20843107998371124,0.13576820492744446,-0.15353131294250488,0.05732446536421776,-0.046987950801849365,0.026020050048828125,-0.07606761902570724,0.0790700912475586,0.03279322385787964,0.0,0.0,0.0,0.0,0.10644896328449249,-0.02945011854171753,0.10174717754125595,0.11401736736297607,0.09282518923282623,-0.11164567619562149,0.11468539386987686,0.049086641520261765,-0.07960502058267593,0.028120560571551323,-0.04903072863817215,0.08353035151958466,0.12732848525047302,0.27108463644981384,0.3322567641735077,-0.7062084078788757,0.8467057347297668,0.5011889934539795,-0.455208420753479,0.05325296148657799,0.9225433468818665,-0.8316188454627991,-0.6890156269073486,0.6779816746711731,0.1583748757839203,0.4380474090576172,0.21992957592010498,0.14569014310836792,0.22791194915771484,1.1852463483810425,1.4647140502929688,-1.3312939405441284
1760498995.0004783,0.02,0.018238922581076622,-0.06304676830768585,-0.08246564865112305,0.05723098665475845,-0.004405276849865913,-0.9983512163162231,-0.5273358821868896,0.7478164434432983,-0.12822282314300537,-0.059613145887851715,0.05044114589691162,0.10938942432403564,0.22327296435832977,0.15590223670005798,-0.17007464170455933,0.08906545490026474,-0.02785283327102661,-0.012765645980834961,-0.043462660163640976,0.06560009717941284,0.06762158870697021,0.0,0.0,0.0,0.0,0.07502689957618713,-0.03375935181975365,0.06444427371025085,-0.0028052523266524076,0.02742348052561283,-0.006082713603973389,0.060010164976119995,0.04684614762663841,-0.10121869295835495,0.09527245908975601,-0.024868404492735863,0.1122516542673111,0.2018345147371292,0.25282418727874756,0.31435731053352356,-0.2152668982744217,2.3443355560302734,0.8086040019989014,-0.31109419465065,-0.6161485314369202,0.3247992694377899,-0.8398956060409546,-1.3673012256622314,0.43115270137786865,-0.09412617981433868,0.12669946253299713,-0.04268878698348999,0.43545645475387573,1.409888505935669,0.9770601391792297,1.2376084327697754,-0.649689257144928
1760498995.0552676,0.02,0.040275488048791885,-0.09897005558013916,-0.0288395993411541,0.050367169082164764,-0.008326122537255287,-0.9986960887908936,-0.5273358821868896,0.7478164434432983,-0.12623810768127441,-0.025951674208045006,0.04134315252304077,0.12855732440948486,0.21018436551094055,0.14283058047294617,-0.143480122089386,0.107175312936306,-0.012980759143829346,-0.04522573947906494,-0.006908180192112923,0.051841676235198975,0.09937697649002075,0.0,0.0,0.0,0.0,0.08402571082115173,-0.015916986390948296,0.038300056010484695,-0.05097721144556999,-0.0564662329852581,0.08305659145116806,0.031959157437086105,0.033157844096422195,-0.07125403732061386,0.08641317486763,-0.03534547984600067,0.07832833379507065,0.17232371866703033,0.21904876828193665,0.26490500569343567,0.15075086057186127,3.1931209564208984,0.7194147109985352,-0.2605988085269928,-0.4925554096698761,0.10808829218149185,-0.7434356808662415,-1.6773775815963745,0.4062611758708954,-0.2225976288318634,0.2267559915781021,-0.27882900834083557,0.6776099801063538,1.1345603466033936,0.7486884593963623,0.9880520701408386,0.5140630602836609
1760498995.113513,0.02,-0.02382069081068039,-0.11013831943273544,-0.0139703918248415,0.04196462035179138,-0.008403923362493515,-0.9990837574005127,-0.5273358821868896,0.7478164434432983,-0.1253291368484497,0.005628635175526142,0.03984731435775757,0.1408771276473999,0.17968417704105377,0.11398723721504211,-0.1052253246307373,0.10995989292860031,-0.0030698776245117188,-0.06786620616912842,0.025185786187648773,0.033589839935302734,0.12782788276672363,0.0,0.0,0.0,0.0,0.0757577195763588,0.0035223353188484907,0.02420450560748577,-0.08755245804786682,-0.07458730787038803,0.08750661462545395,-0.008950481191277504,0.0189899280667305,-0.04523511603474617,0.07541058957576752,-0.04397478327155113,0.06324931234121323,0.10828500241041183,0.17323337495326996,0.18537363409996033,0.2448674440383911,3.3132517337799072,0.43716034293174744,-0.4664364755153656,-0.43619394302368164,0.22677263617515564,-0.4898534119129181,-1.8709750175476074,0.27465173602104187,-0.3981578052043915,0.6203513145446777,-0.21436360478401184,0.9396313428878784,0.5875709056854248,0.5378835797309875,0.7628047466278076,1.1372565031051636
1760498995.170089,0.02,-0.00966450572013855,-0.12366507947444916,-0.031372617930173874,0.03285340219736099,-0.006176663562655449,-0.9994410872459412,-0.5273358821868896,0.7478164434432983,-0.12421953678131104,0.035338614135980606,0.039997637271881104,0.15603256225585938,0.13832613825798035,0.08102893829345703,-0.06752842664718628,0.09996490180492401,0.003211498260498047,-0.08851516246795654,0.05574415624141693,0.011016011238098145,0.16000032424926758,0.0,0.0,0.0,0.0,0.07743480056524277,0.005132716614753008,0.026441846042871475,-0.10458823293447495,-0.0823807641863823,0.08555158227682114,-0.031770508736371994,0.010995743796229362,-0.0499100424349308,0.08051382005214691,-0.06018427759408951,0.08251436054706573,0.07278728485107422,0.12547145783901215,0.14869818091392517,0.2720407545566559,3.3423593044281006,0.258268803358078,-0.6968905925750732,-0.3653539717197418,0.14791765809059143,-0.278408408164978,-2.301032781600952,0.1467287242412567,-0.523378312587738,0.8441744446754456,-0.09151142835617065,1.1621575355529785,0.37424367666244507,0.35302862524986267,0.5966336131095886,1.4566105604171753
1760498995.230608,0.02,-0.0020571351051330566,-0.14943990111351013,-0.03424043208360672,0.021986017003655434,-0.004803415387868881,-0.9997467398643494,-0.5273358821868896,0.7478164434432983,-0.122772216796875,0.06553269177675247,0.04479360580444336,0.16195154190063477,0.09105445444583893,0.04478555917739868,-0.034370362758636475,0.07793602347373962,0.004153132438659668,-0.10716819763183594,0.08755133301019669,-0.014496266841888428,0.1950145959854126,0.0,0.0,0.0,0.0,0.07828310132026672,0.016754038631916046,0.004299035295844078,-0.11806531995534897,-0.09156240522861481,0.07062648981809616,-0.0657627135515213,-0.0037618426140397787,-0.04251306876540184,0.08218692988157272,-0.06220914050936699,0.07933187484741211,0.0563318133354187,0.05549195408821106,0.13096709549427032,0.27619320154190063,3.3414199352264404,0.14043393731117249,-0.8618577718734741,-0.30703261494636536,-0.01053047925233841,-0.13398493826389313,-2.881349563598633,0.03188104182481766,-0.5767385363578796,0.7995167374610901,-0.0706036239862442,1.2565935850143433,0.17231154441833496,0.06304939836263657,0.5286765098571777,1.4702457189559937
1760498995.2872891,0.02,-0.048699088394641876,-0.18294081091880798,-0.032226234674453735,0.008748581632971764,-0.0005490381736308336,-0.9999615550041199,-0.5273358821868896,0.7478164434432983,-0.12136733531951904,0.09274133294820786,0.05367046594619751,0.16204404830932617,0.037220463156700134,0.008059144020080566,-0.012781918048858643,0.03820124268531799,-0.0023990869522094727,-0.11725521087646484,0.11651606112718582,-0.039516329765319824,0.22946149110794067,0.0,0.0,0.0,0.0,0.06877059489488602,0.0256987065076828,-0.007437299471348524,-0.1334475725889206,-0.09028949588537216,0.03813149034976959,-0.11199524253606796,-0.02231450192630291,-0.019528483971953392,0.07249771803617477,-0.05625182017683983,0.06876155734062195,0.01496017724275589,-0.03261778503656387,0.1261787861585617,0.2491712123155594,3.0222983360290527,0.032097190618515015,-0.9686130285263062,-0.30324825644493103,-0.09806715697050095,-0.02041669934988022,-3.2060554027557373,-0.034965746104717255,-0.5597357153892517,0.7445055246353149,-0.20021486282348633,1.2883967161178589,-0.12983733415603638,-0.28160300850868225,0.5128785967826843,1.2519582509994507
1760498995.3483562,0.02,-0.10881490260362625,-0.21695277094841003,-0.020982766523957253,-0.0072954450733959675,0.007267823442816734,-0.9999469518661499,-0.5273358821868896,0.7478164434432983,-0.1202998161315918,0.11683087795972824,0.0665927529335022,0.15874028205871582,-0.016795743256807327,-0.025279581546783447,-0.003708958625793457,-0.0176224485039711,-0.01701301336288452,-0.11176121234893799,0.142080157995224,-0.062055885791778564,0.25620096921920776,0.0,0.0,0.0,0.0,0.059070903807878494,0.03550351783633232,-0.012410694733262062,-0.12313754856586456,-0.0850854143500328,0.031571533530950546,-0.1503538340330124,-0.03923222795128822,0.019614029675722122,0.05994049832224846,-0.048810288310050964,0.045632876455783844,-0.05027508735656738,-0.06334071606397629,0.13407199084758759,0.25050827860832214,2.4665536880493164,0.04615485668182373,-0.9362972974777222,-0.24498769640922546,-0.11096470803022385,0.026541806757450104,-3.0288913249969482,-0.022508792579174042,-0.4531707465648651,0.7378607392311096,-0.5155455470085144,1.250413179397583,-0.4095633625984192,-0.5477558374404907,0.5481248497962952,1.0826524496078491
1760498995.402923,0.02,-0.1872926652431488,-0.2452329695224762,-0.02027539350092411,-0.02562757208943367,0.020793287083506584,-0.9994552731513977,-0.5273358821868896,0.7478164434432983,-0.11966204643249512,0.13648563623428345,0.08272755146026611,0.1536848545074463,-0.062415968626737595,-0.049793541431427,-0.005076706409454346,-0.08396489173173904,-0.03908348083496094,-0.08366012573242188,0.1628553867340088,-0.08454692363739014,0.2785939574241638,0.0,0.0,0.0,0.0,0.04645880311727524,0.04222748056054115,-0.017084361985325813,-0.10479927062988281,-0.047823380678892136,-0.023875107988715172,-0.1684313714504242,-0.05380864813923836,0.07183470577001572,0.049051787704229355,-0.05108080431818962,0.04085465520620346,-0.09265976399183273,-0.11377456039190292,0.1711597591638565,0.27001863718032837,1.8846088647842407,0.10603472590446472,-0.7811084985733032,-0.2238498330116272,-0.11284897476434708,-0.006577960215508938,-2.2856132984161377,-0.0274670347571373,-0.24183779954910278,0.7431894540786743,-0.8520813584327698,1.2263507843017578,-0.4927945137023926,-0.5537682175636292,0.6868900656700134,1.0036306381225586
1760498995.4594648,0.02,-0.22196689248085022,-0.16580985486507416,0.001115979626774788,-0.04319087043404579,0.04021811485290527,-0.9982569813728333,-0.5273358821868896,0.7478164434432983,-0.11940395832061768,0.1510607898235321,0.09840577840805054,0.15276122093200684,-0.09452603757381439,-0.05544024705886841,-0.02627384662628174,-0.14077551662921906,-0.05415409803390503,-0.05833315849304199,0.16923962533473969,-0.09849607944488525,0.2774502635002136,0.0,0.0,0.0,0.0,0.04472397640347481,0.042973972856998444,0.010215060785412788,-0.05660282447934151,0.004895131569355726,-0.05271949991583824,-0.08961842954158783,0.03366785869002342,-0.07509706914424896,0.004973724018782377,-0.03195386007428169,-0.004882848355919123,-0.09657242149114609,-0.028084490448236465,0.2637235224246979,0.24715428054332733,0.1372881829738617,0.10790559649467468,-0.22172890603542328,-0.08389315009117126,-0.04537307471036911,-0.261360228061676,-0.0008723139762878418,-0.38085731863975525,0.2702270448207855,0.428937703371048,-0.8049272894859314,1.0130618810653687,-0.392289400100708,-0.13114812970161438,0.9007145762443542,0.7540397047996521
1760498995.5127518,0.02,-0.16852962970733643,0.17268934845924377,0.016214264556765556,-0.03895699605345726,0.057252105325460434,-0.9975993633270264,-0.5273358821868896,0.7478164434432983,-0.1194608211517334,0.14192217588424683,0.11275696754455566,0.17264676094055176,-0.09373244643211365,-0.03739994764328003,-0.04261469841003418,-0.13775384426116943,-0.027339518070220947,-0.08733034133911133,0.15201137959957123,-0.10887476801872253,0.29339152574539185,0.0,0.0,0.0,0.0,-0.05178045853972435,0.03194281831383705,0.07010933011770248,0.03768794983625412,0.0636196956038475,-0.026087863370776176,0.045969825237989426,0.09031404554843903,-0.09359750896692276,-0.06986670941114426,-0.009834592230618,0.021799499168992043,-0.1357174515724182,0.1899065375328064,0.32634416222572327,0.23668842017650604,-2.125485897064209,-0.40774115920066833,0.5229523181915283,0.7682213187217712,-0.06058069318532944,-0.6615637540817261,4.022810935974121,-0.10648905485868454,0.6815648674964905,0.24459229409694672,-0.5904984474182129,1.0841416120529175,-0.6773022413253784,0.5180346369743347,1.4463618993759155,0.6416667699813843
1760498995.5666769,0.02,-0.025942105799913406,0.2430046796798706,-0.012566028162837029,-0.02173658087849617,0.05999305099248886,-0.9979621171951294,-0.5273358821868896,0.7478164434432983,-0.11888551712036133,0.11376825720071793,0.11267691850662231,0.19714558124542236,-0.06795191019773483,-0.004958987236022949,-0.034856438636779785,-0.10928567498922348,-0.00860130786895752,-0.08351469039916992,0.12265603989362717,-0.08094191551208496,0.2364565134048462,0.0,0.0,0.0,0.0,-0.09144981950521469,-0.02050309255719185,0.05726606398820877,0.06343451142311096,0.08870130032300949,0.029365554451942444,0.0731811597943306,0.033460382372140884,0.03460455313324928,-0.08344763517379761,0.0614607110619545,-0.11322841793298721,-0.21971824765205383,-0.03221757337450981,0.24678681790828705,0.1534508615732193,-1.3800832033157349,-0.7780168056488037,0.42055603861808777,0.291627436876297,0.31588226556777954,-0.8545341491699219,4.831881999969482,0.04284488409757614,0.4337312877178192,0.650802731513977,0.03436756134033203,0.8477675318717957,-1.0536459684371948,0.011058534495532513,1.2673760652542114,0.562188446521759
1760498995.6238494,0.02,0.12314935773611069,0.21666529774665833,-0.03130187466740608,-0.003992043435573578,0.053254105150699615,-0.9985730051994324,-0.5273358821868896,0.7478164434432983,-0.11750316619873047,0.07915400713682175,0.10157087445259094,0.20588696002960205,-0.0338069312274456,0.021643400192260742,-0.01814800500869751,-0.07116465270519257,0.0020446181297302246,-0.06700098514556885,0.09469416737556458,-0.05638551712036133,0.18746620416641235,0.0,0.0,0.0,0.0,-0.08901795744895935,-0.03327469527721405,0.001947365584783256,0.09250845015048981,0.05761445686221123,0.04653865471482277,0.10393273830413818,0.02219308726489544,0.045640211552381516,-0.064144067466259,0.04347006604075432,-0.08270877599716187,-0.3334750533103943,0.05957527086138725,0.23174333572387695,0.1190609559416771,-0.9359093308448792,-0.2730177938938141,0.5009403228759766,0.16060523688793182,0.23457741737365723,-0.9112128615379333,4.998072624206543,0.13903740048408508,0.22551578283309937,0.6384533643722534,0.008290886878967285,0.6885194182395935,-1.5274029970169067,0.380979984998703,0.9557682871818542,0.5234277844429016
1760498995.681205,0.02,0.10128648579120636,0.20411573350429535,-0.03199702873826027,0.011773355305194855,0.045648545026779175,-0.9988881945610046,-0.5273358821868896,0.7478164434432983,-0.1157761812210083,0.036977674812078476,0.09084320068359375,0.1929100751876831,0.001362667535431683,0.04414868354797363,-0.01192331314086914,-0.031962938606739044,0.014031529426574707,-0.05406177043914795,0.05930187925696373,-0.03538554906845093,0.14494216442108154,0.0,0.0,0.0,0.0,-0.10994728654623032,-0.0230905469506979,-0.05077732354402542,0.08955825865268707,0.055422741919755936,0.011891636066138744,0.0988653153181076,0.036527443677186966,0.02432536520063877,-0.09463205188512802,0.03753921017050743,-0.06349078565835953,-0.4087730944156647,0.1892380267381668,0.22200416028499603,0.04670486971735954,-1.0012050867080688,-0.012149542570114136,0.4794304072856903,0.27113136649131775,0.4394794702529907,-0.8882079124450684,4.876489639282227,0.10405974835157394,0.2479403167963028,0.18249686062335968,0.1494588553905487,0.5229693055152893,-1.736997127532959,1.033262848854065,0.7673651576042175,0.7144216895103455
1760498995.7381794,0.02,0.06727378070354462,0.22844457626342773,-0.015636054798960686,0.028647582978010178,0.03950478136539459,-0.9988086223602295,-0.5273358821868896,0.7478164434432983,-0.11467278003692627,-0.011466743424534798,0.08622604608535767,0.16221117973327637,0.035782866179943085,0.06559640169143677,-0.013742446899414062,0.004554081708192825,0.027750611305236816,-0.03640544414520264,0.010782333090901375,-0.011688232421875,0.10224795341491699,0.0,0.0,0.0,0.0,-0.1260703206062317,-0.00680918712168932,-0.08907276391983032,0.0849003791809082,0.053448982536792755,-0.004877656232565641,0.08891217410564423,0.03123859502375126,0.059210117906332016,-0.1290225237607956,0.04607580602169037,-0.060187142342329025,-0.4203396439552307,0.283507376909256,0.17473025619983673,-0.053082115948200226,-1.2216297388076782,0.09152355790138245,0.35591185092926025,0.33213186264038086,0.5788463950157166,-0.8146734237670898,4.174231052398682,0.05091734975576401,0.36044177412986755,-0.08492647856473923,0.3254857063293457,0.34194809198379517,-1.7008824348449707,1.504019856452942,0.7089390754699707,0.6201395392417908
1760498995.7914078,0.02,0.05588604509830475,0.23924845457077026,-0.01510176993906498,0.04701100289821625,0.034393198788166046,-0.9983021020889282,-0.5273358821868896,0.7478164434432983,-0.11384403705596924,-0.06049823760986328,0.08507883548736572,0.13093805313110352,0.07001126557588577,0.08596491813659668,-0.01742476224899292,0.03952178359031677,0.039399802684783936,-0.010688543319702148,-0.043772004544734955,0.015044748783111572,0.062061190605163574,0.0,0.0,0.0,0.0,-0.11841344833374023,-0.0038848184049129486,-0.055963046848773956,0.08445237576961517,0.050657954066991806,-0.008439842611551285,0.08637114614248276,0.02712000347673893,0.07028680294752121,-0.1348072588443756,0.05372367426753044,-0.05505255609750748,-0.3256293833255768,0.32988443970680237,0.1827242374420166,-0.15332604944705963,-1.4815137386322021,0.16999086737632751,0.11938038468360901,0.3713851869106293,0.6604610681533813,-0.6721006035804749,3.1641907691955566,0.08668158203363419,0.41041141748428345,-0.13146881759166718,0.4452400207519531,0.1785704344511032,-1.4828989505767822,1.7080683708190918,0.7842497229576111,0.28665590286254883
1760498995.842233,0.02,0.11138339340686798,0.19961123168468475,-0.027983684092760086,0.06380216032266617,0.025993529707193375,-0.9976239800453186,-0.5273358821868896,0.7478164434432983,-0.1127244234085083,-0.09691715985536575,0.0867840051651001,0.10738861560821533,0.10862286388874054,0.1062144935131073,-0.02360934019088745,0.07859476655721664,0.04926145076751709,0.01069498062133789,-0.08649091422557831,0.03265702724456787,0.0449138879776001,0.0,0.0,0.0,0.0,-0.08154287934303284,0.008242827840149403,-0.06039958819746971,0.09724151343107224,0.04828124865889549,-0.017667317762970924,0.10016810894012451,0.025337353348731995,0.04303857311606407,-0.09191234409809113,0.030116990208625793,-0.009732138365507126,-0.1893296092748642,0.3463309407234192,0.24825190007686615,-0.2097538262605667,-1.2694770097732544,0.18707069754600525,-0.19630278646945953,0.4739049971103668,0.6638519763946533,-0.6078636050224304,1.8924806118011475,0.2849137485027313,0.3849330246448517,-0.0031336629763245583,0.3327805995941162,0.13494910299777985,-1.123769998550415,1.5825109481811523,1.0967707633972168,-0.1847887486219406
1760498995.9053712,0.02,0.23781879246234894,0.037785034626722336,-0.05970356985926628,0.07129046320915222,0.007136005908250809,-0.9974300861358643,-0.5273358821868896,0.7478164434432983,-0.11110138893127441,-0.09132249653339386,0.08566141128540039,0.10326707363128662,0.1584230214357376,0.1296452283859253,-0.03929853439331055,0.12502028048038483,0.061042726039886475,0.007729649543762207,-0.0924658328294754,0.030191361904144287,0.06789594888687134,0.0,0.0,0.0,0.0,0.0512828528881073,-0.009388796985149384,0.022805748507380486,0.12489254772663116,0.06984326988458633,-0.0641690269112587,0.11501201242208481,0.03658343479037285,-0.04503191262483597,0.04162340611219406,0.037492599338293076,-0.034379374235868454,0.09575634449720383,0.2548062801361084,0.3189355432987213,0.11137701570987701,0.5830192565917969,0.259761244058609,-0.5723142623901367,0.2270437777042389,0.6516638398170471,-0.6867422461509705,-0.6657531261444092,0.562397837638855,0.02334527298808098,0.4774119555950165,0.2955344021320343,0.3715439438819885,-0.4170093834400177,1.0094258785247803,1.27426278591156,-0.5916619300842285
1760498995.9616778,0.02,0.03035562112927437,-0.08130499720573425,-0.06496276706457138,0.06798247247934341,-0.0003706701099872589,-0.9976864457130432,-0.5273358821868896,0.7478164434432983,-0.10831129550933838,-0.054024338722229004,0.07069683074951172,0.13605833053588867,0.18495486676692963,0.15098890662193298,-0.07174527645111084,0.1519196480512619,0.07432252168655396,-0.0264434814453125,-0.05174926295876503,0.029834866523742676,0.09754735231399536,0.0,0.0,0.0,0.0,0.08594799786806107,-0.03497077152132988,0.07344218343496323,0.032578062266111374,0.03608919307589531,-0.07700501382350922,0.036054570227861404,0.02384534478187561,-0.08490853011608124,0.09239865094423294,0.0002276822051499039,0.0755484476685524,0.18427473306655884,0.20746596157550812,0.32269221544265747,-0.0025297016836702824,2.685321092605591,0.21055319905281067,-0.5718507766723633,-0.33172956109046936,0.23501056432724,-0.8458988666534424,-1.8221522569656372,0.5358636379241943,-0.2502552568912506,0.26378270983695984,-0.2234174907207489,0.6117827296257019,0.44681161642074585,0.7475600838661194,1.3000361919403076,-0.06672511994838715
1760498996.015076,0.02,0.034465257078409195,-0.12799522280693054,-0.022617625072598457,0.05899277329444885,-0.004145696759223938,-0.9982498288154602,-0.5273358821868896,0.7478164434432983,-0.10674023628234863,-0.017048317939043045,0.05817079544067383,0.15833985805511475,0.18479934334754944,0.1416052281856537,-0.07840836048126221,0.1553143709897995,0.0775490403175354,-0.05837690830230713,-0.013307224027812481,0.02425307035446167,0.1198350191116333,0.0,0.0,0.0,0.0,0.09158401936292648,-0.027951393276453018,0.045963458716869354,-0.021411394700407982,-0.05181471258401871,0.0056612007319927216,-0.01302326936274767,-0.003208704059943557,-0.06853334605693817,0.08927039057016373,-0.016099095344543457,0.0450439490377903,0.18757571280002594,0.18326321244239807,0.27237293124198914,0.11394628137350082,3.5300633907318115,0.33692410588264465,-0.5016081929206848,-0.1886017620563507,0.06579706817865372,-0.6335071921348572,-2.196423053741455,0.4033670127391815,-0.391310453414917,0.21593917906284332,-0.2583584189414978,0.8362333178520203,0.8178603053092957,0.6392010450363159,1.1034352779388428,0.44156497716903687
1760498996.0717368,0.02,-0.010341055691242218,-0.13708579540252686,-0.02448381297290325,0.04850887879729271,-0.004625584930181503,-0.9988120198249817,-0.5273358821868896,0.7478164434432983,-0.10579192638397217,0.017777755856513977,0.048999011516571045,0.17781519889831543,0.16479381918907166,0.11240243911743164,-0.06424206495285034,0.13903522491455078,0.07080340385437012,-0.07963097095489502,0.021625468507409096,0.015319466590881348,0.14049667119979858,0.0,0.0,0.0,0.0,0.08358106762170792,-0.02451339177787304,0.05779610201716423,-0.06402242183685303,-0.07923663407564163,0.04039609059691429,-0.05730178579688072,-0.025344913825392723,-0.043031830340623856,0.0823998972773552,-0.0166533961892128,0.03918178007006645,0.11491069942712784,0.15182308852672577,0.20479679107666016,0.12888969480991364,3.4945499897003174,0.23454949259757996,-0.6636838912963867,-0.14629635214805603,0.23357746005058289,-0.3400667905807495,-2.238105535507202,0.25745880603790283,-0.4680838882923126,0.45419397950172424,-0.0999075323343277,1.020799994468689,0.5325732231140137,0.4666789472103119,0.8294565677642822,0.699611485004425
1760498996.125713,0.02,-0.022822655737400055,-0.15950974822044373,-0.03316943347454071,0.036606237292289734,-0.0026372596621513367,-0.9993262887001038,-0.5273358821868896,0.7478164434432983,-0.1045151948928833,0.04966866970062256,0.04329991340637207,0.19356966018676758,0.12996028363704681,0.07535910606384277,-0.04269832372665405,0.10675061494112015,0.056739628314971924,-0.0950080156326294,0.0544273741543293,0.002792954444885254,0.16252082586288452,0.0,0.0,0.0,0.0,0.07954996824264526,-0.007209069561213255,0.026112541556358337,-0.09409284591674805,-0.09507832676172256,0.05026271566748619,-0.09218361228704453,-0.04053586721420288,-0.03554629534482956,0.08048634231090546,-0.03405790403485298,0.05413547903299332,0.0966014713048935,0.09996598213911057,0.16169849038124084,0.163200244307518,3.4540350437164307,0.1844417154788971,-0.821281909942627,-0.1341804563999176,0.12879076600074768,-0.16546814143657684,-2.5704195499420166,0.13514697551727295,-0.5244904160499573,0.5138348340988159,-0.0959094911813736,1.1210365295410156,0.378421425819397,0.25189539790153503,0.6476597189903259,0.9540692567825317
1760498996.182213,0.02,-0.0404127836227417,-0.19439738988876343,-0.033208392560482025,0.02234026789665222,0.0007766205817461014,-0.9997501373291016,-0.5273358821868896,0.7478164434432983,-0.10313761234283447,0.0796460509300232,0.04463320970535278,0.19859588146209717,0.08478657901287079,0.03413635492324829,-0.022336304187774658,0.05993980914354324,0.03599190711975098,-0.10348570346832275,0.08588775992393494,-0.01300036907196045,0.18702441453933716,0.0,0.0,0.0,0.0,0.07497715204954147,0.00964970700442791,0.0014961579581722617,-0.11690493673086166,-0.10304871946573257,0.04091040417551994,-0.12795324623584747,-0.05614563450217247,-0.017978696152567863,0.07699710130691528,-0.03661651536822319,0.05061688646674156,0.05238933116197586,0.022153716534376144,0.11941733211278915,0.16644233465194702,3.3576738834381104,0.11409744620323181,-0.9156402349472046,-0.23021546006202698,0.006573691964149475,-0.03715088218450546,-2.9208858013153076,0.03297934681177139,-0.5087268948554993,0.45289263129234314,-0.1390729546546936,1.1367889642715454,0.12983906269073486,-0.06504622846841812,0.48324331641197205,0.909810483455658
1760498996.2330477,0.02,-0.09590087085962296,-0.23493073880672455,-0.027328267693519592,0.005031074862927198,0.00778968445956707,-0.9999570250511169,-0.5273358821868896,0.7478164434432983,-0.10198390483856201,0.10594313591718674,0.05252891778945923,0.19605112075805664,0.031924057751894,-0.005691707134246826,-0.012241661548614502,-0.0017898401711136103,0.008402109146118164,-0.09867680072784424,0.1137470081448555,-0.029074430465698242,0.20828884840011597,0.0,0.0,0.0,0.0,0.06402473896741867,0.0251324363052845,-0.01477899681776762,-0.13357378542423248,-0.094663605093956,0.009974936954677105,-0.16378264129161835,-0.07074316591024399,0.015750311315059662,0.06694062054157257,-0.03526218235492706,0.03858241066336632,-0.012620018795132637,-0.05932237580418587,0.09309641271829605,0.17263081669807434,2.937147855758667,0.09310707449913025,-0.9161527156829834,-0.2919675409793854,-0.06334102898836136,0.025472290813922882,-2.9387097358703613,-0.016263701021671295,-0.40779635310173035,0.38425585627555847,-0.3502417206764221,1.0919517278671265,-0.16197681427001953,-0.3742801249027252,0.38278499245643616,0.7871564030647278
1760498996.287467,0.02,-0.14770779013633728,-0.26082155108451843,-0.013887912966310978,-0.014770089648663998,0.01786951720714569,-0.9997312426567078,-0.5273358821868896,0.7478164434432983,-0.10126268863677979,0.12966778874397278,0.0662737488746643,0.1889028549194336,-0.02100389637053013,-0.03917276859283447,-0.01377171277999878,-0.07232430577278137,-0.02564680576324463,-0.07125711441040039,0.13887618482112885,-0.044837236404418945,0.22214537858963013,0.0,0.0,0.0,0.0,0.05742189288139343,0.038855280727148056,-0.020529214292764664,-0.11816781759262085,-0.08706950396299362,0.02103564143180847,-0.18074052035808563,-0.08153354376554489,0.07093650847673416,0.05827626213431358,-0.03624330833554268,0.022535517811775208,-0.08608148992061615,-0.05893854424357414,0.11224434524774551,0.21216540038585663,2.305022954940796,0.13964354991912842,-0.812511682510376,-0.24537482857704163,-0.09878594428300858,0.03675860911607742,-2.4766812324523926,0.002246461808681488,-0.18992498517036438,0.42112869024276733,-0.6781138777732849,1.0203548669815063,-0.3568849563598633,-0.577556848526001,0.45790091156959534,0.8010721206665039
1760498996.3495271,0.02,-0.15747910737991333,-0.23750177025794983,0.0032420572824776173,-0.03516910970211029,0.03265492990612984,-0.9988477230072021,-0.5273358821868896,0.7478164434432983,-0.10115611553192139,0.15012791752815247,0.08367884159088135,0.18018889427185059,-0.06323347985744476,-0.061061203479766846,-0.021833837032318115,-0.13872501254081726,-0.05271446704864502,-0.041409850120544434,0.15981003642082214,-0.06360220909118652,0.23819971084594727,0.0,0.0,0.0,0.0,0.058708515018224716,0.04975668340921402,-0.023415561765432358,-0.08564881980419159,-0.039733659476041794,-0.027766374871134758,-0.13066354393959045,-0.010901117697358131,-0.027109308168292046,0.05932839587330818,-0.05410857871174812,0.056726645678281784,-0.09140119701623917,-0.08318872004747391,0.24771788716316223,0.23279154300689697,1.535913348197937,0.14631792902946472,-0.6134226322174072,-0.23514550924301147,-0.09417908638715744,-0.062207840383052826,-1.3651392459869385,-0.12103649228811264,0.1541704684495926,0.3337853252887726,-0.8902875781059265,0.9537984132766724,-0.33961325883865356,-0.4243393838405609,0.6991236209869385,0.7752801179885864
1760498996.403716,0.02,-0.2169221192598343,-0.004606485366821289,0.04289449006319046,-0.04267070069909096,0.05002543702721596,-0.9978359937667847,-0.5273358821868896,0.7478164434432983,-0.10236728191375732,0.15642260015010834,0.10518297553062439,0.18216443061828613,-0.08414814621210098,-0.05928695201873779,-0.0386052131652832,-0.16654308140277863,-0.040141403675079346,-0.05958890914916992,0.15468694269657135,-0.07693511247634888,0.24376428127288818,0.0,0.0,0.0,0.0,-0.0012661786749958992,0.056904762983322144,0.022101616486907005,-0.029055966064333916,0.02719803713262081,-0.04009150341153145,-0.026089653372764587,0.05307764559984207,-0.05039289593696594,-0.047221217304468155,-0.02106568217277527,-0.01290547288954258,-0.060586728155612946,0.020808162167668343,0.3687828779220581,0.24728909134864807,-1.1513367891311646,-0.10829827189445496,0.1572204977273941,0.3661434054374695,-0.06627955287694931,-0.43815991282463074,1.722808837890625,-0.44613197445869446,0.6110144853591919,0.18791024386882782,-0.6640905141830444,0.8273630738258362,-0.4265851378440857,0.02185734733939171,1.233791708946228,0.4980553388595581
1760498996.4581838,0.02,-0.07673940062522888,0.20013800263404846,-0.008241040632128716,-0.03132938966155052,0.06032313406467438,-0.9976871013641357,-0.5273358821868896,0.7478164434432983,-0.10234940052032471,0.13513760268688202,0.11029481887817383,0.21304583549499512,-0.06715640425682068,-0.02821481227874756,-0.05000591278076172,-0.14556095004081726,-0.015273630619049072,-0.07952415943145752,0.1363818347454071,-0.08391600847244263,0.2622107267379761,0.0,0.0,0.0,0.0,-0.08514886349439621,-0.009627707302570343,0.08300270885229111,0.05993471294641495,0.08968637138605118,0.0007447190582752228,0.06817127764225006,0.04896092787384987,-0.01812429167330265,-0.050528984516859055,-0.0013353811809793115,0.026472095400094986,-0.1683666855096817,0.024380160495638847,0.2949184477329254,0.2592059373855591,-2.2583959102630615,-0.8509660959243774,0.7064236402511597,0.9779244661331177,0.19198977947235107,-0.8425374031066895,4.756748199462891,0.12731674313545227,0.5212897658348083,0.810755729675293,-0.23358523845672607,1.0398337841033936,-0.7655336856842041,0.008878554217517376,1.640917420387268,0.614037036895752
1760498996.5129101,0.02,0.08556846529245377,0.20830707252025604,-0.021044299006462097,-0.015650417655706406,0.055402498692274094,-0.99834144115448,-0.5273358821868896,0.7478164434432983,-0.10133850574493408,0.09776800125837326,0.10287660360336304,0.2212677001953125,-0.03334537148475647,-9.673833847045898e-05,-0.03577762842178345,-0.10826162248849869,-0.0012932419776916504,-0.07808244228363037,0.11717703938484192,-0.061678409576416016,0.2177695631980896,0.0,0.0,0.0,0.0,-0.10698826611042023,-0.02829684689640999,-0.0028269810136407614,0.08764147013425827,0.06508521735668182,0.04266231879591942,0.09836848825216293,0.025763167068362236,0.020158952102065086,-0.05350629240274429,0.04512549936771393,-0.08531935513019562,-0.2745422124862671,0.01456935703754425,0.2912905514240265,0.17664265632629395,-1.1057528257369995,-0.46253910660743713,0.5647655725479126,0.2503955364227295,0.20023179054260254,-0.9611623287200928,5.358293533325195,0.08781711012125015,0.30625393986701965,0.5744538307189941,-0.012887775897979736,0.7860353589057922,-1.1853582859039307,0.16785714030265808,1.341902732849121,0.8444069027900696
1760498996.577009,0.02,0.1091771274805069,0.21225164830684662,-0.024562830105423927,0.0006489604711532593,0.047454096376895905,-0.998873233795166,-0.5273358821868896,0.7478164434432983,-0.10006344318389893,0.05045616626739502,0.09225904941558838,0.2016974687576294,0.003337539965286851,0.025543570518493652,-0.02732837200164795,-0.06799493730068207,0.008051276206970215,-0.06420207023620605,0.08783669769763947,-0.04016834497451782,0.174452006816864,0.0,0.0,0.0,0.0,-0.12141045182943344,-0.029517998918890953,-0.06308993697166443,0.09404902905225754,0.06355784088373184,0.01883038692176342,0.10340907424688339,0.020304972305893898,0.045901160687208176,-0.08015968650579453,0.039281897246837616,-0.06973806023597717,-0.37498170137405396,0.11509378999471664,0.24244514107704163,0.12179672718048096,-0.8654567003250122,-0.12124738097190857,0.5330833196640015,0.1732235550880432,0.3968682885169983,-0.9432045817375183,5.381653308868408,0.1578681766986847,0.253217488527298,0.27427157759666443,0.08352392911911011,0.6325284242630005,-1.540689468383789,0.7049893736839294,1.0280390977859497,0.7842338681221008
1760498996.6275978,0.02,0.08935125917196274,0.21882060170173645,-0.01605619676411152,0.017119163647294044,0.040448226034641266,-0.9990350008010864,-0.5273358821868896,0.7478164434432983,-0.0989077091217041,0.001237161923199892,0.08319896459579468,0.17358005046844482,0.04004676640033722,0.051493167877197266,-0.029067814350128174,-0.02859538234770298,0.019116342067718506,-0.04793071746826172,0.04515283927321434,-0.01683706045150757,0.13044309616088867,0.0,0.0,0.0,0.0,-0.12247943133115768,-0.016636410728096962,-0.08307873457670212,0.09282203763723373,0.06479790061712265,-0.005259796977043152,0.09861724823713303,0.035612478852272034,0.03222665190696716,-0.11476454883813858,0.04483675956726074,-0.06669607013463974,-0.40360742807388306,0.20509620010852814,0.23060691356658936,0.03989251330494881,-0.9464690685272217,0.10016477108001709,0.4047584533691406,0.15780749917030334,0.5447303652763367,-0.8619163632392883,4.789490699768066,0.13372346758842468,0.27487337589263916,0.011885247193276882,0.2611408233642578,0.4591885209083557,-1.65378999710083,1.1713021993637085,0.8392788767814636,0.7400091290473938
1760498996.6795897,0.02,0.05095686763525009,0.24908949434757233,-0.0039812494069337845,0.03564772754907608,0.03583604097366333,-0.998721718788147,-0.5273358821868896,0.7478164434432983,-0.09832918643951416,-0.049694668501615524,0.08044236898422241,0.13957512378692627,0.07547273486852646,0.07759535312652588,-0.0363844633102417,0.007552098948508501,0.03271472454071045,-0.02789771556854248,-0.010453482158482075,0.010731935501098633,0.08635956048965454,0.0,0.0,0.0,0.0,-0.12024875730276108,-0.01019421499222517,-0.049956753849983215,0.09142163395881653,0.06612743437290192,-0.01988428831100464,0.08917951583862305,0.031126949936151505,0.06375927478075027,-0.14306242763996124,0.05673827603459358,-0.06471189111471176,-0.2724526822566986,0.2826269567012787,0.1967308521270752,-0.056390780955553055,-1.3616855144500732,0.1708652675151825,0.23728454113006592,0.23930013179779053,0.681311309337616,-0.768517017364502,3.878521203994751,0.08053488284349442,0.38017359375953674,-0.12169910222291946,0.4564365744590759,0.27336400747299194,-1.5320888757705688,1.5455437898635864,0.8258329629898071,0.5721908211708069
1760498996.735129,0.02,0.08244098722934723,0.24284818768501282,-0.014103775843977928,0.054730482399463654,0.029245033860206604,-0.9980728030204773,-0.5273358821868896,0.7478164434432983,-0.09771502017974854,-0.09268128871917725,0.08144277334213257,0.1162492036819458,0.11347837746143341,0.10263034701347351,-0.0443568229675293,0.04558630660176277,0.043939054012298584,-0.0029571056365966797,-0.06345652043819427,0.037487030029296875,0.049176931381225586,0.0,0.0,0.0,0.0,-0.10498017072677612,0.009227815084159374,-0.0648234486579895,0.09451185166835785,0.06051143631339073,-0.016362516209483147,0.09576040506362915,0.026594562456011772,0.06343892961740494,-0.12385072559118271,0.051421042531728745,-0.050548311322927475,-0.24010375142097473,0.30678293108940125,0.22334980964660645,-0.13997787237167358,-1.582525610923767,0.1747681200504303,-0.06445351243019104,0.3935646414756775,0.6664950251579285,-0.6645570993423462,2.681391477584839,0.18603280186653137,0.4166503846645355,-0.02452140301465988,0.4219047427177429,0.11207081377506256,-1.2350624799728394,1.5579053163528442,0.9676235318183899,0.19530732929706573
1760498996.7910268,0.02,0.20722675323486328,0.16228127479553223,-0.027621090412139893,0.07016372680664062,0.015449576079845428,-0.9974158406257629,-0.5273358821868896,0.7478164434432983,-0.0966787338256836,-0.11001737415790558,0.08565568923950195,0.10129523277282715,0.15957948565483093,0.12807098031044006,-0.05615842342376709,0.09208817034959793,0.05374687910079956,0.01225048303604126,-0.09104867279529572,0.04200953245162964,0.060003578662872314,0.0,0.0,0.0,0.0,-0.014179629273712635,0.011038596741855145,-0.021031994372606277,0.1223335787653923,0.0642380341887474,-0.03755182400345802,0.12462110817432404,0.027722686529159546,0.016957085579633713,-0.04235939681529999,0.001954450970515609,0.04087052866816521,-0.0405459962785244,0.2897486984729767,0.30123504996299744,-0.1306176632642746,-0.48831725120544434,0.2461141049861908,-0.417019248008728,0.27451667189598083,0.6759437918663025,-0.7051473259925842,0.8059914112091064,0.4489447772502899,0.29459255933761597,0.28060945868492126,0.27891480922698975,0.25495409965515137,-0.8019501566886902,1.2906543016433716,1.2814760208129883,-0.34870100021362305
1760498996.846358,0.02,0.12166081368923187,-0.030544709414243698,-0.07159842550754547,0.07264107465744019,-0.0005488935858011246,-0.9973580241203308,-0.5273358821868896,0.7478164434432983,-0.09454238414764404,-0.07520756870508194,0.07691621780395508,0.1279832124710083,0.20154255628585815,0.15705826878547668,-0.08498245477676392,0.136012002825737,0.06974637508392334,-0.016493916511535645,-0.07170192152261734,0.044224560260772705,0.07230401039123535,0.0,0.0,0.0,0.0,0.10429134219884872,-0.028769126161932945,0.08840720355510712,0.07235773652791977,0.0764160081744194,-0.09195547550916672,0.08170294016599655,0.03412045165896416,-0.08515094965696335,0.08360838145017624,0.0015787346055731177,0.049346309155225754,0.16149313747882843,0.18650223314762115,0.3304717540740967,0.03718916326761246,1.9143623113632202,0.31999507546424866,-0.6872042417526245,-0.21548649668693542,0.5571872591972351,-0.80329430103302,-1.4292025566101074,0.5516775846481323,-0.19878748059272766,0.30917373299598694,0.23449653387069702,0.4719545841217041,0.16651451587677002,0.673634946346283,1.3193490505218506,-0.10438965260982513
1760498996.8984182,0.02,0.033066608011722565,-0.11323617398738861,-0.03288516402244568,0.06608588248491287,-0.005762739107012749,-0.9977973103523254,-0.5273358821868896,0.7478164434432983,-0.09247410297393799,-0.03714848682284355,0.06465381383895874,0.1545332670211792,0.20632237195968628,0.1573636829853058,-0.09337961673736572,0.1512029767036438,0.07396852970123291,-0.043787598609924316,-0.03092583827674389,0.035524606704711914,0.10085010528564453,0.0,0.0,0.0,0.0,0.08972799777984619,-0.02934235706925392,0.052784617990255356,-0.020222079008817673,-0.03864269331097603,0.006703035440295935,0.010428236797451973,-0.0029233465902507305,-0.05577791854739189,0.09117937833070755,-0.02037317305803299,0.056364890187978745,0.19059476256370544,0.17287924885749817,0.3078460097312927,0.12940813601016998,3.1299235820770264,0.3331015408039093,-0.5130261182785034,-0.3019060492515564,-0.04222135990858078,-0.795932412147522,-1.931144118309021,0.43776458501815796,-0.2790742516517639,0.12676383554935455,-0.25535979866981506,0.6859559416770935,0.798690676689148,0.6058393120765686,1.2483125925064087,0.36307376623153687
1760498996.9563603,0.02,0.003557708114385605,-0.14420804381370544,-0.012466699816286564,0.05562537908554077,-0.00675511360168457,-0.9984288811683655,-0.5273358821868896,0.7478164434432983,-0.09158551692962646,-0.001884164521470666,0.05616343021392822,0.17110955715179443,0.18717263638973236,0.12887892127037048,-0.07732856273651123,0.14454124867916107,0.070445716381073,-0.06795990467071533,0.0042574116960167885,0.024055659770965576,0.12547171115875244,0.0,0.0,0.0,0.0,0.08795052021741867,-0.015826456248760223,0.032077889889478683,-0.05959656462073326,-0.08407766371965408,0.04569639638066292,-0.032651446759700775,-0.014692413620650768,-0.05679972842335701,0.08393190801143646,-0.029271846637129784,0.054584015160799026,0.15413451194763184,0.1435605138540268,0.23405568301677704,0.13612180948257446,3.3654732704162598,0.27511921525001526,-0.5833436250686646,-0.07942411303520203,0.19901540875434875,-0.47774630784988403,-2.0802741050720215,0.3651134669780731,-0.4179536700248718,0.3294643461704254,-0.1090879738330841,0.9114929437637329,0.5982236266136169,0.43167516589164734,0.9435904622077942,0.6718661189079285
1760498997.0149999,0.02,-0.03333237022161484,-0.14948789775371552,-0.026462262496352196,0.04422011971473694,-0.004213517531752586,-0.9990129470825195,-0.5273358821868896,0.7478164434432983,-0.09070241451263428,0.030337978154420853,0.04950469732284546,0.18949592113494873,0.15402072668075562,0.09208953380584717,-0.05441892147064209,0.12104150652885437,0.059942424297332764,-0.08508789539337158,0.036444686353206635,0.012713432312011719,0.14514213800430298,0.0,0.0,0.0,0.0,0.07955086976289749,-0.013954566791653633,0.04096461832523346,-0.08942471444606781,-0.09168938547372818,0.052813708782196045,-0.07033457607030869,-0.032764967530965805,-0.036649469286203384,0.07903683930635452,-0.03083685413002968,0.05275937542319298,0.10387644916772842,0.10682953894138336,0.17981116473674774,0.15865395963191986,3.2634875774383545,0.1830657422542572,-0.7437564134597778,0.01213839277625084,0.22226473689079285,-0.23608489334583282,-2.298726797103882,0.1756698191165924,-0.48589077591896057,0.5110587477684021,-0.011312901973724365,1.0792138576507568,0.44240009784698486,0.2831669747829437,0.7219507098197937,0.9564208984375
1760498997.0700321,0.02,-0.023493945598602295,-0.17520153522491455,-0.031945083290338516,0.03113856539130211,-0.001720520667731762,-0.9995136260986328,-0.5273358821868896,0.7478164434432983,-0.0894402265548706,0.06202427297830582,0.047703564167022705,0.19920718669891357,0.11268240213394165,0.05198240280151367,-0.03135275840759277,0.08508814126253128,0.04384195804595947,-0.09887754917144775,0.06909794360399246,-0.002941429615020752,0.1695820689201355,0.0,0.0,0.0,0.0,0.08029584586620331,0.0017830046126618981,0.012316920794546604,-0.10624172538518906,-0.09988870471715927,0.049289852380752563,-0.09990975260734558,-0.044348545372486115,-0.032771896570920944,0.0813206285238266,-0.039030421525239944,0.05605188012123108,0.08531636744737625,0.04962338134646416,0.1410793513059616,0.1799256056547165,3.421839952468872,0.14440003037452698,-0.865524411201477,-0.07927826046943665,0.07174316048622131,-0.09382041543722153,-2.76252818107605,0.08089125901460648,-0.5292319655418396,0.501634955406189,-0.06023016571998596,1.1409671306610107,0.3126413822174072,0.047984447330236435,0.5662341117858887,1.0394868850708008
1760498997.1253364,0.02,-0.05977586656808853,-0.21312104165554047,-0.02652565948665142,0.015526929870247841,0.003007662482559681,-0.9998749494552612,-0.5273358821868896,0.7478164434432983,-0.08826243877410889,0.09122353792190552,0.05226290225982666,0.19994592666625977,0.06312289834022522,0.011253952980041504,-0.01491624116897583,0.034001562744379044,0.021108150482177734,-0.10315585136413574,0.09953317046165466,-0.01983332633972168,0.1950574517250061,0.0,0.0,0.0,0.0,0.0727197602391243,0.016947394236922264,-0.008009401150047779,-0.12624560296535492,-0.09949663281440735,0.028235753998160362,-0.13880586624145508,-0.060446351766586304,-0.006756152957677841,0.07424276322126389,-0.037827249616384506,0.050452716648578644,0.037205684930086136,-0.026216814294457436,0.10088817030191422,0.1657966822385788,3.2731423377990723,0.09720870852470398,-0.9306221008300781,-0.25096312165260315,-0.03875347226858139,0.007823177613317966,-3.022435188293457,-0.01693042367696762,-0.4768425524234772,0.3888849914073944,-0.182622492313385,1.122413992881775,0.052693359553813934,-0.2477811872959137,0.41211897134780884,0.8599653244018555
1760498997.1775074,0.02,-0.11921478807926178,-0.2505020499229431,-0.019724663347005844,-0.003106373129412532,0.011615333147346973,-0.9999276995658875,-0.5273358821868896,0.7478164434432983,-0.08744418621063232,0.11672967672348022,0.0627794861793518,0.194496750831604,0.008726917207241058,-0.02503335475921631,-0.011121273040771484,-0.03084052912890911,-0.008242011070251465,-0.09075784683227539,0.12614218890666962,-0.03625410795211792,0.2149178385734558,0.0,0.0,0.0,0.0,0.06149535998702049,0.03099982813000679,-0.020736079663038254,-0.1353151500225067,-0.08342192322015762,-0.005876169074326754,-0.1698758751153946,-0.07334364950656891,0.03450757637619972,0.06388596445322037,-0.03616221994161606,0.03550191968679428,-0.028279706835746765,-0.09832063317298889,0.08844505995512009,0.18405285477638245,2.6917178630828857,0.09385746717453003,-0.8943061828613281,-0.2652396261692047,-0.08730042725801468,0.04491666704416275,-2.8268306255340576,-0.01863565295934677,-0.33419185876846313,0.3994654417037964,-0.47512486577033997,1.063927412033081,-0.23128646612167358,-0.5105320811271667,0.36476629972457886,0.7644190788269043
1760498997.232511,0.02,-0.1814081221818924,-0.27166736125946045,-0.011219019070267677,-0.023708460852503777,0.023815631866455078,-0.9994351863861084,-0.5273358821868896,0.7478164434432983,-0.08710575103759766,0.13948862254619598,0.07799237966537476,0.18614399433135986,-0.041399382054805756,-0.05446457862854004,-0.01325303316116333,-0.10191135853528976,-0.04356127977371216,-0.052477478981018066,0.14974583685398102,-0.05289560556411743,0.2283921241760254,0.0,0.0,0.0,0.0,0.05259343981742859,0.040737930685281754,-0.02482842281460762,-0.11702050268650055,-0.06571541726589203,-0.007244324777275324,-0.17994897067546844,-0.08278251439332962,0.0949590802192688,0.054379429668188095,-0.039656393229961395,0.024814745411276817,-0.08171594142913818,-0.14380882680416107,0.12609483301639557,0.2260383665561676,2.0732128620147705,0.1474425196647644,-0.7601232528686523,-0.2296377718448639,-0.12189558893442154,0.03232181817293167,-2.170666456222534,-0.013553284108638763,-0.06851685047149658,0.4099254608154297,-0.7938162684440613,1.002369999885559,-0.339508056640625,-0.6083431839942932,0.5055414438247681,0.8059598803520203
1760498997.2843378,0.02,-0.1797996610403061,-0.14485420286655426,0.0450846329331398,-0.03952343389391899,0.03855469077825546,-0.9984745383262634,-0.5273358821868896,0.7478164434432983,-0.08824193477630615,0.1614866554737091,0.0979108214378357,0.18078839778900146,-0.07509983330965042,-0.06570941209793091,-0.025367677211761475,-0.1503829061985016,-0.049165964126586914,-0.05030465126037598,0.1589377075433731,-0.06764876842498779,0.23301154375076294,0.0,0.0,0.0,0.0,0.05837708339095116,0.05585899576544762,-0.005593388807028532,-0.0663723573088646,-0.006667436100542545,-0.03657292574644089,-0.08750414848327637,0.019336465746164322,-0.02659851871430874,0.0028878478333353996,-0.035291969776153564,0.0021936853881925344,-0.06588353216648102,-0.06868826597929001,0.2970820367336273,0.1999000459909439,0.6569329500198364,0.13935428857803345,-0.34456703066825867,-0.19543775916099548,-0.05953148752450943,-0.1849454790353775,-0.263875812292099,-0.33989909291267395,0.4178125560283661,0.16458360850811005,-0.8091145157814026,0.8088279962539673,-0.24700802564620972,-0.2967643439769745,0.7669889330863953,0.6512545943260193
1760498997.33529,0.02,-0.17214904725551605,0.15145666897296906,0.0198997650295496,-0.035470277070999146,0.056277111172676086,-0.9977849125862122,-0.5273358821868896,0.7478164434432983,-0.08906424045562744,0.15024752914905548,0.11304634809494019,0.19431233406066895,-0.08183237910270691,-0.04853057861328125,-0.03969597816467285,-0.1505984365940094,-0.025180280208587646,-0.07151937484741211,0.14394018054008484,-0.08357495069503784,0.2642459273338318,0.0,0.0,0.0,0.0,-0.06061459705233574,0.027320940047502518,0.05261380225419998,0.02166624926030636,0.0639653131365776,-0.024246741086244583,0.05394057184457779,0.07294346392154694,-0.05732442066073418,-0.055409710854291916,-0.020690832287073135,0.05064481496810913,-0.1203441247344017,0.08833419531583786,0.27484580874443054,0.17386382818222046,-2.290602684020996,-0.5304727554321289,0.5517948865890503,0.8454341888427734,-0.013713531196117401,-0.559047520160675,3.800983190536499,-0.1486436128616333,0.6352604031562805,0.45354342460632324,-0.5225340723991394,0.990915834903717,-0.6178507804870605,0.2115860879421234,1.3839068412780762,0.29395627975463867
1760498997.3902097,0.02,-0.019027478992938995,0.21897819638252258,-0.012234331108629704,-0.02011881396174431,0.05854064226150513,-0.9980822801589966,-0.5273358821868896,0.7478164434432983,-0.08868932723999023,0.11749231070280075,0.10922697186470032,0.2142575979232788,-0.053597766906023026,-0.013850927352905273,-0.03838533163070679,-0.12023603171110153,-0.00651472806930542,-0.07528316974639893,0.12318729609251022,-0.06312114000320435,0.22297221422195435,0.0,0.0,0.0,0.0,-0.10788404941558838,-0.030881835147738457,0.04270577430725098,0.0687502846121788,0.08112243562936783,0.04445679858326912,0.07855533063411713,0.032806579023599625,0.01361155416816473,-0.060427844524383545,0.04450511559844017,-0.08166247606277466,-0.19113606214523315,-0.06988973915576935,0.29851439595222473,0.08906278014183044,-1.560827374458313,-0.7752393484115601,0.5779399871826172,0.5540775656700134,0.3390229046344757,-0.860985279083252,4.995224475860596,0.10344257205724716,0.432047575712204,0.7425439953804016,-0.02267739176750183,0.7926751971244812,-0.862684965133667,0.049713220447301865,1.5453319549560547,0.4577130079269409
1760498997.4481902,0.02,0.11123888194561005,0.21158185601234436,-0.023818526417016983,-0.003537338227033615,0.05263960734009743,-0.998607337474823,-0.5273358821868896,0.7478164434432983,-0.08751332759857178,0.07414022088050842,0.09593945741653442,0.21255385875701904,-0.018466057255864143,0.014031827449798584,-0.02721303701400757,-0.08160585165023804,0.0028789639472961426,-0.06350278854370117,0.10011043399572372,-0.043224036693573,0.18055349588394165,0.0,0.0,0.0,0.0,-0.10952477902173996,-0.03769149258732796,-0.01952008716762066,0.09477446228265762,0.06591153889894485,0.02640576660633087,0.10478251427412033,0.017603425309062004,0.04082702100276947,-0.05605204030871391,0.03299062326550484,-0.06721728295087814,-0.30400845408439636,0.07660993188619614,0.27632755041122437,0.031571563333272934,-0.9503403902053833,-0.23821121454238892,0.5564408302307129,0.2042180597782135,0.28004664182662964,-0.9415969848632812,5.327572345733643,0.143160879611969,0.27515098452568054,0.5200318098068237,-0.009970247745513916,0.6502962708473206,-1.3396646976470947,0.47985920310020447,1.2209641933441162,0.4478307366371155
1760498997.50213,0.02,0.09120658040046692,0.2108917534351349,-0.023789146915078163,0.012577265501022339,0.04524311050772667,-0.9988968372344971,-0.5273358821868896,0.7478164434432983,-0.08615386486053467,0.026076888665556908,0.08384597301483154,0.19219887256622314,0.01851290464401245,0.04056549072265625,-0.026554346084594727,-0.04132243990898132,0.01115649938583374,-0.0463029146194458,0.06736302375793457,-0.024119853973388672,0.13930290937423706,0.0,0.0,0.0,0.0,-0.12389788776636124,-0.026290422305464745,-0.06819093972444534,0.09264757484197617,0.06603886932134628,-0.00025569723220542073,0.1004292368888855,0.03180309757590294,0.023293083533644676,-0.09076563268899918,0.033782076090574265,-0.06155193969607353,-0.3807842433452606,0.17678654193878174,0.2691909968852997,-0.050770606845617294,-0.9541337490081787,-0.0058404505252838135,0.46347710490226746,0.21817418932914734,0.4588131308555603,-0.8905894160270691,5.016429424285889,0.16486310958862305,0.2896158695220947,0.14799222350120544,0.15882891416549683,0.4937588572502136,-1.5850752592086792,0.9910600781440735,0.9864799976348877,0.4276105761528015
1760498997.5619154,0.02,0.04884202778339386,0.24496769905090332,-0.004799357149749994,0.030567580834031105,0.04033119976520538,-0.9987186789512634,-0.5273358821868896,0.7478164434432983,-0.08543097972869873,-0.02679365687072277,0.07897347211837769,0.1563488245010376,0.05391685664653778,0.06725966930389404,-0.032416582107543945,-0.0045651402324438095,0.02406597137451172,-0.02891409397125244,0.019017532467842102,-0.0013934969902038574,0.09759432077407837,0.0,0.0,0.0,0.0,-0.13547155261039734,-0.005808401852846146,-0.10099174082279205,0.08667945116758347,0.06651925295591354,-0.012710022740066051,0.08892547339200974,0.029697323217988014,0.06001656875014305,-0.13034343719482422,0.04448280856013298,-0.057660359889268875,-0.39771413803100586,0.2520037591457367,0.21184313297271729,-0.15273557603359222,-1.2149738073349,0.1157703697681427,0.3046002686023712,0.26171445846557617,0.5996016263961792,-0.8194354176521301,4.175588130950928,0.10385211557149887,0.3832162916660309,-0.08238194137811661,0.3660988211631775,0.3261260986328125,-1.6065900325775146,1.3758528232574463,0.8839468955993652,0.26520204544067383
1760498997.6182377,0.02,0.04252809286117554,0.2479305863380432,-0.0068870121613144875,0.04988884925842285,0.03649556636810303,-0.9980877637863159,-0.5273358821868896,0.7478164434432983,-0.08497500419616699,-0.07546908408403397,0.0775001049041748,0.13087093830108643,0.08925601840019226,0.0933985710144043,-0.040862858295440674,0.0306403711438179,0.03556263446807861,-0.004113316535949707,-0.035988014191389084,0.02435201406478882,0.05844599008560181,0.0,0.0,0.0,0.0,-0.11694973707199097,0.0016611068276688457,-0.055537380278110504,0.08673378825187683,0.06453349441289902,-0.0183060672134161,0.08751048892736435,0.02713979221880436,0.06651535630226135,-0.1356186717748642,0.05151038244366646,-0.053487177938222885,-0.27308666706085205,0.2964073121547699,0.2189549207687378,-0.25274786353111267,-1.4832762479782104,0.19189396500587463,0.02532118558883667,0.28623005747795105,0.675032913684845,-0.6770915389060974,3.107534170150757,0.14076805114746094,0.4128868281841278,-0.10145466774702072,0.4588170051574707,0.1661812961101532,-1.3988845348358154,1.5748711824417114,0.9362810850143433,-0.08867458999156952
1760498997.6748495,0.02,0.12800607085227966,0.2017032504081726,-0.020802654325962067,0.0670415461063385,0.02778707817196846,-0.9973631501197815,-0.5273358821868896,0.7478164434432983,-0.08413064479827881,-0.10755529999732971,0.08099627494812012,0.11102139949798584,0.13015902042388916,0.11817756295204163,-0.05157673358917236,0.07151646167039871,0.045659422874450684,0.014938533306121826,-0.07704418897628784,0.039616525173187256,0.04390674829483032,0.0,0.0,0.0,0.0,-0.06485781818628311,0.01228929590433836,-0.04509267210960388,0.10554871708154678,0.05985214188694954,-0.02676873840391636,0.10705321282148361,0.026080254465341568,0.03648090735077858,-0.08481263369321823,0.024468742311000824,-0.0052742743864655495,-0.13475440442562103,0.31647390127182007,0.27935558557510376,-0.30636629462242126,-1.1770991086959839,0.18400362133979797,-0.27195948362350464,0.4249451458454132,0.6746483445167542,-0.6502443552017212,1.768344521522522,0.33352217078208923,0.3797990381717682,0.07946672290563583,0.3163103461265564,0.13480715453624725,-1.0068446397781372,1.46991765499115,1.2267096042633057,-0.5732810497283936
1760498997.7315893,0.02,0.2825390100479126,0.014551252126693726,-0.04428129643201828,0.07379911094903946,0.0075132884085178375,-0.9972448348999023,-0.5273358821868896,0.7478164434432983,-0.08272135257720947,-0.08974643051624298,0.07910287380218506,0.11988914012908936,0.18267720937728882,0.1462157964706421,-0.07311135530471802,0.11925159394741058,0.05733770132064819,0.008424639701843262,-0.08258479833602905,0.03364205360412598,0.0694236159324646,0.0,0.0,0.0,0.0,0.09665089100599289,-0.015844246372580528,0.06193087249994278,0.13783621788024902,0.0774712935090065,-0.07982354611158371,0.11378102749586105,0.02627595141530037,-0.0340907983481884,0.014133550226688385,-0.0230112187564373,0.07156604528427124,0.12093179672956467,0.2325167953968048,0.33387020230293274,-0.30660009384155273,0.9060599207878113,0.2827337682247162,-0.6489487886428833,0.08520200848579407,0.6511793732643127,-0.7326886057853699,-0.8325998783111572,0.5611158609390259,-0.004378173500299454,0.43577829003334045,0.2940147817134857,0.37045854330062866,-0.2182694673538208,0.863002598285675,1.3252251148223877,-0.9062893986701965
1760498997.7911634,0.02,-0.013179861009120941,-0.09854613244533539,-0.08158636093139648,0.06847399473190308,0.0015848129987716675,-0.9976516366004944,-0.5273358821868896,0.7478164434432983,-0.07962071895599365,-0.051991015672683716,0.06226849555969238,0.15278351306915283,0.20204761624336243,0.16470617055892944,-0.10011434555053711,0.14188295602798462,0.06913340091705322,-0.02827298641204834,-0.0488290973007679,0.029988110065460205,0.09377443790435791,0.0,0.0,0.0,0.0,0.07552735507488251,-0.041706569492816925,0.06837556511163712,0.004188172519207001,0.022896530106663704,-0.050545185804367065,0.026148024946451187,0.0269246157258749,-0.10416986048221588,0.08709224313497543,-0.004894388373941183,0.0728081539273262,0.22016488015651703,0.18132279813289642,0.34456145763397217,0.03650553897023201,2.4388108253479004,0.34892702102661133,-0.5058506727218628,-0.39755356311798096,0.17825141549110413,-0.8859241008758545,-1.7872319221496582,0.42669564485549927,-0.2623635232448578,0.29391375184059143,-0.04550674557685852,0.6407138109207153,0.9564526081085205,0.6337751150131226,1.2220090627670288,-0.08489412069320679
1760498997.8463233,0.02,0.055167242884635925,-0.13038280606269836,-0.018546445295214653,0.05901046097278595,-0.0024600233882665634,-0.9982543587684631,-0.5273358821868896,0.7478164434432983,-0.07789528369903564,-0.014751676470041275,0.050552189350128174,0.17396581172943115,0.1959388703107834,0.1469704806804657,-0.09347563982009888,0.14558938145637512,0.072628915309906,-0.06029081344604492,-0.00978753250092268,0.025605320930480957,0.11535823345184326,0.0,0.0,0.0,0.0,0.09663104265928268,-0.022273531183600426,0.043730657547712326,-0.02984846942126751,-0.07530263066291809,0.037576381117105484,-0.0072028860449790955,0.00021186110097914934,-0.06825298070907593,0.09293270111083984,-0.012187655083835125,0.04121619090437889,0.17204521596431732,0.16822606325149536,0.2896628677845001,0.10998759418725967,3.6250112056732178,0.42024579644203186,-0.3806723356246948,-0.10315296053886414,0.005774594843387604,-0.7167176008224487,-2.199981927871704,0.4588671028614044,-0.3589560091495514,0.16864939033985138,-0.2844611704349518,0.8096893429756165,0.7977608442306519,0.5118781328201294,1.1017060279846191,0.4038788676261902
