vaithak/rl_training/csvs/data_obs_m20_7_env_0.csv
timestamp,dt,base_ang_vel_0,base_ang_vel_1,base_ang_vel_2,projected_gravity_0,projected_gravity_1,projected_gravity_2,velocity_commands_0,velocity_commands_1,velocity_commands_2,joint_pos_0,joint_pos_1,joint_pos_2,joint_pos_3,joint_pos_4,joint_pos_5,joint_pos_6,joint_pos_7,joint_pos_8,joint_pos_9,joint_pos_10,joint_pos_11,joint_pos_12,joint_pos_13,joint_pos_14,joint_pos_15,joint_vel_0,joint_vel_1,joint_vel_2,joint_vel_3,joint_vel_4,joint_vel_5,joint_vel_6,joint_vel_7,joint_vel_8,joint_vel_9,joint_vel_10,joint_vel_11,joint_vel_12,joint_vel_13,joint_vel_14,joint_vel_15,actions_0,actions_1,actions_2,actions_3,actions_4,actions_5,actions_6,actions_7,actions_8,actions_9,actions_10,actions_11,actions_12,actions_13,actions_14,actions_15
1760498662.0954175,0.02,0.024013198912143707,0.031005049124360085,0.13467606902122498,-0.016370872035622597,-0.0010144682601094246,-0.9998654723167419,0.619583010673523,0.1681915521621704,0.6361945867538452,-0.09643100947141647,-0.004069030284881592,0.04090988636016846,0.1751738041639328,0.07657605409622192,-0.0876813530921936,-0.20928151905536652,-0.12727543711662292,0.06713616847991943,0.16378813982009888,-0.00238645076751709,-0.006227016448974609,0.0,0.0,0.0,0.0,0.01039657648652792,-0.02427440695464611,0.04748449847102165,0.0460323765873909,0.019415445625782013,-0.035866301506757736,0.011933271773159504,0.02372322417795658,-0.022018050774931908,0.01757829822599888,0.002654752228409052,0.010852823965251446,-0.2790406048297882,-0.322049081325531,-0.2367893010377884,-0.38539791107177734,-0.8011371493339539,0.01656767725944519,-0.0021922290325164795,0.7805978655815125,0.20144712924957275,-1.0643270015716553,0.6812319755554199,-0.054357416927814484,0.5862098336219788,-0.2878192365169525,-0.41247639060020447,0.11531376838684082,-1.1149216890335083,-1.3775535821914673,-0.7943944334983826,-1.8937922716140747
1760498662.1506827,0.02,0.04548949375748634,0.01987016201019287,0.11616043746471405,-0.014287457801401615,-0.003945690579712391,-0.999890148639679,0.619583010673523,0.1681915521621704,0.631170392036438,-0.08188362419605255,-0.015845775604248047,0.06939184665679932,0.19382241368293762,0.0841212272644043,-0.10381335020065308,-0.20235830545425415,-0.11922016739845276,0.05698370933532715,0.17197181284427643,-4.190206527709961e-05,-0.0001977682113647461,0.0,0.0,0.0,0.0,0.048413291573524475,-0.033588606864213943,0.07986702769994736,0.04611537978053093,0.02058505080640316,-0.046858180314302444,0.017468580976128578,0.014625928364694118,-0.01904054544866085,0.021559612825512886,0.00782272219657898,0.015062518417835236,-0.2679230570793152,-0.3007989823818207,-0.21485503017902374,-0.43447133898735046,-0.6491977572441101,0.05800318717956543,0.02218066155910492,0.6837670207023621,0.10187471657991409,-1.025431752204895,0.6121786832809448,-0.014003477990627289,0.6480586528778076,-0.46038681268692017,-0.4890788197517395,0.08978724479675293,-1.1014575958251953,-1.3869094848632812,-0.6805202960968018,-2.20133113861084
1760498662.2025387,0.02,0.01974165439605713,0.023660147562623024,0.11155002564191818,-0.01235891506075859,-0.00614137202501297,-0.9999047517776489,0.619583010673523,0.1681915521621704,0.6266268491744995,-0.06658954918384552,-0.025358915328979492,0.09642684459686279,0.20634178817272186,0.08631277084350586,-0.11398226022720337,-0.19734321534633636,-0.11643117666244507,0.05132633447647095,0.17797881364822388,0.004126012325286865,0.007455646991729736,0.0,0.0,0.0,0.0,0.035267870873212814,-0.020529014989733696,0.06461257487535477,0.02496895007789135,0.00013645771832671016,-0.03007274866104126,0.00804824847728014,0.001280725235119462,-0.005950655322521925,0.011008980683982372,0.011946666985750198,0.018402453511953354,-0.29719671607017517,-0.27270257472991943,-0.18500572443008423,-0.4722345471382141,-0.2752605378627777,0.09273308515548706,0.07264158129692078,0.5283949375152588,-0.0825921818614006,-0.9979921579360962,0.440805047750473,0.08655912429094315,0.7633978724479675,-0.6767888069152832,-0.5977503061294556,0.04832763969898224,-1.1108651161193848,-1.5244548320770264,-0.4844155013561249,-2.507401704788208
1760498662.2650273,0.02,-0.0003489414229989052,0.010754419490695,0.12405852973461151,-0.01111498475074768,-0.00650005554780364,-0.9999170899391174,0.619583010673523,0.1681915521621704,0.6219044923782349,-0.05500190705060959,-0.030279040336608887,0.11795282363891602,0.20919637382030487,0.07695889472961426,-0.11374938488006592,-0.19662468135356903,-0.11891469359397888,0.049716293811798096,0.17969447374343872,0.009864091873168945,0.012297213077545166,0.0,0.0,0.0,0.0,0.027130786329507828,-0.00892400648444891,0.04968055337667465,0.01216619461774826,-0.030413294211030006,-0.013755527324974537,-0.0029426494147628546,-0.011394978500902653,0.003411323530599475,0.0006324659334495664,0.01606817916035652,0.006476847920566797,-0.3268369138240814,-0.18291348218917847,-0.15905988216400146,-0.4825819134712219,0.2180713415145874,0.08397561311721802,0.10682833194732666,0.40671947598457336,-0.137467622756958,-0.920512318611145,0.32375839352607727,0.14185529947280884,0.7783498167991638,-0.8585705757141113,-0.7446562647819519,0.025012031197547913,-1.189103603363037,-1.711399793624878,-0.3371151387691498,-2.6943914890289307
1760498662.3231893,0.02,-0.0035473182797431946,-0.02042934112250805,0.12855666875839233,-0.011879252269864082,-0.006561703514307737,-0.999907910823822,0.619583010673523,0.1681915521621704,0.6169189214706421,-0.04536588117480278,-0.030870437622070312,0.1305539608001709,0.20404228568077087,0.056317806243896484,-0.10774362087249756,-0.19868218898773193,-0.1252312958240509,0.04968613386154175,0.1789557933807373,0.017560362815856934,0.010335445404052734,0.0,0.0,0.0,0.0,0.022212564945220947,0.0019828500226140022,0.023248866200447083,-0.013948877342045307,-0.056288521736860275,-0.0018048081547021866,-0.01047181710600853,-0.02066408284008503,0.0067600044421851635,-0.005069323815405369,0.02108033560216427,-0.012336546555161476,-0.3355162441730499,-0.16086940467357635,-0.1478191465139389,-0.48324069380760193,0.6822032928466797,0.07497149705886841,0.0734780952334404,0.22078269720077515,-0.08072095364332199,-0.7002915143966675,0.3087444603443146,0.14882639050483704,0.7281790375709534,-0.9796206951141357,-0.9514914751052856,-0.0013170242309570312,-1.250889778137207,-1.7182883024215698,-0.30362966656684875,-2.8259451389312744
1760498662.375584,0.02,0.026614364236593246,-0.04868241026997566,0.13131922483444214,-0.014959133230149746,-0.009106721729040146,-0.9998466372489929,0.619583010673523,0.1681915521621704,0.6118193864822388,-0.0348694883286953,-0.027596354484558105,0.13192784786224365,0.1913764625787735,0.024639129638671875,-0.09095543622970581,-0.20029860734939575,-0.1357157826423645,0.05174809694290161,0.17899960279464722,0.02674168348312378,-8.58306884765625e-06,0.0,0.0,0.0,0.0,0.0244599562138319,0.010892259888350964,-0.004855656996369362,-0.03427077457308769,-0.07928816229104996,0.019938811659812927,-0.010035778395831585,-0.03199266269803047,0.014490187168121338,-0.0031155261676758528,0.02343895472586155,-0.03208060562610626,-0.32412490248680115,-0.10329196602106094,-0.13237367570400238,-0.4595043361186981,1.0753012895584106,0.08134514093399048,0.0010478198528289795,0.11228767037391663,-0.06427677720785141,-0.4211849868297577,0.238672137260437,0.1545628309249878,0.7129860520362854,-1.0815101861953735,-1.1753735542297363,-0.03975224494934082,-1.183716893196106,-1.7158538103103638,-0.22833946347236633,-2.793910026550293
1760498662.4303746,0.02,0.04120919108390808,-0.0662856176495552,0.13367146253585815,-0.019767064601182938,-0.013446233235299587,-0.999714195728302,0.619583010673523,0.1681915521621704,0.6066359281539917,-0.023842915892601013,-0.02098304033279419,0.12355101108551025,0.17280460894107819,-0.010752558708190918,-0.06911534070968628,-0.20168428122997284,-0.14913594722747803,0.05723530054092407,0.17946265637874603,0.03594130277633667,-0.015230298042297363,0.0,0.0,0.0,0.0,0.024428246542811394,0.018521791324019432,-0.026821551844477654,-0.04571817070245743,-0.08106300234794617,0.025754038244485855,-0.010799825191497803,-0.038517750799655914,0.023951349779963493,-0.003584274323657155,0.02239183522760868,-0.04111507907509804,-0.3121046721935272,-0.06441941112279892,-0.14144645631313324,-0.4384985864162445,1.190722107887268,0.0574515163898468,-0.10607227683067322,0.11267063021659851,0.018044061958789825,-0.1462402492761612,0.10568892955780029,0.13163423538208008,0.7268486022949219,-1.1282756328582764,-1.379403829574585,-0.10739776492118835,-1.1674609184265137,-1.6430481672286987,-0.2488456666469574,-2.814892292022705
1760498662.4860017,0.02,0.03840145468711853,-0.06554201990365982,0.12922081351280212,-0.02507326938211918,-0.017809413373470306,-0.9995269775390625,0.619583010673523,0.1681915521621704,0.6015104055404663,-0.013743773102760315,-0.01231539249420166,0.11005783081054688,0.15303608775138855,-0.039646267890930176,-0.05086261034011841,-0.20387297868728638,-0.16290584206581116,0.06638598442077637,0.17906659841537476,0.04396986961364746,-0.030652284622192383,0.0,0.0,0.0,0.0,0.021313630044460297,0.02192060835659504,-0.03478832170367241,-0.043153416365385056,-0.05903070047497749,0.017547359690070152,-0.012768416665494442,-0.03791598230600357,0.03308481723070145,-0.005881938152015209,0.019335424527525902,-0.038763877004384995,-0.30477437376976013,-0.1542709320783615,-0.1778641641139984,-0.4202246367931366,0.9681257605552673,-0.002942413091659546,-0.17076490819454193,0.22029027342796326,0.14197784662246704,0.03989825397729874,0.03366115689277649,0.10833971947431564,0.7466313242912292,-1.0161621570587158,-1.508110523223877,-0.17359480261802673,-1.1895899772644043,-1.590598702430725,-0.38034823536872864,-2.7865488529205322
1760498662.5450475,0.02,0.04630464315414429,-0.04139145463705063,0.11454346030950546,-0.029138589277863503,-0.02250727266073227,-0.9993219375610352,0.619583010673523,0.1681915521621704,0.596748948097229,-0.003992376383394003,-0.004129648208618164,0.09835588932037354,0.14217068254947662,-0.05354982614517212,-0.04152727127075195,-0.20541957020759583,-0.17544037103652954,0.07866048812866211,0.17900735139846802,0.050472259521484375,-0.04381287097930908,0.0,0.0,0.0,0.0,0.020891163498163223,0.017763765528798103,-0.023327156901359558,-0.016297755762934685,-0.01612040586769581,0.0011115908855572343,-0.010143605060875416,-0.034439731389284134,0.04218551144003868,-0.003404047107324004,0.015855710953474045,-0.03177664801478386,-0.2989931106567383,-0.26408085227012634,-0.20892433822155,-0.38504406809806824,0.4925006031990051,-0.03932616114616394,-0.12780004739761353,0.47902050614356995,0.1845623254776001,0.008469321765005589,0.1415998637676239,0.13418978452682495,0.7726998329162598,-0.7733274698257446,-1.516728401184082,-0.20249472558498383,-1.150030493736267,-1.7725170850753784,-0.48291584849357605,-2.5445597171783447
1760498662.6001232,0.02,0.045748576521873474,-0.009297367185354233,0.09871573746204376,-0.030734334141016006,-0.02785259671509266,-0.9991394281387329,0.619583010673523,0.1681915521621704,0.5925155878067017,0.0059589482843875885,0.0009782910346984863,0.09493732452392578,0.1479143500328064,-0.048240721225738525,-0.04226493835449219,-0.2053048014640808,-0.18485566973686218,0.09235644340515137,0.18027429282665253,0.055499136447906494,-0.05495738983154297,0.0,0.0,0.0,0.0,0.01984197273850441,0.00791907124221325,0.0008430013549514115,0.01742463931441307,0.024828579276800156,-0.0061982725746929646,-0.007349102292209864,-0.02518203854560852,0.04280810058116913,-0.0014814612222835422,0.011713111773133278,-0.02714242972433567,-0.29567286372184753,-0.4847484529018402,-0.24640658497810364,-0.32930460572242737,-0.06763982772827148,-0.046644747257232666,-0.016747891902923584,0.8200368285179138,0.14678901433944702,-0.21334199607372284,0.37120321393013,0.225521057844162,0.8338345289230347,-0.5747799873352051,-1.4550366401672363,-0.2420157939195633,-1.0770245790481567,-2.0610251426696777,-0.5764539241790771,-2.2388875484466553
1760498662.6594203,0.02,0.00018526706844568253,-0.004239408764988184,0.09502485394477844,-0.031168121844530106,-0.02970791794359684,-0.9990725517272949,0.619583010673523,0.1681915521621704,0.5886408090591431,0.012411929666996002,0.0025314688682556152,0.09764337539672852,0.15369310975074768,-0.03211498260498047,-0.0409771203994751,-0.20780974626541138,-0.19101294875144958,0.10324901342391968,0.17874619364738464,0.0570831298828125,-0.06351745128631592,0.0,0.0,0.0,0.0,0.012162524275481701,0.0007533276220783591,0.010378578677773476,0.009770764037966728,0.04593486711382866,-0.0007550984737463295,-0.015195922926068306,-0.018240172415971756,0.03688801825046539,-0.008975914679467678,0.0014975358499214053,-0.021935682743787766,-0.2826361358165741,-0.6178754568099976,-0.2619592547416687,-0.2793477177619934,-0.539143443107605,-0.027075588703155518,0.10067528486251831,1.109602451324463,0.012757129967212677,-0.5578329563140869,0.6199126243591309,0.33665379881858826,0.9252074360847473,-0.49702188372612,-1.2378065586090088,-0.24153383076190948,-1.0421090126037598,-2.4884016513824463,-0.5869405269622803,-1.8909651041030884
1760498662.7161112,0.02,-0.026080062612891197,0.007294731214642525,0.10279077291488647,-0.030994873493909836,-0.028252555057406425,-0.9991201758384705,0.619583010673523,0.1681915521621704,0.5845905542373657,0.015220162458717823,0.0026283860206604004,0.10136997699737549,0.1570938676595688,-0.011779189109802246,-0.04413038492202759,-0.21307744085788727,-0.19696000218391418,0.11465328931808472,0.17424286901950836,0.05432283878326416,-0.06781017780303955,0.0,0.0,0.0,0.0,0.005208440590649843,-0.0016430065734311938,0.012072491459548473,0.0072123887948691845,0.05288909003138542,-0.01140783354640007,-0.019677411764860153,-0.02140692062675953,0.04527046158909798,-0.0136957336217165,-0.008789222687482834,-0.00999481976032257,-0.25813788175582886,-0.6170603036880493,-0.2497880458831787,-0.25913089513778687,-0.9973124265670776,-0.11193767189979553,0.1596316248178482,1.3972845077514648,-0.06175314635038376,-0.8404561281204224,0.7371444702148438,0.30880555510520935,1.0467052459716797,-0.46586477756500244,-1.0072343349456787,-0.21746470034122467,-1.0152841806411743,-2.603762149810791,-0.538594126701355,-1.6884737014770508
1760498662.7716546,0.02,-0.06537620723247528,0.021268635988235474,0.10830647498369217,-0.02981690689921379,-0.023524250835180283,-0.9992785453796387,0.619583010673523,0.1681915521621704,0.5802725553512573,0.009971193969249725,0.0034546256065368652,0.10226058959960938,0.1583613157272339,0.010140717029571533,-0.05278104543685913,-0.22094137966632843,-0.20247560739517212,0.12784677743911743,0.166805237531662,0.04797548055648804,-0.0659184455871582,0.0,0.0,0.0,0.0,-0.022910788655281067,0.003040532348677516,-0.002160507021471858,0.0022658919915556908,0.054422128945589066,-0.021665113046765327,-0.025816679000854492,-0.019374115392565727,0.049012281000614166,-0.020323926582932472,-0.016641011461615562,0.005825705360621214,-0.23622560501098633,-0.5828215479850769,-0.25771957635879517,-0.2623630464076996,-1.39116632938385,-0.21524211764335632,0.19202390313148499,1.542977213859558,-0.051177434623241425,-1.0791842937469482,0.7917898893356323,0.2890525162220001,1.1023627519607544,-0.31227391958236694,-0.7746384739875793,-0.1752081662416458,-1.0102826356887817,-2.513054132461548,-0.5825748443603516,-1.561510682106018
1760498662.825278,0.02,-0.07886864244937897,0.028322286903858185,0.11106881499290466,-0.027944207191467285,-0.016594164073467255,-0.9994717240333557,0.619583010673523,0.1681915521621704,0.5758222341537476,-0.006882132031023502,0.005139946937561035,0.09582972526550293,0.15876315534114838,0.03111279010772705,-0.06538724899291992,-0.22998790442943573,-0.20593437552452087,0.13916641473770142,0.15806271135807037,0.03943169116973877,-0.06004738807678223,0.0,0.0,0.0,0.0,-0.0510200634598732,0.003906768746674061,-0.02369048073887825,0.0032061946112662554,0.04985646530985832,-0.029041403904557228,-0.025445744395256042,-0.012594367377460003,0.04165983945131302,-0.02016359195113182,-0.02074548229575157,0.01283115055412054,-0.2503387928009033,-0.5284992456436157,-0.2720053791999817,-0.2603195607662201,-1.5318716764450073,-0.2647957503795624,0.19927111268043518,1.555067777633667,-0.017045550048351288,-1.270673155784607,0.7746602296829224,0.2405875027179718,1.0858081579208374,-0.1588601917028427,-0.5839999318122864,-0.11642961204051971,-0.9898762702941895,-2.3099586963653564,-0.6430257558822632,-1.3993570804595947
1760498662.8840227,0.02,-0.08116014301776886,0.031143486499786377,0.11285699903964996,-0.025716550648212433,-0.009100724011659622,-0.9996278285980225,0.619583010673523,0.1681915521621704,0.571306586265564,-0.03218656778335571,0.006458401679992676,0.0823965072631836,0.16027933359146118,0.0490720272064209,-0.0806570053100586,-0.23816311359405518,-0.20603516697883606,0.14519643783569336,0.15027646720409393,0.029881000518798828,-0.05240130424499512,0.0,0.0,0.0,0.0,-0.06770909577608109,0.0028419627342373133,-0.03887810930609703,0.006873717997223139,0.040131017565727234,-0.03268050029873848,-0.02192494086921215,-0.0034691952168941498,0.02645682357251644,-0.016236964613199234,-0.022668665274977684,0.01648024469614029,-0.25330615043640137,-0.4681190550327301,-0.2751935124397278,-0.2612030506134033,-1.4310001134872437,-0.21672186255455017,0.1761467456817627,1.4449656009674072,0.024564869701862335,-1.3817588090896606,0.7027240991592407,0.18770313262939453,1.0292778015136719,-0.13517151772975922,-0.4489348530769348,-0.044399142265319824,-1.0060750246047974,-2.0634708404541016,-0.6849067211151123,-1.2767150402069092
1760498662.9407,0.02,-0.06093146279454231,0.041261281818151474,0.11722718179225922,-0.02282840758562088,-0.002825007773935795,-0.999735414981842,0.619583010673523,0.1681915521621704,0.5667215585708618,-0.05878838896751404,0.006814539432525635,0.06809353828430176,0.16516947746276855,0.06365793943405151,-0.09557300806045532,-0.24257495999336243,-0.20152083039283752,0.14332729578018188,0.14557811617851257,0.02070939540863037,-0.0436551570892334,0.0,0.0,0.0,0.0,-0.06329142302274704,-0.0002623783948365599,-0.03299660608172417,0.01733006164431572,0.03322829678654671,-0.033105622977018356,-0.013407771475613117,0.011132605373859406,0.011742347851395607,-0.00771326944231987,-0.021075138822197914,0.01973589137196541,-0.2599630653858185,-0.41027089953422546,-0.31155627965927124,-0.27343446016311646,-1.2030352354049683,-0.13705018162727356,0.1374562382698059,1.278531551361084,0.06611055880784988,-1.3996012210845947,0.6294147968292236,0.14074081182479858,0.9486851096153259,-0.22595475614070892,-0.38065654039382935,0.01475881040096283,-1.0166212320327759,-1.845748782157898,-0.7027864456176758,-1.2829328775405884
1760498662.9996352,0.02,-0.04140506684780121,0.04133395105600357,0.11674652248620987,-0.019535236060619354,0.002051296178251505,-0.9998070597648621,0.619583010673523,0.1681915521621704,0.5620666742324829,-0.07903841882944107,0.004204809665679932,0.06183815002441406,0.17347118258476257,0.07559001445770264,-0.11070019006729126,-0.2420082539319992,-0.188380628824234,0.13095873594284058,0.14408819377422333,0.012694060802459717,-0.034043312072753906,0.0,0.0,0.0,0.0,-0.039367809891700745,-0.010324626229703426,-0.005101441405713558,0.025687173008918762,0.027691898867487907,-0.03655768185853958,0.0019422784680500627,0.034536976367235184,-0.0328499935567379,0.000718990690074861,-0.01776064746081829,0.021258927881717682,-0.26724979281425476,-0.3651594817638397,-0.24735014140605927,-0.29512229561805725,-0.9699786901473999,-0.05601587891578674,0.09970013797283173,1.0662808418273926,0.11856771260499954,-1.3552038669586182,0.5717251300811768,0.07556278258562088,0.8309045433998108,-0.32931581139564514,-0.3291999101638794,0.0553160160779953,-1.0116907358169556,-1.6304281949996948,-0.7897444367408752,-1.3718498945236206
1760498663.0518196,0.02,-0.006623696535825729,0.02385924756526947,0.10509402304887772,-0.016905371099710464,0.003883900586515665,-0.9998495578765869,0.619583010673523,0.1681915521621704,0.5576385259628296,-0.08460883796215057,-0.003372490406036377,0.06963646411895752,0.18566398322582245,0.0857008695602417,-0.12696528434753418,-0.23900747299194336,-0.17605751752853394,0.11823469400405884,0.14707809686660767,0.007491469383239746,-0.02614450454711914,0.0,0.0,0.0,0.0,0.0023736797738820314,-0.02408003620803356,0.034246280789375305,0.03332163020968437,0.02486795000731945,-0.043523967266082764,0.009316143579781055,0.0252377986907959,-0.024485236033797264,0.011263278312981129,-0.009115486405789852,0.014256191439926624,-0.26570600271224976,-0.33622440695762634,-0.1848367601633072,-0.3317093849182129,-0.7871935367584229,-0.009183138608932495,0.06857071816921234,0.8894478678703308,0.1299152374267578,-1.2930241823196411,0.4874923527240753,0.026987768709659576,0.7925933003425598,-0.41447004675865173,-0.3194851279258728,0.055687278509140015,-1.1026461124420166,-1.5324691534042358,-0.7628700733184814,-1.6247552633285522
1760498663.111124,0.02,0.03687404468655586,0.017264489084482193,0.08660732954740524,-0.015190177597105503,0.0018503842875361443,-0.9998829364776611,0.619583010673523,0.1681915521621704,0.5537935495376587,-0.0718376487493515,-0.014179468154907227,0.09367215633392334,0.20103992521762848,0.09373807907104492,-0.1427188515663147,-0.2327425628900528,-0.1680178940296173,0.1060134768486023,0.15460874140262604,0.006815493106842041,-0.020329952239990234,0.0,0.0,0.0,0.0,0.0382021926343441,-0.02726689912378788,0.0634196326136589,0.03918539732694626,0.019119253382086754,-0.03961270675063133,0.017512692138552666,0.013124811463057995,-0.02748922072350979,0.02066623419523239,0.002675022929906845,0.012650852091610432,-0.32735565304756165,-0.31911563873291016,-0.20764385163784027,-0.3930804431438446,-0.47540283203125,0.0614205002784729,0.09047368168830872,0.7336446046829224,-0.005194477736949921,-1.2305653095245361,0.4365980923175812,0.07359818369150162,0.8327422738075256,-0.6424506902694702,-0.405830979347229,0.04833926260471344,-1.141573429107666,-1.5543469190597534,-0.6224257349967957,-2.01910138130188
1760498663.1640093,0.02,0.020793940871953964,0.019317278638482094,0.09124913811683655,-0.013652035966515541,-0.00024470221251249313,-0.9999067783355713,0.619583010673523,0.1681915521621704,0.5502103567123413,-0.05812414363026619,-0.022429823875427246,0.11664319038391113,0.20989990234375,0.09114706516265869,-0.14720338582992554,-0.22761668264865875,-0.16669052839279175,0.09790897369384766,0.16087879240512848,0.009002447128295898,-0.014739513397216797,0.0,0.0,0.0,0.0,0.029252683743834496,-0.01790434494614601,0.05026659369468689,0.018014123663306236,-0.014982836320996284,-0.021363386884331703,0.009366677142679691,-0.002469429047778249,-0.012204648926854134,0.012105966918170452,0.007150935474783182,0.012965391390025616,-0.3683449923992157,-0.2304861843585968,-0.16812817752361298,-0.4319900572299957,0.09608972072601318,0.12821802496910095,0.11086820065975189,0.45465531945228577,-0.16783112287521362,-1.142684817314148,0.24976497888565063,0.19210800528526306,0.9553189277648926,-0.95954829454422,-0.520155131816864,0.003426000475883484,-1.1614480018615723,-1.6430168151855469,-0.3682483732700348,-2.283627510070801
1760498663.2251318,0.02,-0.008362376131117344,-0.002826831303536892,0.10728663951158524,-0.013124324381351471,-0.00043129781261086464,-0.99991375207901,0.619583010673523,0.1681915521621704,0.5462199449539185,-0.04761101305484772,-0.026731371879577637,0.13402318954467773,0.20769184827804565,0.07367146015167236,-0.14017564058303833,-0.22677946090698242,-0.17086577415466309,0.09412282705307007,0.16291311383247375,0.012787222862243652,-0.011840581893920898,0.0,0.0,0.0,0.0,0.02341165766119957,-0.0059074475429952145,0.036693014204502106,-0.007407777011394501,-0.05006132647395134,-0.0005355466273613274,-0.0029667250346392393,-0.01515297032892704,-0.0043967003002762794,0.0003186860412824899,0.010519907809793949,0.0027318194042891264,-0.33971863985061646,-0.20160451531410217,-0.13689947128295898,-0.4522763788700104,0.8112579584121704,0.14454451203346252,0.10313275456428528,0.20063850283622742,-0.17270326614379883,-0.955260157585144,0.11406120657920837,0.23485225439071655,0.9387474656105042,-1.238642692565918,-0.692478597164154,-0.015754595398902893,-1.2078323364257812,-1.7854793071746826,-0.2218749225139618,-2.5096583366394043
1760498663.2780924,0.02,0.014707334339618683,-0.046358801424503326,0.11520414799451828,-0.015471436083316803,-0.0019073998555541039,-0.999878466129303,0.619583010673523,0.1681915521621704,0.5418382883071899,-0.03697923570871353,-0.025828540325164795,0.13917779922485352,0.1946256011724472,0.04103213548660278,-0.1214638352394104,-0.22690057754516602,-0.17989838123321533,0.09213709831237793,0.16435088217258453,0.018505990505218506,-0.01659679412841797,0.0,0.0,0.0,0.0,0.02532806806266308,0.006591410376131535,0.0008538084221072495,-0.039580341428518295,-0.08440642803907394,0.02073318138718605,-0.004119351971894503,-0.027211938053369522,-0.0011418674839660525,0.0005675751599483192,0.015446958132088184,-0.019176645204424858,-0.3313639760017395,-0.06858870387077332,-0.1187228187918663,-0.4521258771419525,1.555454134941101,0.16213497519493103,-0.005458444356918335,-0.040155086666345596,-0.14091014862060547,-0.6043953895568848,0.030082866549491882,0.22996923327445984,0.8513880968093872,-1.4774479866027832,-0.9310365319252014,-0.026457175612449646,-1.1398507356643677,-1.8815101385116577,-0.11942847818136215,-2.624166488647461
1760498663.3359458,0.02,0.037125371396541595,-0.08804581314325333,0.12468958646059036,-0.021198803558945656,-0.005737731233239174,-0.9997588396072388,0.619583010673523,0.1681915521621704,0.537150502204895,-0.02499668300151825,-0.019583284854888916,0.1294713020324707,0.16893228888511658,-0.0027181506156921387,-0.08940881490707397,-0.22662043571472168,-0.19218894839286804,0.09187918901443481,0.16664178669452667,0.02542930841445923,-0.02880537509918213,0.0,0.0,0.0,0.0,0.027651697397232056,0.020088540390133858,-0.03640828654170036,-0.06847258657217026,-0.10354959219694138,0.04453559219837189,-0.004379889462143183,-0.03397039696574211,0.003046320052817464,0.0012593526626005769,0.01705123484134674,-0.03556215018033981,-0.3187069892883301,0.12783575057983398,-0.127006396651268,-0.4471397399902344,2.023843288421631,0.13225698471069336,-0.17876572906970978,-0.19183409214019775,-0.04102497547864914,-0.1551862508058548,-0.15557140111923218,0.13930025696754456,0.8125520348548889,-1.7052254676818848,-1.2326323986053467,-0.09423847496509552,-1.1576707363128662,-1.616237759590149,-0.15782788395881653,-2.77140736579895
1760498663.3868577,0.02,0.02176310122013092,-0.10319630801677704,0.12644442915916443,-0.028905365616083145,-0.008890461176633835,-0.9995425939559937,0.619583010673523,0.1681915521621704,0.532305121421814,-0.014375820755958557,-0.009334087371826172,0.11001372337341309,0.13350805640220642,-0.043552279472351074,-0.056273698806762695,-0.22824907302856445,-0.20399221777915955,0.0933462381362915,0.16722998023033142,0.03161412477493286,-0.0423508882522583,0.0,0.0,0.0,0.0,0.022887717932462692,0.027984483167529106,-0.05444386601448059,-0.08354203402996063,-0.08592461049556732,0.03862428292632103,-0.009624386206269264,-0.030516624450683594,0.0072427066043019295,-0.004052476026117802,0.014278575778007507,-0.03465886041522026,-0.31374287605285645,0.21871428191661835,-0.16966550052165985,-0.4418407082557678,1.677138328552246,0.00564005970954895,-0.29108917713165283,-0.1185961663722992,0.1660977602005005,0.22497062385082245,-0.24889163672924042,0.03705407679080963,0.7956271767616272,-1.6033259630203247,-1.5071744918823242,-0.18058837950229645,-1.2668941020965576,-1.255501389503479,-0.3732156455516815,-2.8790881633758545
1760498663.445648,0.02,0.009164631366729736,-0.08130504190921783,0.11360735446214676,-0.035962071269750595,-0.010695974342525005,-0.9992958903312683,0.619583010673523,0.1681915521621704,0.5276926755905151,-0.005480334162712097,0.001352071762084961,0.09003806114196777,0.1047600731253624,-0.0661700963973999,-0.03977048397064209,-0.23100191354751587,-0.21206369996070862,0.09698283672332764,0.16646626591682434,0.035821616649627686,-0.05169820785522461,0.0,0.0,0.0,0.0,0.018953904509544373,0.02492610178887844,-0.04624665528535843,-0.05434427410364151,-0.03450750187039375,0.0002115874522132799,-0.010041853412985802,-0.019561516121029854,0.01296546496450901,-0.005604721140116453,0.009434848092496395,-0.020912926644086838,-0.30298754572868347,-0.039373792707920074,-0.23215603828430176,-0.42183834314346313,0.8243489861488342,-0.12687233090400696,-0.2738686203956604,0.1256592571735382,0.3857395648956299,0.2883773446083069,-0.18021532893180847,-0.0424327552318573,0.787800133228302,-1.119892954826355,-1.622302532196045,-0.23344136774539948,-1.2837603092193604,-1.1816767454147339,-0.6719478368759155,-2.7750797271728516
1760498663.498086,0.02,0.05821049213409424,-0.02354571595788002,0.09270850569009781,-0.03947923332452774,-0.015471139922738075,-0.9991006255149841,0.619583010673523,0.1681915521621704,0.5236316919326782,0.006138041149824858,0.008387386798858643,0.07947123050689697,0.1039247065782547,-0.06315994262695312,-0.042542219161987305,-0.22923581302165985,-0.21530893445014954,0.10489118099212646,0.16962279379367828,0.03863811492919922,-0.05687665939331055,0.0,0.0,0.0,0.0,0.0252987090498209,0.010806952603161335,-0.015737373381853104,0.023812254890799522,0.031639885157346725,-0.029218995943665504,0.002825756324455142,-0.005851741414517164,0.020731313154101372,0.007491245400160551,0.00735885975882411,-0.01050872914493084,-0.3426555097103119,-0.42519471049308777,-0.29373592138290405,-0.36600354313850403,-0.05786621943116188,-0.15611034631729126,-0.12243804335594177,0.5933608412742615,0.4060763716697693,0.01003993395715952,0.09310266375541687,0.03345920890569687,0.8304002285003662,-0.6226263046264648,-1.5012085437774658,-0.240512415766716,-1.1264452934265137,-1.479405164718628,-0.9085642695426941,-2.3530423641204834
1760498663.5615687,0.02,0.008559826761484146,-0.011660563759505749,0.0831383690237999,-0.040540099143981934,-0.018425852060317993,-0.9990079998970032,0.619583010673523,0.1681915521621704,0.5201617479324341,0.01586020737886429,0.008953213691711426,0.08028233051300049,0.11286478489637375,-0.044736504554748535,-0.046349525451660156,-0.22788792848587036,-0.2128368616104126,0.10982918739318848,0.17212796211242676,0.03845912218093872,-0.06003069877624512,0.0,0.0,0.0,0.0,0.019014326855540276,-0.0028620304074138403,0.009119941852986813,0.01649707369506359,0.0502655915915966,-0.010166225023567677,-0.0048047988675534725,0.009519829414784908,0.005347232799977064,0.00035309334634803236,-0.003400029381737113,-0.008944550529122353,-0.2654968798160553,-0.5976299047470093,-0.32385000586509705,-0.2887192666530609,-0.6888490915298462,-0.09295746684074402,0.056894317269325256,0.8908106684684753,0.14402735233306885,-0.4879102408885956,0.4064522087574005,0.26747146248817444,0.8972070217132568,-0.29143890738487244,-1.1183454990386963,-0.22657226026058197,-1.0068479776382446,-2.23687744140625,-0.9910344481468201,-1.755583643913269
1760498663.6157088,0.02,-0.010167623870074749,0.0007012784481048584,0.08914831280708313,-0.04098240286111832,-0.01809682324528694,-0.9989959597587585,0.619583010673523,0.1681915521621704,0.5166207551956177,0.01976063661277294,0.007689297199249268,0.08229148387908936,0.11922919005155563,-0.022560477256774902,-0.0518682599067688,-0.2294132262468338,-0.2092849612236023,0.11365324258804321,0.1717032790184021,0.03366696834564209,-0.06148111820220947,0.0,0.0,0.0,0.0,0.0007981068338267505,-0.002165836514905095,0.001631729188375175,0.014433315955102444,0.05676758289337158,-0.013633464463055134,-0.0058749462477862835,0.006561613176018,0.014526168815791607,-0.0034191333688795567,-0.014424589462578297,-0.002900393446907401,-0.2156311571598053,-0.6165518164634705,-0.312546044588089,-0.24067671597003937,-1.130369782447815,-0.16124936938285828,0.10790295898914337,1.217373013496399,0.043985433876514435,-0.8465254306793213,0.5210466384887695,0.23667865991592407,1.0254918336868286,-0.2748821973800659,-0.8077763319015503,-0.19836477935314178,-0.9159345626831055,-2.483163595199585,-0.9142985939979553,-1.3989160060882568
1760498663.671504,0.02,-0.05609884858131409,0.02541406825184822,0.10436687618494034,-0.03978264331817627,-0.013766241259872913,-0.9991135001182556,0.619583010673523,0.1681915521621704,0.512649416923523,0.00926969200372696,0.008453905582427979,0.07729005813598633,0.12252312153577805,0.0006529688835144043,-0.06044209003448486,-0.23480118811130524,-0.2059241533279419,0.12077569961547852,0.16698940098285675,0.024620890617370605,-0.05739116668701172,0.0,0.0,0.0,0.0,-0.03679417446255684,0.0010964893735945225,-0.014732140116393566,0.008223419077694416,0.056730855256319046,-0.0189052764326334,-0.014991394244134426,0.005977615248411894,0.025537846609950066,-0.013529968447983265,-0.02453909069299698,0.012300227768719196,-0.23352602124214172,-0.5859484076499939,-0.3138293921947479,-0.2245894968509674,-1.4094048738479614,-0.258615642786026,0.12498162686824799,1.32399582862854,0.01559341698884964,-1.107819676399231,0.514931321144104,0.20437747240066528,1.095220685005188,-0.17124409973621368,-0.5591992139816284,-0.146132692694664,-0.9198288917541504,-2.4504494667053223,-0.9140121340751648,-1.1936324834823608
1760498663.7245338,0.02,-0.07397262752056122,0.03358457237482071,0.11061348021030426,-0.03753572702407837,-0.006902806460857391,-0.9992714524269104,0.619583010673523,0.1681915521621704,0.5082887411117554,-0.012552120722830296,0.008427262306213379,0.06732821464538574,0.12469058483839035,0.02264338731765747,-0.07229262590408325,-0.24215857684612274,-0.20180419087409973,0.12765580415725708,0.16010931134223938,0.012922346591949463,-0.04963254928588867,0.0,0.0,0.0,0.0,-0.060864370316267014,-0.0006374868680723011,-0.03047908842563629,0.008264646865427494,0.05240469053387642,-0.026351559907197952,-0.01678902469575405,0.00892093125730753,0.021239591762423515,-0.015171907842159271,-0.028881285339593887,0.017992418259382248,-0.24964182078838348,-0.5318047404289246,-0.3066348433494568,-0.21555523574352264,-1.4046518802642822,-0.2639775276184082,0.09913982450962067,1.2480345964431763,0.061166174709796906,-1.2356066703796387,0.4928382933139801,0.13993364572525024,1.0231162309646606,-0.06259090453386307,-0.3858805298805237,-0.06383897364139557,-0.993363618850708,-2.2286834716796875,-0.9398745894432068,-1.014255404472351
1760498663.7857554,0.02,-0.055541325360536575,0.03907361626625061,0.11026042699813843,-0.03467730060219765,-0.00092308409512043,-0.9993981122970581,0.619583010673523,0.1681915521621704,0.5038772821426392,-0.03853248432278633,0.007705748081207275,0.05388295650482178,0.12932252883911133,0.041045427322387695,-0.08360737562179565,-0.24729672074317932,-0.19522693753242493,0.1299169659614563,0.15543977916240692,0.0013609528541564941,-0.041311025619506836,0.0,0.0,0.0,0.0,-0.06468521058559418,-0.002496829954907298,-0.034809410572052,0.016230499371886253,0.041817523539066315,-0.02323284186422825,-0.011762191541492939,0.016989286988973618,0.004163701087236404,-0.007385051343590021,-0.026755589991807938,0.017707062885165215,-0.2638693153858185,-0.47496435046195984,-0.29741692543029785,-0.21905627846717834,-1.2307480573654175,-0.18603703379631042,0.06351131200790405,1.1092071533203125,0.07705701142549515,-1.2584950923919678,0.4829427897930145,0.10055490583181381,0.9213584065437317,-0.07095996290445328,-0.31080862879753113,0.012587860226631165,-1.054426908493042,-2.0006070137023926,-0.9508450627326965,-0.9724599719047546
1760498663.839021,0.02,-0.02632804587483406,0.04437589645385742,0.1091771051287651,-0.03122730553150177,0.002559354528784752,-0.9995090365409851,0.619583010673523,0.1681915521621704,0.4994875192642212,-0.060942742973566055,0.005694329738616943,0.04366159439086914,0.13831470906734467,0.05505579710006714,-0.09264743328094482,-0.247799351811409,-0.18458402156829834,0.12598180770874023,0.15496137738227844,-0.008414685726165771,-0.03313255310058594,0.0,0.0,0.0,0.0,-0.0494883768260479,-0.007168350275605917,-0.019325824454426765,0.026898160576820374,0.031664054840803146,-0.019660193473100662,0.0032566748559474945,0.027249300852417946,-0.004977560602128506,0.002830121899023652,-0.02174448035657406,0.01765918731689453,-0.28128501772880554,-0.4217706620693207,-0.21789322793483734,-0.23938198387622833,-1.0287367105484009,-0.09682214260101318,0.03139437735080719,0.9676082730293274,0.09646094590425491,-1.2309447526931763,0.4878521263599396,0.0754544660449028,0.8379948139190674,-0.17277126014232635,-0.3038646876811981,0.05977417528629303,-1.1090835332870483,-1.800667643547058,-0.937531054019928,-1.0845249891281128
1760498663.8919413,0.02,-0.0020913630723953247,0.03775089234113693,0.1044469028711319,-0.02783256769180298,0.003712785430252552,-0.9996057152748108,0.619583010673523,0.1681915521621704,0.4952138662338257,-0.07412982732057571,0.0007734894752502441,0.04318225383758545,0.15097051858901978,0.06596183776855469,-0.10074621438980103,-0.2446480691432953,-0.17052245140075684,0.11575049161911011,0.1584552377462387,-0.015179038047790527,-0.025571227073669434,0.0,0.0,0.0,0.0,-0.022318115457892418,-0.016239894554018974,0.00988829042762518,0.03439236804842949,0.02581801824271679,-0.02134937420487404,0.0054192254319787025,0.02872304990887642,-0.013662183657288551,0.011708488687872887,-0.013466273434460163,0.015325509011745453,-0.31265270709991455,-0.38628271222114563,-0.31951212882995605,-0.28243598341941833,-0.911699116230011,-0.04684150218963623,0.009141609072685242,0.8724268078804016,0.1015436127781868,-1.196311354637146,0.5034382343292236,0.04513772577047348,0.7806508541107178,-0.28915202617645264,-0.3194957375526428,0.0753680020570755,-1.240761160850525,-1.6901313066482544,-0.9018880724906921,-1.3642419576644897
1760498663.947756,0.02,0.02549615129828453,0.03208636865019798,0.0981602594256401,-0.024971401318907738,0.002674531191587448,-0.9996845722198486,0.619583010673523,0.1681915521621704,0.4911845922470093,-0.07467721402645111,-0.007472395896911621,0.05547022819519043,0.1663624346256256,0.07465064525604248,-0.11043733358383179,-0.23894834518432617,-0.15829357504844666,0.10367780923843384,0.16525283455848694,-0.01914846897125244,-0.01850581169128418,0.0,0.0,0.0,0.0,0.01145264133810997,-0.022759409621357918,0.04350058361887932,0.04040584713220596,0.02100433222949505,-0.026378070935606956,0.014585155062377453,0.02631855010986328,-0.02252759225666523,0.019301069900393486,-0.007681218441575766,0.016422003507614136,-0.2783992886543274,-0.34321659803390503,-0.27710917592048645,-0.3235907554626465,-0.8777616024017334,-0.02053046226501465,0.026274248957633972,0.8059139251708984,0.12258774787187576,-1.1534926891326904,0.5479631423950195,0.03284316509962082,0.7875977158546448,-0.3827713429927826,-0.3381143808364868,0.07466486096382141,-1.2060236930847168,-1.5146148204803467,-0.8546756505966187,-1.5573011636734009
1760498664.005961,0.02,0.040166258811950684,0.02704612910747528,0.09260736405849457,-0.02240380458533764,6.399396806955338e-05,-0.9997490048408508,0.619583010673523,0.1681915521621704,0.4873465299606323,-0.0631810650229454,-0.01645892858505249,0.07929491996765137,0.18276101350784302,0.08254653215408325,-0.12176758050918579,-0.23168277740478516,-0.14849036931991577,0.09343820810317993,0.17348656058311462,-0.02073824405670166,-0.010730743408203125,0.0,0.0,0.0,0.0,0.04019796848297119,-0.025788230821490288,0.06834602355957031,0.04080278426408768,0.020608674734830856,-0.03311172127723694,0.017455844208598137,0.01929243467748165,-0.017467057332396507,0.02103172056376934,-0.0021694574970752,0.018806425854563713,-0.34761282801628113,-0.3218565881252289,-0.2580740749835968,-0.36951449513435364,-0.9228241443634033,-0.04607835412025452,0.054532647132873535,0.8030751943588257,0.08720488101243973,-1.1498013734817505,0.5588408708572388,0.0574382022023201,0.8539249300956726,-0.4482431709766388,-0.3667507767677307,0.05165405571460724,-1.2137190103530884,-1.4972835779190063,-0.7631032466888428,-1.8279608488082886
1760498664.0586913,0.02,0.02060369774699211,0.03354579955339432,0.08882755041122437,-0.019690215587615967,-0.0021013272926211357,-0.999803900718689,0.619583010673523,0.1681915521621704,0.4837123155593872,-0.04908209294080734,-0.023791074752807617,0.10527479648590088,0.19696064293384552,0.09003949165344238,-0.13258039951324463,-0.2259235680103302,-0.14285728335380554,0.08816635608673096,0.17986039817333221,-0.020142555236816406,-0.0017168521881103516,0.0,0.0,0.0,0.0,0.03409643843770027,-0.01680598594248295,0.06955103576183319,0.031804174184799194,0.018231019377708435,-0.02759115770459175,0.010345685295760632,0.00874898862093687,-0.004371100105345249,0.012360887601971626,0.003030483378097415,0.022316571325063705,-0.313330739736557,-0.3249085247516632,-0.23702219128608704,-0.4128132462501526,-1.0082297325134277,-0.08880624175071716,0.12223699688911438,0.8376606106758118,0.0333329513669014,-1.1749640703201294,0.5613120794296265,0.09966147691011429,0.9507989883422852,-0.4616641700267792,-0.36771225929260254,0.03180806338787079,-1.3275847434997559,-1.5566937923431396,-0.6422381401062012,-2.037846803665161
1760498664.1180706,0.02,0.0028532221913337708,0.034031860530376434,0.09036248922348022,-0.016765158623456955,-0.0027456367388367653,-0.9998556971549988,0.619583010673523,0.1681915521621704,0.48008573055267334,-0.038389477878808975,-0.028090596199035645,0.1284855604171753,0.20768941938877106,0.09670442342758179,-0.14128386974334717,-0.22348444163799286,-0.14089113473892212,0.08779269456863403,0.18165314197540283,-0.01693350076675415,0.004508793354034424,0.0,0.0,0.0,0.0,0.026127878576517105,-0.011472511105239391,0.062354087829589844,0.02345852367579937,0.015844447538256645,-0.021862797439098358,0.0018091369420289993,-0.00015727561549283564,0.007129836827516556,-0.00036913968506269157,0.010440298356115818,0.00914627406746149,-0.3209662139415741,-0.3358641564846039,-0.22802649438381195,-0.4499950110912323,-1.1195751428604126,-0.19384104013442993,0.20187194645404816,0.9424602389335632,0.005122251808643341,-1.268104910850525,0.631274938583374,0.12904733419418335,0.9969907402992249,-0.3871926963329315,-0.3640187978744507,0.02416957914829254,-1.3800936937332153,-1.6621342897415161,-0.5899781584739685,-2.1877617835998535
1760498664.1739397,0.02,-0.005410056561231613,0.025582237169146538,0.08944693952798843,-0.014303721487522125,-0.002544424496591091,-0.9998944401741028,0.619583010673523,0.1681915521621704,0.47645676136016846,-0.03020375594496727,-0.03109663724899292,0.14773273468017578,0.21582531929016113,0.10249695181846619,-0.14923638105392456,-0.22356225550174713,-0.1419215202331543,0.09007161855697632,0.18091972172260284,-0.01210939884185791,0.007803678512573242,0.0,0.0,0.0,0.0,0.020856542512774467,-0.009209396317601204,0.052004940807819366,0.01779806800186634,0.01390124298632145,-0.021135574206709862,-0.004112566355615854,-0.007359017618000507,0.012661230750381947,-0.0029715767595916986,0.013020194135606289,0.0062993611209094524,-0.3078840970993042,-0.3410452902317047,-0.22005169093608856,-0.4522886872291565,-1.2817579507827759,-0.25810864567756653,0.2776168882846832,1.0807158946990967,0.0040955618023872375,-1.3785747289657593,0.7427223920822144,0.14330044388771057,1.0053743124008179,-0.23031777143478394,-0.33628880977630615,0.043231114745140076,-1.4310760498046875,-1.7160671949386597,-0.5581815838813782,-2.2369134426116943
1760498664.2337751,0.02,-0.0030289776623249054,0.0195216815918684,0.08915028721094131,-0.0125143863260746,-0.002659589983522892,-0.9999181628227234,0.619583010673523,0.1681915521621704,0.4728659391403198,-0.025104662403464317,-0.03234583139419556,0.1608651876449585,0.22283503413200378,0.10684269666671753,-0.15617352724075317,-0.22466391324996948,-0.14511212706565857,0.09380793571472168,0.1803395301103592,-0.005845963954925537,0.009527146816253662,0.0,0.0,0.0,0.0,0.006969887297600508,-0.001745001645758748,0.02758707106113434,0.015318571589887142,0.009537619538605213,-0.016928957775235176,-0.007369671948254108,-0.01233310904353857,0.017185615375638008,-0.0036016658414155245,0.01764856092631817,0.0008980419370345771,-0.31724250316619873,-0.341886967420578,-0.2174421101808548,-0.4463089406490326,-1.441895604133606,-0.3112927973270416,0.3379156291484833,1.2284924983978271,-0.0014431998133659363,-1.4730380773544312,0.8671091794967651,0.14589965343475342,1.0181766748428345,-0.08985298126935959,-0.32373279333114624,0.050362974405288696,-1.4390807151794434,-1.7438325881958008,-0.5487844944000244,-2.2219221591949463
1760498664.2902155,0.02,-0.00475178100168705,0.01589159481227398,0.08968105167150497,-0.011124365963041782,-0.002721596509218216,-0.9999344348907471,0.619583010673523,0.1681915521621704,0.4692612886428833,-0.026844896376132965,-0.030489444732666016,0.16636419296264648,0.22886735200881958,0.10952514410018921,-0.16170895099639893,-0.22682800889015198,-0.14934590458869934,0.09796923398971558,0.1788736879825592,0.0016430020332336426,0.00800943374633789,0.0,0.0,0.0,0.0,-0.013039830140769482,0.006911405362188816,0.007032766938209534,0.013207017444074154,0.005245136097073555,-0.012727751396596432,-0.010418646037578583,-0.014720934443175793,0.01892746426165104,-0.0056769284419715405,0.01966569386422634,-0.007067033555358648,-0.31752365827560425,-0.3424392342567444,-0.21701101958751678,-0.4397440552711487,-1.5511475801467896,-0.34044530987739563,0.3759448230266571,1.333558201789856,0.02454138547182083,-1.5503097772598267,0.9840716123580933,0.14295417070388794,1.019325613975525,0.009945801459252834,-0.3215540051460266,0.055355533957481384,-1.4555325508117676,-1.743787169456482,-0.5557961463928223,-2.1328887939453125
1760498664.350203,0.02,-0.006525171920657158,0.014182492159307003,0.08837081491947174,-0.009982490912079811,-0.002599115017801523,-0.9999467730522156,0.619583010673523,0.1681915521621704,0.46568143367767334,-0.03621170297265053,-0.02610701322555542,0.16384530067443848,0.23430809378623962,0.110740065574646,-0.1666296124458313,-0.22958704829216003,-0.15401065349578857,0.10141545534133911,0.17692996561527252,0.00901937484741211,0.004213392734527588,0.0,0.0,0.0,0.0,-0.03139368072152138,0.011724689975380898,-0.012367750518023968,0.012329651974141598,0.0018754623597487807,-0.011360584758222103,-0.011757171712815762,-0.016068847849965096,0.01834973134100437,-0.006169635336846113,0.01843765191733837,-0.011456586420536041,-0.3270135521888733,-0.3356494605541229,-0.2145250290632248,-0.42417770624160767,-1.541043758392334,-0.3398624062538147,0.3779004216194153,1.3721007108688354,0.05855870991945267,-1.5997990369796753,1.0688854455947876,0.13080766797065735,0.9995672106742859,0.04084136337041855,-0.3355002999305725,0.06751830875873566,-1.4354593753814697,-1.7041598558425903,-0.5584589242935181,-2.0186007022857666
1760498664.405535,0.02,-0.004967305809259415,0.01381796132773161,0.084645576775074,-0.008904488757252693,-0.0025177241768687963,-0.9999572038650513,0.619583010673523,0.1681915521621704,0.4622141122817993,-0.05004993826150894,-0.020985841751098633,0.15598058700561523,0.23987263441085815,0.11104947328567505,-0.17172127962112427,-0.23200096189975739,-0.15856680274009705,0.10340642929077148,0.1753968447446823,0.015440762042999268,-0.00013387203216552734,0.0,0.0,0.0,0.0,-0.038351207971572876,0.012098868377506733,-0.022100968286395073,0.013298528268933296,0.00024360847601201385,-0.012504184618592262,-0.01062177773565054,-0.016030389815568924,0.01565752737224102,-0.004363618791103363,0.015612459741532803,-0.011656014248728752,-0.33008894324302673,-0.3264727294445038,-0.21391072869300842,-0.4106808304786682,-1.3951791524887085,-0.2794767916202545,0.35676077008247375,1.3399559259414673,0.0937880352139473,-1.6097288131713867,1.1142024993896484,0.12322983890771866,0.9580022096633911,-0.01651967316865921,-0.36228325963020325,0.08159951865673065,-1.404427409172058,-1.6468130350112915,-0.5660150051116943,-1.9362574815750122
1760498664.4630194,0.02,0.0035512614995241165,0.011809957213699818,0.0777115747332573,-0.007877049036324024,-0.0029970211908221245,-0.9999644756317139,0.619583010673523,0.1681915521621704,0.45897209644317627,-0.062152963131666183,-0.016762137413024902,0.14865195751190186,0.24637630581855774,0.11109462380409241,-0.17759788036346436,-0.23300452530384064,-0.16260197758674622,0.10327976942062378,0.17532315850257874,0.020870566368103027,-0.003872394561767578,0.0,0.0,0.0,0.0,-0.02748853527009487,0.008630943484604359,-0.014290640130639076,0.016052240505814552,0.00028127897530794144,-0.015544915571808815,-0.006728195585310459,-0.01492858212441206,0.010441138409078121,-3.6406563594937325e-05,0.013323048129677773,-0.009792216122150421,-0.315655916929245,-0.3181632459163666,-0.21585524082183838,-0.4060356616973877,-1.137795329093933,-0.18751397728919983,0.3241264522075653,1.2470593452453613,0.10910005122423172,-1.5812650918960571,1.1154898405075073,0.12400276213884354,0.9085796475410461,-0.14558665454387665,-0.4006681442260742,0.0886019766330719,-1.3558976650238037,-1.6001358032226562,-0.5759199857711792,-1.9293323755264282
1760498664.5160136,0.02,0.024936581030488014,0.004189873114228249,0.06556864827871323,-0.007183910347521305,-0.004912250675261021,-0.9999621510505676,0.619583010673523,0.1681915521621704,0.4561110734939575,-0.06371093541383743,-0.015347599983215332,0.15050899982452393,0.25448906421661377,0.11113810539245605,-0.18479502201080322,-0.23159371316432953,-0.16668900847434998,0.10120129585266113,0.1777229905128479,0.025908172130584717,-0.006973743438720703,0.0,0.0,0.0,0.0,0.008150506764650345,-0.0013308668276295066,0.01727142184972763,0.020044337958097458,0.0014230214292183518,-0.021961500868201256,9.437017433810979e-05,-0.01600552909076214,0.005573648493736982,0.006736343260854483,0.012997773475944996,-0.008869854733347893,-0.31862014532089233,-0.30595147609710693,-0.21654629707336426,-0.41112104058265686,-0.7434120178222656,-0.08685395121574402,0.28711017966270447,1.0853873491287231,0.0655265524983406,-1.5149797201156616,1.0338196754455566,0.1437254250049591,0.8801926970481873,-0.33428654074668884,-0.46754100918769836,0.08274483680725098,-1.2831311225891113,-1.5817476511001587,-0.5585418939590454,-2.0143728256225586
1760498664.576142,0.02,0.03562959283590317,0.005806688219308853,0.04825946316123009,-0.006784841883927584,-0.008396639488637447,-0.9999417066574097,0.619583010673523,0.1681915521621704,0.45382726192474365,-0.05478493124246597,-0.017494916915893555,0.16077494621276855,0.26235729455947876,0.10751056671142578,-0.18948566913604736,-0.22825896739959717,-0.17324110865592957,0.09990257024765015,0.18198172748088837,0.031436145305633545,-0.009623527526855469,0.0,0.0,0.0,0.0,0.018705561757087708,-0.005998735781759024,0.02455601654946804,0.013471747748553753,-0.010159279219806194,-0.02708934061229229,0.0029018905479460955,-0.023346981033682823,0.009688928723335266,0.008459280245006084,0.015095685608685017,-0.006282149348407984,-0.34729933738708496,-0.3418343961238861,-0.20628352463245392,-0.426595538854599,-0.10478049516677856,0.025312334299087524,0.25388041138648987,0.8160409927368164,-0.09253894537687302,-1.3892697095870972,0.7916146516799927,0.2140941023826599,0.9214845895767212,-0.6162126064300537,-0.5854740142822266,0.053727760910987854,-1.2322251796722412,-1.6134737730026245,-0.4497036635875702,-2.1997225284576416
1760498664.630765,0.02,-0.002750905230641365,-0.016139240935444832,0.06640481948852539,-0.007384872529655695,-0.009547497145831585,-0.9999271631240845,0.619583010673523,0.1681915521621704,0.45149481296539307,-0.049318861216306686,-0.017699480056762695,0.16677594184875488,0.2583702504634857,0.0883907675743103,-0.1773865818977356,-0.22855538129806519,-0.18387457728385925,0.09992772340774536,0.18270106613636017,0.03670954704284668,-0.01379239559173584,0.0,0.0,0.0,0.0,0.010459968820214272,0.0018565068021416664,0.010662405751645565,-0.008624985814094543,-0.055352967232465744,0.012661573477089405,-0.009464181028306484,-0.033387985080480576,0.012696786783635616,-0.003430008888244629,0.012802675366401672,-0.014538690447807312,-0.36345815658569336,-0.20513124763965607,-0.1742503046989441,-0.42453667521476746,1.0607887506484985,0.18578709661960602,0.19719627499580383,0.37382176518440247,-0.24213695526123047,-1.1840065717697144,0.3470490872859955,0.31523728370666504,0.9675197005271912,-1.1043384075164795,-0.7315676808357239,0.00291500985622406,-1.1956093311309814,-1.7889385223388672,-0.23353984951972961,-2.3429107666015625
1760498664.688774,0.02,0.006821826100349426,-0.08060549199581146,0.09030692279338837,-0.011900026351213455,-0.010521857999265194,-0.9998738169670105,0.619583010673523,0.1681915521621704,0.4484034776687622,-0.04391894116997719,-0.013823390007019043,0.15905022621154785,0.23735865950584412,0.04739457368850708,-0.14780360460281372,-0.23058488965034485,-0.19885051250457764,0.09875434637069702,0.18154795467853546,0.0416683554649353,-0.025906920433044434,0.0,0.0,0.0,0.0,0.018299568444490433,0.010840456001460552,-0.03776226565241814,-0.06897176057100296,-0.10943056643009186,0.04478966072201729,-0.01227758452296257,-0.042862024158239365,0.006239212583750486,-0.006303757429122925,0.01190293487161398,-0.039226919412612915,-0.45642539858818054,-0.059127818793058395,-0.1373600959777832,-0.41324278712272644,2.5692460536956787,0.29090243577957153,-0.0028530657291412354,-0.15456494688987732,-0.2599257528781891,-0.6813623905181885,0.03310436010360718,0.28615984320640564,0.8540566563606262,-1.79758882522583,-1.1148946285247803,-0.03995354473590851,-1.10039484500885,-1.8889161348342896,-0.0947316512465477,-2.542206048965454
1760498664.7400517,0.02,0.030985862016677856,-0.11021731793880463,0.11675437539815903,-0.019806314259767532,-0.013920428231358528,-0.9997069239616394,0.619583010673523,0.1681915521621704,0.4444175958633423,-0.03570933640003204,-0.005495965480804443,0.13612782955169678,0.19563254714012146,-0.01383674144744873,-0.09169203042984009,-0.22987517714500427,-0.21582037210464478,0.09710913896560669,0.18118803203105927,0.04443627595901489,-0.04426538944244385,0.0,0.0,0.0,0.0,0.01763959787786007,0.025879813358187675,-0.06334584206342697,-0.11433564871549606,-0.1466573029756546,0.09465300291776657,-0.0036808885633945465,-0.04261616989970207,6.489344377769157e-05,-0.005926023703068495,0.0029395229648798704,-0.04790545254945755,-0.3173067569732666,0.2849828004837036,-0.08867847174406052,-0.37608805298805237,3.0809216499328613,0.25955039262771606,-0.21683697402477264,-0.23455309867858887,-0.18302661180496216,0.015609958209097385,-0.14624476432800293,0.14147713780403137,0.7829259634017944,-2.390643835067749,-1.5059571266174316,-0.08617304265499115,-1.204965353012085,-1.6005470752716064,0.055616773664951324,-2.4369022846221924
1760498664.7991962,0.02,-0.013212054967880249,-0.11772776395082474,0.12130644917488098,-0.029057035222649574,-0.01446523517370224,-0.9994730949401855,0.619583010673523,0.1681915521621704,0.43994390964508057,-0.029614312574267387,0.007666349411010742,0.10541236400604248,0.14339464902877808,-0.06529617309570312,-0.04590010643005371,-0.2318418323993683,-0.2282099425792694,0.09579187631607056,0.17743134498596191,0.042801737785339355,-0.05926060676574707,0.0,0.0,0.0,0.0,0.012662246823310852,0.03317255899310112,-0.07740487158298492,-0.12007514387369156,-0.10111253708600998,0.04806743189692497,-0.01181791815906763,-0.02565123699605465,3.896430280292407e-05,-0.014980101957917213,-0.007686449680477381,-0.03486074134707451,-0.35547950863838196,0.5456302762031555,-0.19123496115207672,-0.3571122884750366,2.1232826709747314,0.007346540689468384,-0.3659481108188629,-0.01107475534081459,0.24208644032478333,0.45301324129104614,-0.2686035633087158,0.01771407574415207,0.7076522707939148,-2.015393018722534,-1.8047518730163574,-0.19353534281253815,-1.438779354095459,-1.0121949911117554,-0.29287663102149963,-2.5325911045074463
1760498664.8524976,0.02,-0.0904325619339943,-0.07840399444103241,0.09078620374202728,-0.03624960780143738,-0.008808242157101631,-0.999303936958313,0.619583010673523,0.1681915521621704,0.4361335039138794,-0.029668129980564117,0.019684553146362305,0.08026015758514404,0.0993897020816803,-0.08772933483123779,-0.02980053424835205,-0.23937319219112396,-0.23256143927574158,0.0960807204246521,0.16878031194210052,0.037962913513183594,-0.060329437255859375,0.0,0.0,0.0,0.0,-0.0036971948575228453,0.02787494659423828,-0.05573732405900955,-0.08078131079673767,-0.027725402265787125,-0.02787638269364834,-0.02043321542441845,-0.005755278281867504,-0.0022042030468583107,-0.025165854021906853,-0.013523130677640438,0.005872905720025301,-0.3198854923248291,0.33663755655288696,-0.23425188660621643,-0.39349624514579773,0.800745964050293,-0.17101815342903137,-0.312343567609787,0.13663533329963684,0.5613492727279663,0.48527175188064575,-0.27699562907218933,-0.13041538000106812,0.6740595102310181,-1.1499824523925781,-1.7493250370025635,-0.2111537903547287,-1.463078498840332,-0.7572228908538818,-0.8701912760734558,-2.680687665939331
1760498664.9093478,0.02,0.030386975035071373,-0.021390225738286972,0.06331396847963333,-0.03955752030014992,-0.009053312242031097,-0.9991762638092041,0.619583010673523,0.1681915521621704,0.4331773519515991,-0.023825308308005333,0.02742236852645874,0.0659482479095459,0.09238819032907486,-0.08338791131973267,-0.039707183837890625,-0.2401684820652008,-0.23089227080345154,0.10279303789138794,0.16799430549144745,0.034371256828308105,-0.056873202323913574,0.0,0.0,0.0,0.0,0.019130973145365715,0.012742908671498299,-0.021274913102388382,0.016638612374663353,0.03311484679579735,-0.04243983328342438,0.007289409637451172,0.006589293014258146,0.01946258917450905,0.004265623167157173,-0.004709323402494192,0.006741728167980909,-0.2934694290161133,-0.388999879360199,-0.3150574564933777,-0.35845041275024414,0.08440616726875305,-0.22785219550132751,-0.189301535487175,0.4724201560020447,0.6355755925178528,0.19294466078281403,-0.18292170763015747,-0.0718260258436203,0.737614095211029,-0.5696877241134644,-1.5478515625,-0.2618406414985657,-1.2804293632507324,-0.9775010347366333,-1.3025233745574951,-2.4387152194976807
1760498664.965773,0.02,0.030985206365585327,-0.009962216019630432,0.06234806776046753,-0.04058580845594406,-0.012478134594857693,-0.9990981221199036,0.619583010673523,0.1681915521621704,0.4307316541671753,-0.014598268084228039,0.029050052165985107,0.06276774406433105,0.10088871419429779,-0.06602120399475098,-0.044955670833587646,-0.23550455272197723,-0.22147804498672485,0.10381382703781128,0.17200544476509094,0.0307043194770813,-0.05578577518463135,0.0,0.0,0.0,0.0,0.019200434908270836,-0.00023797452740836889,-0.0033038656692951918,0.0194760300219059,0.04600805044174194,-0.011057421565055847,0.003955099266022444,0.02770617976784706,0.012602417729794979,0.007332488428801298,-0.01078622043132782,-0.0006828115438111126,-0.289297491312027,-0.5727598071098328,-0.49527508020401,-0.2804340720176697,-0.4593348503112793,-0.022291332483291626,0.0017782747745513916,0.800216555595398,0.22161197662353516,-0.4013185501098633,0.08569565415382385,0.21308669447898865,0.7935242056846619,-0.2201525717973709,-1.057105302810669,-0.19662679731845856,-0.9726999998092651,-2.015061378479004,-1.273869276046753,-1.6684142351150513
1760498665.0182645,0.02,-0.006017331965267658,-0.013029059395194054,0.06685011088848114,-0.04175753891468048,-0.012397878803312778,-0.9990508556365967,0.619583010673523,0.1681915521621704,0.42815542221069336,-0.007727422751486301,0.025447726249694824,0.0640326738357544,0.1071741133928299,-0.04463249444961548,-0.052330851554870605,-0.23467062413692474,-0.2122064232826233,0.10165369510650635,0.17350128293037415,0.02278757095336914,-0.055321693420410156,0.0,0.0,0.0,0.0,0.016328105702996254,-0.013439704664051533,0.006829555612057447,0.015336649492383003,0.055640336126089096,-0.0199496541172266,-0.001159470877610147,0.020178763195872307,0.0009596156305633485,0.00245618331246078,-0.02275090478360653,0.0009010728681460023,-0.24803660809993744,-0.6020865440368652,-0.40137264132499695,-0.2236919403076172,-0.8896394371986389,-0.059741437435150146,0.055736005306243896,1.0945188999176025,0.17165571451187134,-0.7110241651535034,0.2341195046901703,0.14415499567985535,0.8604453802108765,-0.28857311606407166,-0.7014015316963196,-0.14417311549186707,-0.8587657809257507,-2.2807793617248535,-1.3511919975280762,-1.1751891374588013
1760498665.0715048,0.02,-0.032547883689403534,0.008944425731897354,0.0837630107998848,-0.04173377901315689,-0.009899215772747993,-0.999079704284668,0.619583010673523,0.1681915521621704,0.4250389337539673,-0.005247440189123154,0.021064817905426025,0.06598043441772461,0.11233443021774292,-0.021355509757995605,-0.06345480680465698,-0.23634101450443268,-0.20423972606658936,0.10346800088882446,0.1725507378578186,0.01072549819946289,-0.05053448677062988,0.0,0.0,0.0,0.0,0.0016526647377759218,-0.009833498857915401,0.005353347398340702,0.013101722113788128,0.05789922550320625,-0.02639436535537243,-0.0066720666363835335,0.015778683125972748,0.017448415979743004,-0.003635792527347803,-0.032814789563417435,0.015541824512183666,-0.19955584406852722,-0.5801505446434021,-0.40027257800102234,-0.2065902054309845,-1.2165634632110596,-0.14662426710128784,0.07829494774341583,1.2052483558654785,0.11254394799470901,-0.9615532159805298,0.31464123725891113,0.16033780574798584,0.987023651599884,-0.2228895127773285,-0.4563770890235901,-0.10145337879657745,-0.8597304821014404,-2.296267032623291,-1.1869354248046875,-0.9793285727500916
1760498665.1526997,0.02,-0.04800134897232056,0.0221170075237751,0.09141797572374344,-0.04041368514299393,-0.00548207201063633,-0.9991679787635803,0.619583010673523,0.1681915521621704,0.4214833974838257,-0.010926616378128529,0.01757514476776123,0.06528794765472412,0.11667382717132568,0.0014269351959228516,-0.07657688856124878,-0.23967228829860687,-0.1965484321117401,0.10755777359008789,0.1696268618106842,-0.003779470920562744,-0.0419008731842041,0.0,0.0,0.0,0.0,-0.02083965204656124,-0.008654657751321793,-0.005621539894491434,0.012368506751954556,0.05498111993074417,-0.029823441058397293,-0.009219636209309101,0.016404708847403526,0.019658146426081657,-0.0064040618017315865,-0.036758072674274445,0.022079920396208763,-0.211544468998909,-0.5422906279563904,-0.3925459682941437,-0.19672171771526337,-1.408898949623108,-0.2379969358444214,0.08233872056007385,1.2091152667999268,0.12404460459947586,-1.1077574491500854,0.3836733400821686,0.12625136971473694,0.9702795147895813,-0.04381868988275528,-0.2981213629245758,-0.05325327813625336,-0.8658827543258667,-2.176530599594116,-1.1980383396148682,-0.8496994376182556
1760498665.2012842,0.02,-0.04103345051407814,0.028775304555892944,0.09267342835664749,-0.038348086178302765,-0.0011157654225826263,-0.9992638230323792,0.619583010673523,0.1681915521621704,0.41780006885528564,-0.0236258115619421,0.013790249824523926,0.06058669090270996,0.12199662625789642,0.021514534950256348,-0.08891886472702026,-0.24241475760936737,-0.18781474232673645,0.11003023386001587,0.1672527939081192,-0.0183447003364563,-0.03260838985443115,0.0,0.0,0.0,0.0,-0.035882752388715744,-0.010318264365196228,-0.015029770322144032,0.016141993924975395,0.04674363508820534,-0.0264193806797266,-0.006410728674381971,0.019876103848218918,0.013036339543759823,-0.003285245271399617,-0.03522050753235817,0.021486636251211166,-0.24040906131267548,-0.4994836747646332,-0.38199272751808167,-0.1947554349899292,-1.388124704360962,-0.22739481925964355,0.07440760731697083,1.1370642185211182,0.1333324909210205,-1.1825530529022217,0.4090181291103363,0.0899108424782753,0.9154114127159119,0.06059446185827255,-0.20543327927589417,0.006668537855148315,-0.9519782066345215,-2.0228848457336426,-1.199392318725586,-0.784805953502655
1760498665.2580743,0.02,-0.021598445251584053,0.03441191837191582,0.09320694953203201,-0.03577130660414696,0.0018161516636610031,-0.9993583559989929,0.619583010673523,0.1681915521621704,0.41409993171691895,-0.03920258954167366,0.009354233741760254,0.05411040782928467,0.12975692749023438,0.03774154186248779,-0.09869319200515747,-0.24298866093158722,-0.17759296298027039,0.1091051697731018,0.16715393960475922,-0.031241238117218018,-0.02421283721923828,0.0,0.0,0.0,0.0,-0.039133794605731964,-0.011779225431382656,-0.01619436964392662,0.022721057757735252,0.03687060996890068,-0.019940441474318504,-0.0006155617884360254,0.02384120412170887,0.0038627737667411566,0.0028558417689055204,-0.030096963047981262,0.01885911636054516,-0.2658596336841583,-0.45752111077308655,-0.36544132232666016,-0.20668666064739227,-1.2644835710525513,-0.17088699340820312,0.057532161474227905,1.038517713546753,0.135331928730011,-1.2064992189407349,0.42836466431617737,0.06831154972314835,0.8653413653373718,0.05637263506650925,-0.17331823706626892,0.05622352659702301,-1.0557194948196411,-1.881456971168518,-1.1628921031951904,-0.8347912430763245
1760498665.309519,0.02,-0.00217510387301445,0.03791603818535805,0.09367262572050095,-0.03279806300997734,0.0030410923063755035,-0.9994573593139648,0.619583010673523,0.1681915521621704,0.41038429737091064,-0.05339999869465828,0.0041800737380981445,0.04980909824371338,0.14034965634346008,0.05036640167236328,-0.1059618592262268,-0.2410966008901596,-0.16599836945533752,0.10454046726226807,0.16965515911579132,-0.04143422842025757,-0.016785383224487305,0.0,0.0,0.0,0.0,-0.03197285905480385,-0.013875558972358704,-0.007045355625450611,0.029155997559428215,0.02856106124818325,-0.015108293853700161,0.005243896972388029,0.02713966928422451,-0.005560220684856176,0.008935973979532719,-0.02286813221871853,0.016716880723834038,-0.2894810438156128,-0.4207381308078766,-0.34474417567253113,-0.23481197655200958,-1.1507726907730103,-0.12067094445228577,0.036988720297813416,0.9459437727928162,0.1462574601173401,-1.198552131652832,0.4690918028354645,0.055955104529857635,0.822702169418335,0.005866250954568386,-0.1728796511888504,0.08860334753990173,-1.1506989002227783,-1.7572746276855469,-1.105181336402893,-0.9931731820106506
1760498665.3609955,0.02,0.014280971139669418,0.037123292684555054,0.09169507771730423,-0.029736312106251717,0.002766076475381851,-0.9995539784431458,0.619583010673523,0.1681915521621704,0.4067012071609497,-0.06294404715299606,-0.0019314289093017578,0.05062854290008545,0.15309381484985352,0.06031233072280884,-0.11194789409637451,-0.23705428838729858,-0.1537419855594635,0.09693622589111328,0.1744098961353302,-0.048466503620147705,-0.009939193725585938,0.0,0.0,0.0,0.0,-0.017927171662449837,-0.016293169930577278,0.007860193029046059,0.03394326940178871,0.02340463362634182,-0.014541449956595898,0.010309404693543911,0.02826317958533764,-0.013232355006039143,0.01401471346616745,-0.014874586835503578,0.015883294865489006,-0.30467352271080017,-0.39155322313308716,-0.3222207725048065,-0.2754581868648529,-1.1008130311965942,-0.09191620349884033,0.022474944591522217,0.881068766117096,0.1654202938079834,-1.1789445877075195,0.5381181240081787,0.046086736023426056,0.7945441603660583,-0.04182559996843338,-0.1840008646249771,0.10557462275028229,-1.231163740158081,-1.6495393514633179,-1.034866213798523,-1.211510419845581
1760498665.4175293,0.02,0.026263177394866943,0.03485424816608429,0.08900558203458786,-0.026790136471390724,0.0012409444898366928,-0.9996402859687805,0.619583010673523,0.1681915521621704,0.40310609340667725,-0.06636086106300354,-0.008399367332458496,0.057672977447509766,0.16729944944381714,0.0688130259513855,-0.1181449294090271,-0.2314082235097885,-0.1420401632785797,0.08806675672531128,0.18078047037124634,-0.052317798137664795,-0.0032056570053100586,0.0,0.0,0.0,0.0,-0.0024948350619524717,-0.016111893579363823,0.02383609674870968,0.036343056708574295,0.02073318138718605,-0.016446303576231003,0.013572171330451965,0.026152947917580605,-0.015919771045446396,0.01702643744647503,-0.007321203593164682,0.016516389325261116,-0.30037036538124084,-0.3684135377407074,-0.2995852530002594,-0.32115331292152405,-1.1167875528335571,-0.08572068810462952,0.02365019917488098,0.8590676188468933,0.1785280704498291,-1.1687686443328857,0.6158232688903809,0.04309830814599991,0.7943450808525085,-0.07109088450670242,-0.2004091739654541,0.10904726386070251,-1.2903531789779663,-1.5690447092056274,-0.9513261914253235,-1.4420793056488037
1760498665.4706926,0.02,0.028640301898121834,0.032343510538339615,0.08649995923042297,-0.02401725947856903,-0.0008167335763573647,-0.9997112154960632,0.619583010673523,0.1681915521621704,0.39960479736328125,-0.06478440761566162,-0.013643503189086914,0.0700531005859375,0.18165548145771027,0.0766289234161377,-0.12519824504852295,-0.225351944565773,-0.1319282352924347,0.07976430654525757,0.18749147653579712,-0.053314149379730225,0.0037394165992736816,0.0,0.0,0.0,0.0,0.008215688169002533,-0.01193985529243946,0.035721633583307266,0.03538073971867561,0.01930069550871849,-0.018855754286050797,0.013583078980445862,0.021718071773648262,-0.014335772953927517,0.01666068844497204,-0.0006784102879464626,0.017406322062015533,-0.2941102981567383,-0.3520023822784424,-0.2792852222919464,-0.36406028270721436,-1.182612657546997,-0.10805517435073853,0.042428940534591675,0.878298282623291,0.17958217859268188,-1.1793705224990845,0.6920679807662964,0.0445316806435585,0.8129770159721375,-0.07456836849451065,-0.21647755801677704,0.10602176189422607,-1.3221207857131958,-1.5251978635787964,-0.8705961108207703,-1.6531827449798584
1760498665.5328076,0.02,0.02441949024796486,0.029887445271015167,0.08440539985895157,-0.021438514813780785,-0.002748258411884308,-0.9997664093971252,0.619583010673523,0.1681915521621704,0.3961864709854126,-0.06046239286661148,-0.016912341117858887,0.08533680438995361,0.19499172270298004,0.08399391174316406,-0.13300985097885132,-0.2200278341770172,-0.12411355972290039,0.0732303261756897,0.19336968660354614,-0.05188721418380737,0.01067262887954712,0.0,0.0,0.0,0.0,0.01282851118594408,-0.007243927102535963,0.040165841579437256,0.031940799206495285,0.018109392374753952,-0.020609673112630844,0.01100371964275837,0.015662970021367073,-0.009901788085699081,0.013825888745486736,0.004967985209077597,0.017191709950566292,-0.3035478889942169,-0.3413660526275635,-0.2615209221839905,-0.3981599807739258,-1.2663742303848267,-0.15463775396347046,0.0777290016412735,0.9276363253593445,0.1728687286376953,-1.2119426727294922,0.7666393518447876,0.04583505541086197,0.8390370011329651,-0.05634994059801102,-0.22763654589653015,0.10411836206912994,-1.3453443050384521,-1.51331627368927,-0.7972442507743835,-1.82126784324646
1760498665.591439,0.02,0.015870677307248116,0.028340641409158707,0.08294051140546799,-0.019036851823329926,-0.00418756203725934,-0.9998100399971008,0.619583010673523,0.1681915521621704,0.3928319215774536,-0.05573105812072754,-0.01849532127380371,0.10073304176330566,0.20662246644496918,0.09072566032409668,-0.14093059301376343,-0.216159388422966,-0.11897432804107666,0.0690491795539856,0.19759704172611237,-0.0484125018119812,0.016816914081573486,0.0,0.0,0.0,0.0,0.011293544434010983,-0.003266653511673212,0.037949565798044205,0.02706342749297619,0.01621919870376587,-0.02013210579752922,0.006653494667261839,0.008799378760159016,-0.003788815578445792,0.00836407020688057,0.010331406258046627,0.013207054696977139,-0.31338661909103394,-0.3355421721935272,-0.24632982909679413,-0.42249518632888794,-1.3455079793930054,-0.20290830731391907,0.12352484464645386,0.9942806363105774,0.16487973928451538,-1.2593965530395508,0.840369701385498,0.048220403492450714,0.8630214333534241,-0.023670203983783722,-0.23225253820419312,0.10726436972618103,-1.3807309865951538,-1.5188897848129272,-0.7307594418525696,-1.9325042963027954
1760498665.644641,0.02,0.007729662582278252,0.026875890791416168,0.081610769033432,-0.016796790063381195,-0.00507449172437191,-0.9998460412025452,0.619583010673523,0.1681915521621704,0.3895338773727417,-0.05257665365934372,-0.018556714057922363,0.11395120620727539,0.2164110243320465,0.09646713733673096,-0.14822673797607422,-0.2139342874288559,-0.11646774411201477,0.06711119413375854,0.1999693214893341,-0.0433039665222168,0.02142232656478882,0.0,0.0,0.0,0.0,0.0050649018958210945,0.0008449360611848533,0.030164560303092003,0.022333187982439995,0.013325109146535397,-0.01764424704015255,0.0020914727356284857,0.002246299758553505,0.0019086310639977455,0.003555530682206154,0.014106757007539272,0.009014628827571869,-0.3166010081768036,-0.33202898502349854,-0.23356615006923676,-0.4370215833187103,-1.4049146175384521,-0.24097785353660583,0.17012757062911987,1.064725399017334,0.15774405002593994,-1.3158231973648071,0.9198247194290161,0.050762929022312164,0.8740679025650024,0.021047793328762054,-0.23549258708953857,0.1159897893667221,-1.4113667011260986,-1.5308587551116943,-0.6769128441810608,-1.994486927986145
1760498665.7017484,0.02,0.004453018307685852,0.023670773953199387,0.07989412546157837,-0.014777472242712975,-0.00564210070297122,-0.9998748898506165,0.619583010673523,0.1681915521621704,0.3862999677658081,-0.0522623173892498,-0.017029643058776855,0.1233590841293335,0.22471995651721954,0.10089853405952454,-0.15444844961166382,-0.21302033960819244,-0.11611786484718323,0.06661546230316162,0.201276496052742,-0.03715205192565918,0.024645745754241943,0.0,0.0,0.0,0.0,-0.0023368659894913435,0.004457387607544661,0.020574217662215233,0.019025584682822227,0.009842642582952976,-0.01474116463214159,-0.0012324352283030748,-0.0030106231570243835,0.005393763538450003,0.0017921256367117167,0.016206705942749977,0.006242924369871616,-0.3151245415210724,-0.328778475522995,-0.22364547848701477,-0.4379405975341797,-1.4257057905197144,-0.2616783380508423,0.20757579803466797,1.1244033575057983,0.1556483507156372,-1.3688396215438843,1.004687786102295,0.05041239410638809,0.8687961101531982,0.054634176194667816,-0.2425083965063095,0.1277754008769989,-1.4219801425933838,-1.538417935371399,-0.641521692276001,-2.0164687633514404
1760498665.7595005,0.02,0.004988463595509529,0.02021569013595581,0.07696892321109772,-0.013041066005825996,-0.006242475006729364,-0.999895453453064,0.619583010673523,0.1681915521621704,0.3831624984741211,-0.05440768226981163,-0.014304697513580322,0.12900495529174805,0.23211948573589325,0.10394924879074097,-0.1595558524131775,-0.21281366050243378,-0.11738109588623047,0.06674736738204956,0.20200024545192719,-0.030132710933685303,0.025898098945617676,0.0,0.0,0.0,0.0,-0.008125538937747478,0.006954915355890989,0.011689604260027409,0.01704387180507183,0.006441873498260975,-0.01193932443857193,-0.003122371155768633,-0.0071197147481143475,0.007388575468212366,0.0005717741441912949,0.01817459613084793,0.0011006318964064121,-0.3128259778022766,-0.32554519176483154,-0.21680712699890137,-0.4375351071357727,-1.3975815773010254,-0.2608938217163086,0.23013392090797424,1.1610138416290283,0.15686798095703125,-1.404412031173706,1.0919163227081299,0.04723034054040909,0.8531678318977356,0.04860662668943405,-0.26252827048301697,0.13917437195777893,-1.4127631187438965,-1.5396406650543213,-0.6210796236991882,-2.0164217948913574
1760498665.8132956,0.02,0.007235579192638397,0.016671203076839447,0.07250188291072845,-0.011582606472074986,-0.007060588337481022,-0.9999079704284668,0.619583010673523,0.1681915521621704,0.38017547130584717,-0.05765446275472641,-0.01107853651046753,0.13223791122436523,0.23901624977588654,0.1058226227760315,-0.1638285517692566,-0.21279588341712952,-0.11979416012763977,0.06694525480270386,0.2026059478521347,-0.022657334804534912,0.025556504726409912,0.0,0.0,0.0,0.0,-0.009375243447721004,0.0074274311773478985,0.007448203861713409,0.015895068645477295,0.003872085129842162,-0.010382011532783508,-0.0037851303350180387,-0.010166763328015804,0.008119185455143452,0.0005000359960831702,0.01897696778178215,-0.002363065956160426,-0.30915209650993347,-0.32202544808387756,-0.213347390294075,-0.4355499744415283,-1.3212815523147583,-0.2391042709350586,0.24148976802825928,1.1706209182739258,0.1563553810119629,-1.4235726594924927,1.1614599227905273,0.05225067585706711,0.835410475730896,0.008243313990533352,-0.2931719422340393,0.14753665030002594,-1.3887492418289185,-1.537989616394043,-0.610356867313385,-2.0179924964904785
1760498665.865415,0.02,0.012052284553647041,0.012512150220572948,0.06654292345046997,-0.01041050348430872,-0.008268194273114204,-0.9999116063117981,0.619583010673523,0.1681915521621704,0.37739622592926025,-0.05955180525779724,-0.008257865905761719,0.13553965091705322,0.24570512771606445,0.10684695839881897,-0.16771864891052246,-0.21253551542758942,-0.12316754460334778,0.06706392765045166,0.20350603759288788,-0.015055477619171143,0.02425825595855713,0.0,0.0,0.0,0.0,-0.0034250044263899326,0.005358512047678232,0.010247877798974514,0.015398802235722542,0.0022107306867837906,-0.010282021015882492,-0.0032563619315624237,-0.012905418872833252,0.00848890095949173,0.0014231951208785176,0.019066836684942245,-0.004327939357608557,-0.3077009618282318,-0.3183738887310028,-0.21246106922626495,-0.43459582328796387,-1.2040735483169556,-0.20442935824394226,0.24577799439430237,1.1609461307525635,0.1440677046775818,-1.4260059595108032,1.1951699256896973,0.0651545599102974,0.8238436579704285,-0.06114766746759415,-0.3349306881427765,0.14890308678150177,-1.358953833580017,-1.5409079790115356,-0.6027858257293701,-2.038830041885376
1760498665.9196162,0.02,0.019788239151239395,0.007018374279141426,0.05846123397350311,-0.009586039930582047,-0.010074473917484283,-0.9999033212661743,0.619583010673523,0.1681915521621704,0.37489163875579834,-0.056744322180747986,-0.007298409938812256,0.14212250709533691,0.2523002326488495,0.1072654128074646,-0.1715869903564453,-0.21174292266368866,-0.12776216864585876,0.06750285625457764,0.2049555778503418,-0.007447719573974609,0.022436439990997314,0.0,0.0,0.0,0.0,0.011684948578476906,-0.0014669963857159019,0.021366504952311516,0.014937609434127808,0.001366797718219459,-0.011863388121128082,-0.00191009440459311,-0.016559043899178505,0.009869472123682499,0.0028440996538847685,0.01911700889468193,-0.0056344312615692616,-0.33015137910842896,-0.3140352666378021,-0.21296826004981995,-0.43606510758399963,-1.0486139059066772,-0.16388961672782898,0.2488875687122345,1.135521650314331,0.10560459643602371,-1.4115906953811646,1.173758864402771,0.09146583825349808,0.8285080194473267,-0.1476246565580368,-0.38997408747673035,0.14252565801143646,-1.3364087343215942,-1.5585721731185913,-0.5884007215499878,-2.0900216102600098
1760498665.9772632,0.02,0.016971413046121597,0.009315235540270805,0.04814862459897995,-0.00886578019708395,-0.01220681332051754,-0.9998862147331238,0.619583010673523,0.1681915521621704,0.37276017665863037,-0.0510501004755497,-0.008526325225830078,0.15033698081970215,0.25813114643096924,0.10663244128227234,-0.17403441667556763,-0.21087995171546936,-0.13429009914398193,0.06951695680618286,0.20639953017234802,0.00026732683181762695,0.020672142505645752,0.0,0.0,0.0,0.0,0.008050144650042057,-0.004630479495972395,0.01444824505597353,0.011240853928029537,-0.002092856913805008,-0.005578308831900358,-0.003305610967800021,-0.02161763422191143,0.014994139783084393,0.0010369843803346157,0.01951461285352707,-0.004204240627586842,-0.3816983699798584,-0.3128588795661926,-0.21214738488197327,-0.4405975341796875,-0.8283467888832092,-0.10919377207756042,0.2576545476913452,1.0840007066726685,0.023299284279346466,-1.3778942823410034,1.072551965713501,0.14082249999046326,0.862657368183136,-0.24644853174686432,-0.46107712388038635,0.12796607613563538,-1.3464558124542236,-1.596211552619934,-0.5470930337905884,-2.165773630142212
1760498666.032494,0.02,0.004208557307720184,0.010772822424769402,0.04607170447707176,-0.007954989559948444,-0.01344318874180317,-0.9998779892921448,0.619583010673523,0.1681915521621704,0.3708353042602539,-0.04736749827861786,-0.008955717086791992,0.15808916091918945,0.2619071900844574,0.10441276431083679,-0.17363989353179932,-0.21165165305137634,-0.14250123500823975,0.07339304685592651,0.2061459720134735,0.008148431777954102,0.01840895414352417,0.0,0.0,0.0,0.0,0.005681180395185947,0.0007079674978740513,0.019425978884100914,0.006370942573994398,-0.00688385684043169,0.002390169072896242,-0.008227369748055935,-0.025590568780899048,0.01986735500395298,-0.0038324471097439528,0.020131083205342293,-0.007408223580569029,-0.3495158851146698,-0.3177662789821625,-0.21036814153194427,-0.4349508285522461,-0.5044079422950745,-0.030911967158317566,0.26455196738243103,0.9932158589363098,-0.045872025191783905,-1.339647650718689,0.9136770963668823,0.19284790754318237,0.8927529454231262,-0.3891862630844116,-0.5195445418357849,0.1032024472951889,-1.4101290702819824,-1.6520802974700928,-0.5039547681808472,-2.201336145401001
1760498666.0934052,0.02,0.0062705473974347115,0.007071066182106733,0.04213791713118553,-0.007338605355471373,-0.014115083031356335,-0.9998734593391418,0.619583010673523,0.1681915521621704,0.3690088987350464,-0.04553479701280594,-0.0076898932456970215,0.16431772708892822,0.2629893720149994,0.09720975160598755,-0.1693606972694397,-0.21402184665203094,-0.15247026085853577,0.07812845706939697,0.2043735682964325,0.016882121562957764,0.013257205486297607,0.0,0.0,0.0,0.0,0.002507715253159404,0.003243820508942008,0.014956841245293617,0.0010107274865731597,-0.018487796187400818,-0.006790444254875183,-0.010711458511650562,-0.030620107427239418,0.023166950792074203,-0.005790769588202238,0.0237667765468359,-0.016663160175085068,-0.3621266484260559,-0.31695136427879333,-0.2022397518157959,-0.4311762750148773,-0.10024148225784302,-0.005867466330528259,0.2399505078792572,0.8541865944862366,-0.131108820438385,-1.262234091758728,0.7800763845443726,0.21422603726387024,0.8903452157974243,-0.5514562129974365,-0.620298445224762,0.08099332451820374,-1.3857802152633667,-1.7360531091690063,-0.4593621790409088,-2.2889719009399414
1760498666.1490402,0.02,-0.005188347771763802,-0.009185746312141418,0.042069416493177414,-0.007615861017256975,-0.014342309907078743,-0.9998681545257568,0.619583010673523,0.1681915521621704,0.3672672510147095,-0.04540093243122101,-0.004919528961181641,0.16736304759979248,0.2583576440811157,0.08037728071212769,-0.15571856498718262,-0.21794840693473816,-0.1642317771911621,0.08278477191925049,0.20122502744197845,0.026637673377990723,0.0040784478187561035,0.0,0.0,0.0,0.0,-0.0023464427795261145,0.007983396761119366,0.004494949709624052,-0.015648869797587395,-0.043725915253162384,0.027415169402956963,-0.016360020264983177,-0.035332076251506805,0.02301931194961071,-0.010227940045297146,0.025622237473726273,-0.026880690827965736,-0.37571749091148376,-0.28729891777038574,-0.19372119009494781,-0.42703181505203247,0.4822765588760376,0.0830780565738678,0.19418290257453918,0.6367133855819702,-0.1707335114479065,-1.1100775003433228,0.5845571756362915,0.2668219208717346,0.8811048865318298,-0.7902855277061462,-0.7501590251922607,0.05092577636241913,-1.37824285030365,-1.8258811235427856,-0.39174237847328186,-2.3505451679229736
1760498666.2058089,0.02,0.004163619130849838,-0.04059383645653725,0.05337606370449066,-0.010070567019283772,-0.015037592500448227,-0.9998362064361572,0.619583010673523,0.1681915521621704,0.3653515577316284,-0.04532989114522934,0.0007219910621643066,0.16252195835113525,0.2463999092578888,0.053835928440093994,-0.1339414119720459,-0.22249983251094818,-0.1788790225982666,0.08710592985153198,0.19771677255630493,0.03644227981567383,-0.010408163070678711,0.0,0.0,0.0,0.0,-0.00020225784101057798,0.01630418561398983,-0.018178915604948997,-0.025626910850405693,-0.06812343746423721,0.028909582644701004,-0.017729496583342552,-0.04343586787581444,0.024671778082847595,-0.010298230685293674,0.023720789700746536,-0.03981674835085869,-0.37621963024139404,-0.22343383729457855,-0.17565307021141052,-0.4148653447628021,1.2488534450531006,0.18034130334854126,0.10262170433998108,0.3957079350948334,-0.2431800365447998,-0.8538747429847717,0.380018025636673,0.2675824463367462,0.8560092449188232,-1.1299545764923096,-1.025130033493042,0.009072765707969666,-1.3154922723770142,-1.9314361810684204,-0.27108046412467957,-2.4219181537628174
1760498666.258784,0.02,0.010088808834552765,-0.0822543278336525,0.061919666826725006,-0.015528683550655842,-0.016352878883481026,-0.9997456669807434,0.619583010673523,0.1681915521621704,0.36313796043395996,-0.044516388326883316,0.009909451007843018,0.14625585079193115,0.22344908118247986,0.014543592929840088,-0.1047905683517456,-0.22711217403411865,-0.19598981738090515,0.09052234888076782,0.1941649168729782,0.0447847843170166,-0.02983105182647705,0.0,0.0,0.0,0.0,0.004867522045969963,0.023981133475899696,-0.05217663571238518,-0.0660177692770958,-0.09968354552984238,0.0447857491672039,-0.012102406471967697,-0.04609784856438637,0.022348621860146523,-0.010863416828215122,0.01802259311079979,-0.05002856254577637,-0.4364336431026459,-0.1300581991672516,-0.05179297924041748,-0.3943183124065399,2.0034334659576416,0.24575361609458923,-0.0853826254606247,0.07017654180526733,-0.2417958676815033,-0.44832107424736023,0.10437268018722534,0.2596149742603302,0.8127363920211792,-1.450258731842041,-1.3653340339660645,-0.05594782531261444,-1.2505826950073242,-1.9233113527297974,-0.22871163487434387,-2.480607032775879
1760498666.311014,0.02,0.021803155541419983,-0.09579192101955414,0.07530253380537033,-0.0227336585521698,-0.018606502562761307,-0.9995684027671814,0.619583010673523,0.1681915521621704,0.360531210899353,-0.04217575117945671,0.022413432598114014,0.12031257152557373,0.187679260969162,-0.03394210338592529,-0.06503075361251831,-0.2302822470664978,-0.21157622337341309,0.09437847137451172,0.19093456864356995,0.04954022169113159,-0.05008971691131592,0.0,0.0,0.0,0.0,0.010779847390949726,0.031802698969841,-0.07414964586496353,-0.09170015156269073,-0.11348992586135864,0.06267773360013962,-0.008672869764268398,-0.036758460104465485,0.002405647886916995,-0.009836329147219658,0.006636469159275293,-0.047630131244659424,-0.4666527807712555,0.029539650306105614,-0.1805098056793213,-0.3567369282245636,2.192816734313965,0.22783520817756653,-0.2506113052368164,0.06582337617874146,-0.17857268452644348,0.0012475037947297096,-0.19140806794166565,0.19426915049552917,0.7977835536003113,-1.6559979915618896,-1.6876037120819092,-0.11376728117465973,-1.3638341426849365,-1.7365063428878784,-0.11447181552648544,-2.385850191116333
1760498666.3647294,0.02,-0.040321752429008484,-0.07030072063207626,0.07043136656284332,-0.02906155027449131,-0.016276229172945023,-0.9994450807571411,0.619583010673523,0.1681915521621704,0.35786116123199463,-0.04358810931444168,0.03483706712722778,0.09469294548034668,0.1467471718788147,-0.07084226608276367,-0.03680074214935303,-0.23575064539909363,-0.22362199425697327,0.09820085763931274,0.18340648710727692,0.04780304431915283,-0.060999155044555664,0.0,0.0,0.0,0.0,-0.0016015265136957169,0.029775047674775124,-0.06324197351932526,-0.09160171449184418,-0.07203509658575058,0.033771928399801254,-0.0179720651358366,-0.026173070073127747,0.017307912930846214,-0.020684927701950073,-0.009999622590839863,-0.018407663330435753,-0.4224949777126312,-0.030323147773742676,-0.23754723370075226,-0.32864901423454285,1.5744774341583252,0.09736743569374084,-0.28621941804885864,0.13962829113006592,0.12837305665016174,0.24209721386432648,-0.37898579239845276,0.05681376904249191,0.7420713901519775,-1.36604642868042,-1.7867844104766846,-0.14865972101688385,-1.421140193939209,-1.252479076385498,-0.46994373202323914,-2.2118802070617676
1760498666.4195611,0.02,-0.02866332232952118,-0.023416701704263687,0.05201052874326706,-0.032349519431591034,-0.013184805400669575,-0.9993896484375,0.619583010673523,0.1681915521621704,0.35558927059173584,-0.04510753974318504,0.045194029808044434,0.07658946514129639,0.12112879753112793,-0.08338046073913574,-0.02780163288116455,-0.23813778162002563,-0.2257419228553772,0.10087049007415771,0.1765252649784088,0.04205411672592163,-0.06129884719848633,0.0,0.0,0.0,0.0,-0.0015551497926935554,0.02421371079981327,-0.03607908636331558,-0.04286978766322136,-0.0077942111529409885,0.0053172786720097065,-0.000384784972993657,0.003860789118334651,0.006562643684446812,-0.013865179382264614,-0.01608535461127758,0.0071122655645012856,-0.327140212059021,-0.2679135203361511,-0.2568504214286804,-0.3109423518180847,0.8887434005737305,0.04071119427680969,-0.2362631857395172,0.33996567130088806,0.2593533396720886,0.15803436934947968,-0.4114561975002289,0.03705693036317825,0.6933584809303284,-0.8930056095123291,-1.6307346820831299,-0.13983087241649628,-1.307668685913086,-1.2705556154251099,-0.7954300045967102,-2.048536539077759
1760498666.47077,0.02,0.009738465771079063,0.004584049340337515,0.04283639416098595,-0.03259676694869995,-0.014183972962200642,-0.9993679523468018,0.619583010673523,0.1681915521621704,0.3537313938140869,-0.04177534207701683,0.05234408378601074,0.06815111637115479,0.12106039375066757,-0.0724867582321167,-0.03157603740692139,-0.23174737393856049,-0.2156183123588562,0.09833186864852905,0.17545631527900696,0.035715341567993164,-0.05779242515563965,0.0,0.0,0.0,0.0,0.00805492140352726,0.013465422205626965,-0.013214264996349812,0.006332422140985727,0.037230994552373886,-0.010358824394643307,0.018382471054792404,0.03296443447470665,-0.007384491618722677,-0.002106201136484742,-0.016890449449419975,0.010821613483130932,-0.3086807131767273,-0.5078219771385193,-0.2640741169452667,-0.2733929455280304,0.28456276655197144,0.07933413982391357,-0.14344312250614166,0.6642226576805115,0.16265970468521118,-0.16056318581104279,-0.2738150358200073,0.14218419790267944,0.6789835691452026,-0.5124334692955017,-1.3487629890441895,-0.14259324967861176,-1.1462013721466064,-1.7775623798370361,-0.9741846919059753,-1.7849156856536865
1760498666.5270693,0.02,-0.0003829431952908635,-0.0002720099873840809,0.04624554514884949,-0.032420895993709564,-0.01447652094066143,-0.9993694424629211,0.619583010673523,0.1681915521621704,0.35188019275665283,-0.038047660142183304,0.056374967098236084,0.06534349918365479,0.12409757822751999,-0.0536656379699707,-0.03350961208343506,-0.22635477781295776,-0.19893884658813477,0.09411519765853882,0.17485696077346802,0.028385519981384277,-0.0543285608291626,0.0,0.0,0.0,0.0,0.009389027021825314,0.00764272129163146,-0.004206925630569458,0.00775982765480876,0.04961538687348366,-0.005930024664849043,0.017601508647203445,0.042146578431129456,0.0001295477122766897,-0.0013519827043637633,-0.018731264397501945,0.0066470131278038025,-0.30366477370262146,-0.5985478162765503,-0.07626215368509293,-0.24906587600708008,-0.2369798719882965,0.09319823980331421,-0.05421611666679382,0.9266486167907715,0.05190051347017288,-0.4857117831707001,-0.051305949687957764,0.19931939244270325,0.7156333327293396,-0.3591155409812927,-0.9489744305610657,-0.1251848191022873,-1.1884758472442627,-2.302814245223999,-1.0746009349822998,-1.5320377349853516
1760498666.5784318,0.02,-0.0005306967068463564,-0.0002091142232529819,0.05456619709730148,-0.03240057826042175,-0.014372903853654861,-0.9993715882301331,0.619583010673523,0.1681915521621704,0.3497128486633301,-0.03330599516630173,0.058336079120635986,0.06569159030914307,0.12822329998016357,-0.03202688694000244,-0.03693854808807373,-0.22409646213054657,-0.17989465594291687,0.09419018030166626,0.1747070997953415,0.021245360374450684,-0.05104029178619385,0.0,0.0,0.0,0.0,0.01258571445941925,0.0015025982866063714,0.004021179396659136,0.01139510702341795,0.0550871267914772,-0.010089961811900139,0.013198993168771267,0.04996344819664955,-0.011712074279785156,0.0006508146179839969,-0.017173051834106445,0.007945415563881397,-0.3216310143470764,-0.6217325925827026,0.02098437026143074,-0.2676210105419159,-0.5969367027282715,-0.015989691019058228,-0.016739293932914734,1.148652195930481,-0.020988397300243378,-0.7115001082420349,0.15414723753929138,0.1302584409713745,0.7743791937828064,-0.43657180666923523,-0.7158802151679993,-0.08817023038864136,-1.3517053127288818,-2.5322189331054688,-1.0476750135421753,-1.5530521869659424
1760498666.6289582,0.02,-0.04669872298836708,0.0015406422317028046,0.06550554931163788,-0.03210539370775223,-0.011664481833577156,-0.9994164109230042,0.619583010673523,0.1681915521621704,0.34704720973968506,-0.02969326637685299,0.05783534049987793,0.06989443302154541,0.13111519813537598,-0.009828805923461914,-0.04603534936904907,-0.22466571629047394,-0.15864282846450806,0.0959213376045227,0.17222872376441956,0.01305931806564331,-0.04502451419830322,0.0,0.0,0.0,0.0,0.0055311000905931,-0.004575633909553289,0.01176579762250185,0.0050170025788247585,0.055437322705984116,-0.026120608672499657,0.0005439639207907021,0.04763518646359444,-0.00015929192886687815,-0.008207443170249462,-0.020372172817587852,0.013898508623242378,-0.31931063532829285,-0.5784104466438293,-0.1254095882177353,-0.28103265166282654,-0.8481271266937256,-0.13607218861579895,0.0024819523096084595,1.1495044231414795,-0.06010185927152634,-0.8855359554290771,0.22079750895500183,0.004071451723575592,0.8059276938438416,-0.457745760679245,-0.5868983268737793,-0.06444531679153442,-1.436842441558838,-2.4408535957336426,-1.2800852060317993,-1.5129238367080688
1760498666.6834784,0.02,-0.04914101958274841,0.006182607263326645,0.06667020171880722,-0.0315483883023262,-0.007468641735613346,-0.9994743466377258,0.619583010673523,0.1681915521621704,0.34430229663848877,-0.027940994128584862,0.05431610345840454,0.07666897773742676,0.1332966536283493,0.010010838508605957,-0.05757749080657959,-0.2271776795387268,-0.14395925402641296,0.09666997194290161,0.16880352795124054,0.005135774612426758,-0.03778553009033203,0.0,0.0,0.0,0.0,0.004219858907163143,-0.011894064955413342,0.01886039972305298,0.006148729007691145,0.0463743582367897,-0.027609148994088173,-0.009018986485898495,0.02530650608241558,-0.031448524445295334,-0.007506034802645445,-0.018007580190896988,0.015260170213878155,-0.2876124680042267,-0.5266451239585876,-0.5891506671905518,-0.3047636151313782,-1.0515400171279907,-0.21418073773384094,0.043224915862083435,1.174609899520874,-0.05129259079694748,-0.9745241403579712,0.30718711018562317,0.0005211010575294495,0.848211944103241,-0.3262171447277069,-0.47717854380607605,-0.02614760398864746,-1.4149558544158936,-2.241894245147705,-1.118192434310913,-1.5691167116165161
1760498666.738535,0.02,-0.026041924953460693,0.01766248606145382,0.0748826116323471,-0.03060242533683777,-0.004294302314519882,-0.9995223879814148,0.619583010673523,0.1681915521621704,0.34144341945648193,-0.026823602616786957,0.046407222747802734,0.0832834243774414,0.13689827919006348,0.02349787950515747,-0.06997174024581909,-0.22945085167884827,-0.14132070541381836,0.09953474998474121,0.16644352674484253,-0.0038011670112609863,-0.03202176094055176,0.0,0.0,0.0,0.0,0.0019208617741242051,-0.02234267257153988,0.015489545650780201,0.011380928568542004,0.02849280647933483,-0.026975620537996292,-0.006026602350175381,0.002313731936737895,0.019505705684423447,-0.004475629422813654,-0.022812074050307274,0.0121041564270854,-0.20137052237987518,-0.42690905928611755,-0.35595279932022095,-0.2685886323451996,-1.2662527561187744,-0.2890417277812958,0.07870805263519287,1.1260104179382324,0.09995121508836746,-0.9699885249137878,0.2773859202861786,-0.014263145625591278,0.9407402873039246,-0.10390648990869522,-0.33874720335006714,-0.03530505299568176,-0.9621868133544922,-1.7107867002487183,-1.0807888507843018,-1.2080222368240356
1760498666.7926452,0.02,-0.0119398208335042,0.02088027447462082,0.06994682550430298,-0.0289886686950922,-0.0027934480458498,-0.9995758533477783,0.619583010673523,0.1681915521621704,0.33859121799468994,-0.028834598138928413,0.03782397508621216,0.08690273761749268,0.1425946056842804,0.034174442291259766,-0.07921594381332397,-0.23006471991539001,-0.1398288607597351,0.10259175300598145,0.16602186858654022,-0.011802315711975098,-0.02673351764678955,0.0,0.0,0.0,0.0,-0.008894969709217548,-0.021629221737384796,0.005572489928454161,0.015399872325360775,0.02468208037316799,-0.0199443306773901,-0.0019902358762919903,0.0011904791463166475,0.012786747887730598,0.000519179564435035,-0.018123595044016838,0.01164208073168993,-0.21681974828243256,-0.42500874400138855,-0.32875993847846985,-0.2883703410625458,-1.3751611709594727,-0.2524394392967224,0.11787131428718567,1.239385724067688,0.10633308440446854,-1.0991489887237549,0.4804326593875885,0.07022417336702347,0.8699111342430115,0.01766093820333481,-0.3064316511154175,0.023567453026771545,-1.0232973098754883,-1.775568962097168,-1.028693437576294,-1.3431380987167358
1760498666.8463922,0.02,0.0010259822010993958,0.020044909790158272,0.06755736470222473,-0.027351051568984985,-0.0024434812366962433,-0.9996228814125061,0.619583010673523,0.1681915521621704,0.33586108684539795,-0.03426680341362953,0.02988344430923462,0.0862724781036377,0.15001074969768524,0.04335993528366089,-0.08732646703720093,-0.2287827432155609,-0.13807669281959534,0.10226845741271973,0.16762876510620117,-0.018057584762573242,-0.02163982391357422,0.0,0.0,0.0,0.0,-0.016574526205658913,-0.019856726750731468,-0.004991190508008003,0.0192683394998312,0.02053007297217846,-0.016830390319228172,0.0023738527670502663,0.002001998946070671,0.004526752047240734,0.005461977794766426,-0.013970832340419292,0.011378234252333641,-0.25002047419548035,-0.41971084475517273,-0.3083485960960388,-0.31128671765327454,-1.3572940826416016,-0.22419118881225586,0.12127834558486938,1.249548316001892,0.09470493346452713,-1.1825242042541504,0.5617117881774902,0.09019724279642105,0.8540606498718262,0.05274399369955063,-0.2888433337211609,0.05395440757274628,-1.1043167114257812,-1.7729864120483398,-0.9431208968162537,-1.4243227243423462
1760498666.9006035,0.02,0.0031143296509981155,0.024041350930929184,0.0691642090678215,-0.025541525334119797,-0.0024535031989216805,-0.9996707439422607,0.619583010673523,0.1681915521621704,0.33313119411468506,-0.042366623878479004,0.02238708734512329,0.0832371711730957,0.15852852165699005,0.051521897315979004,-0.09519588947296143,-0.22647356986999512,-0.13581439852714539,0.09921979904174805,0.17035512626171112,-0.023092269897460938,-0.015850186347961426,0.0,0.0,0.0,0.0,-0.0220891535282135,-0.018752694129943848,-0.008553342893719673,0.021966584026813507,0.018759306520223618,-0.016819681972265244,0.00437036482617259,0.003262791084125638,-0.0011165920877829194,0.007503799628466368,-0.011465937830507755,0.014104227535426617,-0.27951666712760925,-0.4041321277618408,-0.2903760075569153,-0.33266302943229675,-1.310495138168335,-0.19025695323944092,0.11608865857124329,1.2092846632003784,0.10532177239656448,-1.2171680927276611,0.590668797492981,0.09574366360902786,0.8508177995681763,0.039379291236400604,-0.2684902250766754,0.07563145458698273,-1.1900197267532349,-1.7363892793655396,-0.8658148050308228,-1.487209439277649
1760498666.961473,0.02,-0.0009718704968690872,0.0268489308655262,0.07086428254842758,-0.023468513041734695,-0.002196085639297962,-0.9997221827507019,0.619583010673523,0.1681915521621704,0.3303335905075073,-0.05187844857573509,0.015127301216125488,0.08032429218292236,0.16753463447093964,0.0589829683303833,-0.10304319858551025,-0.22393293678760529,-0.13277524709701538,0.09385424852371216,0.17338299751281738,-0.02722454071044922,-0.00920093059539795,0.0,0.0,0.0,0.0,-0.023864319548010826,-0.018069401383399963,-0.006249860394746065,0.022970357909798622,0.01726936362683773,-0.017319075763225555,0.004743645898997784,0.005401774775236845,-0.007146415766328573,0.007961132563650608,-0.00923547800630331,0.015808314085006714,-0.2979205548763275,-0.38841891288757324,-0.27695927023887634,-0.3494715094566345,-1.267099142074585,-0.15801402926445007,0.10308921337127686,1.1418050527572632,0.12594830989837646,-1.2223210334777832,0.6206005811691284,0.0878664180636406,0.8233222365379333,0.031544290482997894,-0.2473544478416443,0.09588980674743652,-1.2607840299606323,-1.6833863258361816,-0.8251701593399048,-1.537500023841858
