vaithak/rl_training/csvs/data_obs_m20_8_env_0.csv
timestamp,dt,base_ang_vel_0,base_ang_vel_1,base_ang_vel_2,projected_gravity_0,projected_gravity_1,projected_gravity_2,velocity_commands_0,velocity_commands_1,velocity_commands_2,joint_pos_0,joint_pos_1,joint_pos_2,joint_pos_3,joint_pos_4,joint_pos_5,joint_pos_6,joint_pos_7,joint_pos_8,joint_pos_9,joint_pos_10,joint_pos_11,joint_pos_12,joint_pos_13,joint_pos_14,joint_pos_15,joint_vel_0,joint_vel_1,joint_vel_2,joint_vel_3,joint_vel_4,joint_vel_5,joint_vel_6,joint_vel_7,joint_vel_8,joint_vel_9,joint_vel_10,joint_vel_11,joint_vel_12,joint_vel_13,joint_vel_14,joint_vel_15,actions_0,actions_1,actions_2,actions_3,actions_4,actions_5,actions_6,actions_7,actions_8,actions_9,actions_10,actions_11,actions_12,actions_13,actions_14,actions_15
1760498766.9866192,0.02,0.0640094056725502,-0.06946008652448654,0.18605314195156097,-0.018660414963960648,-0.0038123568519949913,-0.9998186230659485,0.5457854270935059,-0.16934871673583984,0.6662546396255493,-0.09421424567699432,-0.034963130950927734,-0.04989778995513916,0.11921315640211105,0.10875517129898071,-0.03544628620147705,-0.18198581039905548,-0.07790613174438477,0.08010298013687134,0.11393518000841141,-0.002329230308532715,-0.05661821365356445,0.0,0.0,0.0,0.0,0.015895700082182884,-0.020526889711618423,-0.023305391892790794,0.004966553766280413,-0.0028367117047309875,0.007324883248656988,-0.03784392029047012,-0.01925351843237877,0.04897726699709892,0.08013903349637985,-0.057783342897892,0.025118200108408928,-0.06271152943372726,-0.49042150378227234,-0.3101438879966736,-0.3883384168148041,-0.3520336151123047,-0.12951526045799255,-0.23145252466201782,-0.9177475571632385,0.3919649124145508,-0.5403515100479126,0.044947803020477295,-0.666530430316925,0.5307427644729614,1.7900100946426392,-0.028912052512168884,-0.04796774685382843,-0.20762097835540771,-1.8025760650634766,-1.3037738800048828,-1.452953577041626
1760498767.0422342,0.02,0.08374382555484772,-0.03387270122766495,0.15861274302005768,-0.022276151925325394,-0.010741333477199078,-0.9996941685676575,0.5457854270935059,-0.16934871673583984,0.6595169305801392,-0.09002886712551117,-0.039315998554229736,-0.06650781631469727,0.12295980751514435,0.1068865954875946,-0.028885304927825928,-0.19345547258853912,-0.09181869029998779,0.10727667808532715,0.1418527364730835,-0.026315629482269287,-0.04824948310852051,0.0,0.0,0.0,0.0,0.007664959877729416,-0.009308780543506145,-0.03946979343891144,0.00804825872182846,-0.004659720696508884,0.019060244783759117,-0.028208648785948753,-0.03993937373161316,0.07329680025577545,0.060148563235998154,-0.059426452964544296,0.016091363504529,-0.03244935721158981,-0.47125244140625,-0.2598089873790741,-0.4333239495754242,-0.162433922290802,-0.06631997227668762,-0.3275957405567169,-0.4869913160800934,0.39399996399879456,-0.4435131847858429,0.35329678654670715,-0.6147007942199707,0.5517178177833557,0.7486454844474792,-0.25656989216804504,0.09101502597332001,-0.05289167910814285,-1.610274076461792,-1.0552995204925537,-1.8296011686325073
1760498767.1036255,0.02,0.132295161485672,0.0453503280878067,0.12612926959991455,-0.02126268297433853,-0.021657275035977364,-0.999539315700531,0.5457854270935059,-0.16934871673583984,0.6539760828018188,-0.08380834758281708,-0.04009389877319336,-0.08403950929641724,0.1310442090034485,0.10316106677055359,-0.014347612857818604,-0.18614935874938965,-0.10099780559539795,0.12396031618118286,0.15844504535198212,-0.044182658195495605,-0.04754841327667236,0.0,0.0,0.0,0.0,0.014939853921532631,-0.001849065418355167,-0.04054022580385208,0.019447283819317818,-0.008495243266224861,0.0414978563785553,0.03681114315986633,-0.011471266858279705,0.02396531216800213,0.022758781909942627,-0.03387526795268059,-0.0017263636691495776,-0.05461181327700615,-0.4260006844997406,-0.18221089243888855,-0.2781047523021698,-0.04732978716492653,0.13807228207588196,-0.43870797753334045,0.34665003418922424,0.33423614501953125,-0.2791541814804077,0.880882978439331,-0.26271259784698486,0.5555979609489441,-1.1655783653259277,-0.5144227743148804,0.17906557023525238,-0.02684817463159561,-1.377812147140503,-0.6292033791542053,-2.1949594020843506
1760498767.156725,0.02,0.1243157610297203,0.10649017989635468,0.1293172687292099,-0.014493606053292751,-0.031391557306051254,-0.9994020462036133,0.5457854270935059,-0.16934871673583984,0.6487418413162231,-0.07709415256977081,-0.03292381763458252,-0.0891847014427185,0.13975836336612701,0.1008080244064331,4.7206878662109375e-05,-0.15725962817668915,-0.09438282251358032,0.11910128593444824,0.15633870661258698,-0.04932999610900879,-0.04611563682556152,0.0,0.0,0.0,0.0,0.02099967934191227,0.023823555558919907,-0.0089357765391469,0.023552581667900085,-0.003326623933389783,0.02963619865477085,0.08868473023176193,0.024935012683272362,-0.017165539786219597,-0.010332486592233181,-0.007335011847317219,0.01841447688639164,-0.1946074366569519,-0.34936457872390747,-0.1329316943883896,-0.2927570641040802,0.2076748013496399,0.44037556648254395,-0.4523365795612335,0.7093959450721741,0.17610996961593628,-0.2859993278980255,0.8905808925628662,0.11857032030820847,0.5741598010063171,-2.46065092086792,-0.6307393312454224,0.13366185128688812,-0.5079275369644165,-1.465209722518921,-0.12073322385549545,-2.632690668106079
1760498767.2172232,0.02,0.036495909094810486,0.09345930069684982,0.15253840386867523,-0.007051671389490366,-0.035308267921209335,-0.9993515610694885,0.5457854270935059,-0.16934871673583984,0.6429649591445923,-0.07363756746053696,-0.02006363868713379,-0.086669921875,0.14498382806777954,0.10189807415008545,0.001825571060180664,-0.1156923919916153,-0.07226037979125977,0.08565670251846313,0.14705196022987366,-0.050590336322784424,-0.032505035400390625,0.0,0.0,0.0,0.0,0.010948985815048218,0.03354813903570175,0.008332519792020321,0.012175840325653553,0.004628800321370363,-0.006957394536584616,0.10760589689016342,0.05669942498207092,-0.08465228974819183,-0.026280084624886513,-0.0017369752749800682,0.038615260273218155,-0.30421561002731323,-0.29914599657058716,-0.10349465906620026,-0.42002472281455994,0.4676899313926697,0.3963046967983246,-0.46143969893455505,0.7492990493774414,0.12789463996887207,-0.29329028725624084,0.5791984796524048,0.13382336497306824,0.3970661461353302,-2.9474494457244873,-0.6104149222373962,0.09351085126399994,-1.0355703830718994,-1.6197725534439087,0.1155729666352272,-2.9229795932769775
1760498767.2743862,0.02,-0.036034829914569855,0.07861645519733429,0.16720053553581238,-0.0009638415649533272,-0.033050477504730225,-0.9994532465934753,0.5457854270935059,-0.16934871673583984,0.6365023851394653,-0.07499770075082779,-0.008157849311828613,-0.08142894506454468,0.14521270990371704,0.10560056567192078,-0.005980193614959717,-0.07576919347047806,-0.04992729425430298,0.04482215642929077,0.13156035542488098,-0.049753427505493164,-0.016962051391601562,0.0,0.0,0.0,0.0,-0.0016019862378016114,0.02740493230521679,0.016644878312945366,-0.000605426961556077,0.009361048229038715,-0.021453000605106354,0.09180095046758652,0.044040385633707047,-0.08216511458158493,-0.04134165868163109,0.004304211586713791,0.03677701950073242,-0.3131256103515625,-0.3084050416946411,-0.06527460366487503,-0.47765856981277466,0.4622984528541565,0.26708945631980896,-0.5156497955322266,0.692886233329773,0.28609514236450195,-0.18570657074451447,0.28216323256492615,0.013375341892242432,0.2517243027687073,-2.6493711471557617,-0.5336760878562927,0.11194689571857452,-1.1892600059509277,-1.4709464311599731,0.2245556116104126,-2.8888885974884033
1760498767.3306267,0.02,-0.06419570744037628,0.07497936487197876,0.16970956325531006,0.0046209897845983505,-0.02760566771030426,-0.9996082186698914,0.5457854270935059,-0.16934871673583984,0.6297546625137329,-0.07939330488443375,0.0001957416534423828,-0.07355034351348877,0.1422291398048401,0.10841870307922363,-0.014257073402404785,-0.04361389949917793,-0.03605222702026367,0.013123750686645508,0.11259753257036209,-0.0468403697013855,-0.0029516220092773438,0.0,0.0,0.0,0.0,-0.007305904757231474,0.017649641260504723,0.023327482864260674,-0.006489563267678022,0.0038472635205835104,-0.017453422769904137,0.07211040705442429,0.022640667855739594,-0.05833597853779793,-0.047041647136211395,0.00921043660491705,0.0323546901345253,-0.2988598048686981,-0.30216526985168457,-0.029395287856459618,-0.5008378624916077,0.40977343916893005,0.205140620470047,-0.5174952745437622,0.5795497298240662,0.39127349853515625,-0.14115764200687408,0.1751132607460022,0.017343394458293915,0.1339215338230133,-1.931862711906433,-0.465623676776886,0.19659928977489471,-1.1673617362976074,-1.3122471570968628,0.25051626563072205,-2.7424662113189697
1760498767.3844256,0.02,-0.07063935697078705,0.07009924203157425,0.1671672910451889,0.010076051577925682,-0.021390005946159363,-0.9997204542160034,0.5457854270935059,-0.16934871673583984,0.6229985952377319,-0.08489517867565155,0.005461513996124268,-0.06377768516540527,0.13811492919921875,0.10901716351509094,-0.019522666931152344,-0.02239800989627838,-0.03247213363647461,-0.003157496452331543,0.09273311495780945,-0.04228782653808594,0.0086212158203125,0.0,0.0,0.0,0.0,-0.009385958313941956,0.010678580962121487,0.02609647624194622,-0.008828866295516491,-0.0010033678263425827,-0.009739273227751255,0.04309006780385971,-0.0011943908175453544,-0.02314961515367031,-0.048039279878139496,0.01306762732565403,0.02512935735285282,-0.28696343302726746,-0.3076667785644531,-0.008750177919864655,-0.5031692385673523,0.33568164706230164,0.17968526482582092,-0.48197290301322937,0.3854006230831146,0.4438653588294983,-0.168728306889534,0.05596950650215149,0.017290771007537842,0.09203514456748962,-1.0504944324493408,-0.397396057844162,0.25149059295654297,-1.127190113067627,-1.2003015279769897,0.1959775984287262,-2.566088914871216
1760498767.4390085,0.02,-0.07368049025535583,0.04692983627319336,0.1661783754825592,0.014470890164375305,-0.014792146161198616,-0.999785840511322,0.5457854270935059,-0.16934871673583984,0.6162482500076294,-0.09139011055231094,0.010090947151184082,-0.05330193042755127,0.13315047323703766,0.10886240005493164,-0.023184657096862793,-0.01787707209587097,-0.03887951374053955,-0.0031336545944213867,0.07220713794231415,-0.035169124603271484,0.014315605163574219,0.0,0.0,0.0,0.0,-0.01084303017705679,0.010353070683777332,0.026030777022242546,-0.01113653089851141,-0.001188766211271286,-0.007998837158083916,-0.0011545916786417365,-0.024410909041762352,0.012278890237212181,-0.04910127818584442,0.02123669907450676,0.0051437015645205975,-0.28491443395614624,-0.3337588310241699,-0.012735332362353802,-0.4994173049926758,0.185760959982872,0.17534711956977844,-0.42919373512268066,0.13924142718315125,0.4419021010398865,-0.2439536601305008,-0.1369819939136505,0.0029015615582466125,0.13289330899715424,-0.2209690511226654,-0.28504157066345215,0.23599597811698914,-1.1071723699569702,-1.2155221700668335,0.07300875335931778,-2.4028313159942627
1760498767.4973378,0.02,-0.10051850974559784,0.006428837776184082,0.16513295471668243,0.016025902703404427,-0.006944380700588226,-0.9998474717140198,0.5457854270935059,-0.16934871673583984,0.6095196008682251,-0.09960007667541504,0.012413561344146729,-0.044716835021972656,0.12622371315956116,0.1083802580833435,-0.027930021286010742,-0.03375646471977234,-0.05264270305633545,0.0074707865715026855,0.05013453960418701,-0.0236433744430542,0.008014261722564697,0.0,0.0,0.0,0.0,-0.02071242220699787,0.002833794569596648,0.020682651549577713,-0.01802620105445385,-0.0020532661583274603,-0.011369873769581318,-0.053151216357946396,-0.039207231253385544,0.030640212818980217,-0.05490739271044731,0.0338001511991024,-0.028072867542505264,-0.27131104469299316,-0.35131368041038513,-0.07233923673629761,-0.48806285858154297,-0.03322846069931984,0.14209315180778503,-0.3505452871322632,-0.1464127004146576,0.41671022772789,-0.3417031764984131,-0.33515432476997375,-0.0010186955332756042,0.21159547567367554,0.57177734375,-0.1477268934249878,0.14709621667861938,-1.0871585607528687,-1.3417985439300537,-0.07815062254667282,-2.1985433101654053
1760498767.5487552,0.02,-0.07833386212587357,-0.025281332433223724,0.1697639673948288,0.014638908207416534,-0.0003602653741836548,-0.9998927712440491,0.5457854270935059,-0.16934871673583984,0.6027499437332153,-0.1066281646490097,0.01132112741470337,-0.03910195827484131,0.12031634151935577,0.10723873972892761,-0.03217345476150513,-0.05522709712386131,-0.06406491994857788,0.014259874820709229,0.02965240366756916,-0.007907092571258545,-0.012069106101989746,0.0,0.0,0.0,0.0,-0.014339570887386799,-0.004039257764816284,0.006548651959747076,-0.013445342890918255,-0.0033329257275909185,-0.008582519367337227,-0.05237196758389473,-0.023863142356276512,0.010000360198318958,-0.04964389279484749,0.04138772189617157,-0.05790324881672859,-0.324482798576355,-0.3802880346775055,-0.11609961092472076,-0.45867258310317993,-0.27899545431137085,0.10092654824256897,-0.2503008544445038,-0.3867182433605194,0.38828030228614807,-0.4597305357456207,-0.37451237440109253,0.00942181795835495,0.316571980714798,1.2255445718765259,-0.03789202868938446,-0.009391829371452332,-0.9674339294433594,-1.533814787864685,-0.33375391364097595,-1.8858009576797485
1760498767.6045506,0.02,-0.03649221733212471,-0.036230869591236115,0.18463926017284393,0.012024817988276482,0.0034084543585777283,-0.9999219179153442,0.5457854270935059,-0.16934871673583984,0.5955241918563843,-0.11073210835456848,0.009611725807189941,-0.03378325700759888,0.11750933527946472,0.10592037439346313,-0.03414285182952881,-0.07486968487501144,-0.07052743434906006,0.0182761549949646,0.014375831931829453,0.008661627769470215,-0.03685200214385986,0.0,0.0,0.0,0.0,-0.006471206434071064,-0.0023220779839903116,0.014019111171364784,-0.004353625234216452,-0.0030739910434931517,-0.0033126696944236755,-0.04731845483183861,-0.014234776608645916,0.011094319634139538,-0.03240354359149933,0.04042326286435127,-0.06141321733593941,-0.22199685871601105,-0.41210970282554626,-0.1650988757610321,-0.40311548113822937,-0.4810662865638733,0.030039846897125244,-0.2019924372434616,-0.6310849785804749,0.3887934684753418,-0.5406537652015686,-0.5066719055175781,-0.040083255618810654,0.4576396644115448,1.8225659132003784,0.07699732482433319,-0.17646507918834686,-0.9419167637825012,-1.6845678091049194,-0.5308446288108826,-1.6074215173721313
1760498767.662968,0.02,-0.03365885838866234,-0.04839591309428215,0.19594262540340424,0.00852141808718443,0.005837629549205303,-0.999946653842926,0.5457854270935059,-0.16934871673583984,0.58781898021698,-0.11345165222883224,0.006654679775238037,-0.031489014625549316,0.11603761464357376,0.10599827766418457,-0.03636765480041504,-0.09435373544692993,-0.07249027490615845,0.023062467575073242,0.006508187390863895,0.022513151168823242,-0.05791175365447998,0.0,0.0,0.0,0.0,-0.0050515467301011086,-0.006998018361628056,-0.0018327481811866164,-0.004208752885460854,0.0015501318266615272,-0.006042148917913437,-0.05011934041976929,-0.0021858010441064835,0.012414495460689068,-0.012877130880951881,0.030723709613084793,-0.04644627496600151,-0.23226629197597504,-0.44594645500183105,-0.23587916791439056,-0.36502912640571594,-0.6701844930648804,-0.11671203374862671,-0.2021939754486084,-0.9281519055366516,0.38626375794410706,-0.6017992496490479,-0.5677934288978577,-0.12748244404792786,0.5414925813674927,2.3240339756011963,0.15634071826934814,-0.3203704357147217,-0.8272340297698975,-1.8856412172317505,-0.8879520297050476,-1.452683925628662
1760498767.7165682,0.02,-0.009960133582353592,-0.05047241598367691,0.1998853236436844,0.004708629101514816,0.006784623954445124,-0.9999659061431885,0.5457854270935059,-0.16934871673583984,0.5798565149307251,-0.11410882323980331,0.0008858442306518555,-0.030383050441741943,0.11564407497644424,0.10690262913703918,-0.036962926387786865,-0.11339952796697617,-0.07204359769821167,0.030747830867767334,0.00885351374745369,0.031949639320373535,-0.07134377956390381,0.0,0.0,0.0,0.0,0.0010568051366135478,-0.015790186822414398,0.002823855495080352,-0.000913682219106704,0.0025549910496920347,0.00014297837333288044,-0.04798148199915886,0.0020456251222640276,0.021048851311206818,0.015198053792119026,0.018960243090987206,-0.025961697101593018,-0.17607006430625916,-0.47702786326408386,-0.28317347168922424,-0.31806421279907227,-0.6733965277671814,-0.16019248962402344,-0.18991953134536743,-1.2076343297958374,0.41969960927963257,-0.586823582649231,-0.5202054977416992,-0.2339455485343933,0.5795226693153381,2.5863125324249268,0.20245665311813354,-0.37582927942276,-0.7487257719039917,-1.8998807668685913,-1.1117005348205566,-1.2514739036560059
1760498767.7755399,0.02,0.014761291444301605,-0.05902044475078583,0.19404292106628418,0.00045342568773776293,0.005743875168263912,-0.9999834299087524,0.5457854270935059,-0.16934871673583984,0.5719708204269409,-0.11141073703765869,-0.006593108177185059,-0.029941439628601074,0.11642186343669891,0.10750618577003479,-0.035851120948791504,-0.13111048936843872,-0.0710592269897461,0.04141998291015625,0.022249892354011536,0.03529900312423706,-0.07743406295776367,0.0,0.0,0.0,0.0,0.00951415579766035,-0.01930609717965126,-0.0029110030736774206,0.0014516955707222223,0.001389303128235042,0.002546407748013735,-0.04434465244412422,0.0027724916581064463,0.02648107521235943,0.04211277887225151,0.0019557166378945112,-0.009272205643355846,-0.15982197225093842,-0.48682624101638794,-0.3151736855506897,-0.2900884747505188,-0.5706998705863953,-0.17160150408744812,-0.19181090593338013,-1.417311191558838,0.413113534450531,-0.5662446618080139,-0.37980636954307556,-0.34333744645118713,0.5693898797035217,2.62211537361145,0.16246044635772705,-0.3706686496734619,-0.6415662169456482,-1.8876968622207642,-1.2904409170150757,-1.1189833879470825
1760498767.8273857,0.02,0.03319244831800461,-0.0699191614985466,0.18265794217586517,-0.0046019237488508224,0.0031378217972815037,-0.9999845027923584,0.5457854270935059,-0.16934871673583984,0.5644658803939819,-0.10557745397090912,-0.015712380409240723,-0.031013786792755127,0.11766604334115982,0.10745257139205933,-0.03438735008239746,-0.14747732877731323,-0.07090991735458374,0.05375802516937256,0.04470553621649742,0.031005918979644775,-0.07777595520019531,0.0,0.0,0.0,0.0,0.017065608873963356,-0.023788422346115112,-0.005622195079922676,0.0020429305732250214,-0.0003197751648258418,0.002323285909369588,-0.04106577858328819,0.00019113757298327982,0.029092026874423027,0.06227594614028931,-0.017926551401615143,0.0033738184720277786,-0.14883852005004883,-0.48504525423049927,-0.32704997062683105,-0.28406617045402527,-0.4200187623500824,-0.16505667567253113,-0.18541523814201355,-1.5031163692474365,0.40527141094207764,-0.546603262424469,-0.2782095968723297,-0.4527197778224945,0.55943363904953,2.524844169616699,0.10904686152935028,-0.32990598678588867,-0.5811437368392944,-1.8474880456924438,-1.3737486600875854,-1.0700234174728394
1760498767.8877006,0.02,0.04213016480207443,-0.07820658385753632,0.17368382215499878,-0.01043458841741085,-0.0002755657769739628,-0.9999455213546753,0.5457854270935059,-0.16934871673583984,0.557378888130188,-0.09754233062267303,-0.02573072910308838,-0.03393197059631348,0.11864218860864639,0.10684528946876526,-0.03369230031967163,-0.16289468109607697,-0.07346004247665405,0.06691187620162964,0.07240305840969086,0.01894611120223999,-0.0738898515701294,0.0,0.0,0.0,0.0,0.020779287442564964,-0.025176003575325012,-0.00910626444965601,0.0011154117528349161,-0.0016490401467308402,-7.997872307896614e-05,-0.0391397550702095,-0.007877916097640991,0.030860668048262596,0.07161629945039749,-0.03645603731274605,0.011993522755801678,-0.13980992138385773,-0.47600769996643066,-0.336556613445282,-0.29850420355796814,-0.2918088436126709,-0.15514764189720154,-0.18633097410202026,-1.4434871673583984,0.3824236989021301,-0.5426362156867981,-0.2187565416097641,-0.5419638752937317,0.5695164203643799,2.3326375484466553,0.057770729064941406,-0.2581554055213928,-0.5451639294624329,-1.8196829557418823,-1.3717918395996094,-1.1097162961959839
1760498767.9412234,0.02,0.04973210394382477,-0.07004403322935104,0.16207024455070496,-0.01608983241021633,-0.004257941618561745,-0.999861478805542,0.5457854270935059,-0.16934871673583984,0.5507313013076782,-0.08923644572496414,-0.034684836864471436,-0.03976374864578247,0.11922582238912582,0.10615852475166321,-0.032726943492889404,-0.1775667369365692,-0.0800551176071167,0.08436620235443115,0.10100856423377991,0.0010582804679870605,-0.06631529331207275,0.0,0.0,0.0,0.0,0.02026323787868023,-0.021328212693333626,-0.015567961148917675,0.00015999376773834229,-0.0014843519311398268,0.002454514382407069,-0.03686738386750221,-0.018186820670962334,0.04476867616176605,0.07003437727689743,-0.048212941735982895,0.0205099955201149,-0.1289726346731186,-0.47165724635124207,-0.3221833407878876,-0.32826751470565796,-0.20126283168792725,-0.15036910772323608,-0.20872001349925995,-1.241382122039795,0.3707047402858734,-0.5337188243865967,-0.1292068064212799,-0.612011194229126,0.59489905834198,2.0026495456695557,0.0164831280708313,-0.13380439579486847,-0.4902874827384949,-1.784513235092163,-1.3125314712524414,-1.20805823802948
1760498768.0045247,0.02,0.06159266084432602,-0.043433960527181625,0.14232686161994934,-0.020166220143437386,-0.009379472583532333,-0.9997526407241821,0.5457854270935059,-0.16934871673583984,0.5447605848312378,-0.08324965834617615,-0.03990638256072998,-0.051552414894104004,0.12019380182027817,0.10528761148452759,-0.02905052900314331,-0.19006511569023132,-0.09266608953475952,0.10970175266265869,0.12605655193328857,-0.019581973552703857,-0.05774366855621338,0.0,0.0,0.0,0.0,0.013606852851808071,-0.01117185689508915,-0.02908659353852272,0.0009228111593984067,-0.002047698711976409,0.01106573548167944,-0.03096463717520237,-0.0353051982820034,0.06729140132665634,0.05588667467236519,-0.05197260528802872,0.019012566655874252,-0.10208429396152496,-0.4609423279762268,-0.28711822628974915,-0.37820693850517273,-0.09902989864349365,-0.1208515465259552,-0.27617231011390686,-0.8569560647010803,0.3676477074623108,-0.4819163382053375,0.09752032160758972,-0.617646336555481,0.6275270581245422,1.276474952697754,-0.13354219496250153,0.00350894033908844,-0.37827813625335693,-1.6704602241516113,-1.1402932405471802,-1.4957594871520996
1760498768.0576384,0.02,0.10823354870080948,0.020728692412376404,0.11205872148275375,-0.02047674171626568,-0.018088679760694504,-0.9996266961097717,0.5457854270935059,-0.16934871673583984,0.5398427248001099,-0.07982488721609116,-0.04008275270462036,-0.07046794891357422,0.12463213503360748,0.10217973589897156,-0.016598939895629883,-0.19150865077972412,-0.10688692331314087,0.1359509825706482,0.14288154244422913,-0.03615635633468628,-0.05550861358642578,0.0,0.0,0.0,0.0,0.0072870091535151005,0.0005459318053908646,-0.04524950683116913,0.010942201130092144,-0.008593684993684292,0.038493622094392776,0.007216274738311768,-0.030217710882425308,0.05841580778360367,0.0282499548047781,-0.03455274552106857,0.0020421170629560947,-0.07751546055078506,-0.435337632894516,-0.2073339968919754,-0.3062748610973358,-0.009436193853616714,-0.008747488260269165,-0.39742231369018555,-0.014162633568048477,0.338165819644928,-0.31961947679519653,0.5498266220092773,-0.40110528469085693,0.627522349357605,-0.3346543312072754,-0.38780850172042847,0.11967523396015167,-0.2194896936416626,-1.452746033668518,-0.8103913068771362,-1.878574252128601
1760498768.1127012,0.02,0.1224493756890297,0.0894724577665329,0.09798259288072586,-0.015376492403447628,-0.027775127440690994,-0.9994959235191345,0.5457854270935059,-0.16934871673583984,0.5356372594833374,-0.07469932734966278,-0.034648776054382324,-0.07994753122329712,0.1314067542552948,0.09873092174530029,6.830692291259766e-05,-0.17046238481998444,-0.10567256808280945,0.13892674446105957,0.14356198906898499,-0.04157757759094238,-0.057161808013916016,0.0,0.0,0.0,0.0,0.015774426981806755,0.01723724976181984,-0.018528509885072708,0.01819254457950592,-0.006676752120256424,0.03966907784342766,0.07304197549819946,0.016526002436876297,-0.010052471421658993,-0.0077650523744523525,-0.0077329897321760654,0.007062355522066355,-0.16841383278369904,-0.36811596155166626,-0.16155622899532318,-0.2543352544307709,0.03246530517935753,0.29187729954719543,-0.4565955698490143,0.7342588305473328,0.2042464017868042,-0.2535063922405243,0.8010843992233276,0.015643559396266937,0.6275053024291992,-1.9303572177886963,-0.5862710475921631,0.13905425369739532,-0.47172653675079346,-1.4305099248886108,-0.35645678639411926,-2.315633535385132
1760498768.166157,0.02,0.07399991154670715,0.0956055149435997,0.11445793509483337,-0.008192000910639763,-0.03408607095479965,-0.9993852972984314,0.5457854270935059,-0.16934871673583984,0.531288743019104,-0.07044920325279236,-0.02242255210876465,-0.08163607120513916,0.13719168305397034,0.09776443243026733,0.007515311241149902,-0.12950700521469116,-0.08458447456359863,0.10741275548934937,0.13823863863945007,-0.04431462287902832,-0.04526078701019287,0.0,0.0,0.0,0.0,0.011724501848220825,0.03432575985789299,-0.00526479771360755,0.015369253233075142,-0.0005242206971161067,0.007912269793450832,0.1118849441409111,0.057429660111665726,-0.08168097585439682,-0.014376533217728138,-0.00811728835105896,0.040506768971681595,-0.3059478998184204,-0.2998156249523163,-0.1356542408466339,-0.36937934160232544,0.32058185338974,0.41924014687538147,-0.4520930349826813,0.8873813152313232,0.0833129957318306,-0.28557419776916504,0.5898771286010742,0.1907268762588501,0.48955681920051575,-2.6446454524993896,-0.6256070137023926,0.1173705905675888,-0.9849230647087097,-1.5942646265029907,-0.004968784749507904,-2.6832895278930664
1760498768.2205677,0.02,-0.01113920658826828,0.0827142670750618,0.13755640387535095,-0.0017499979585409164,-0.03428814560174942,-0.9994104504585266,0.5457854270935059,-0.16934871673583984,0.5261393785476685,-0.07034766674041748,-0.009944617748260498,-0.07985728979110718,0.13865110278129578,0.09944117069244385,0.0038956403732299805,-0.0872161015868187,-0.06015688180923462,0.06646591424942017,0.12698210775852203,-0.047226786613464355,-0.027606725692749023,0.0,0.0,0.0,0.0,0.0005033104098401964,0.029591474682092667,0.00900351069867611,0.0020068930462002754,0.004885281901806593,-0.014118343591690063,0.09770127385854721,0.05072193965315819,-0.08192186802625656,-0.032172929495573044,-0.006651896517723799,0.04395361617207527,-0.3167271316051483,-0.29048487544059753,-0.10411614179611206,-0.4219580292701721,0.3892385959625244,0.2999551296234131,-0.4983114004135132,0.8500051498413086,0.2114049792289734,-0.19279085099697113,0.20621851086616516,0.06450669467449188,0.34363487362861633,-2.585275888442993,-0.5344181060791016,0.10626812279224396,-1.191375494003296,-1.4744060039520264,0.14829668402671814,-2.65735125541687
1760498768.2745209,0.02,-0.05666859447956085,0.0757397785782814,0.14353018999099731,0.004018035717308521,-0.029802905395627022,-0.9995477199554443,0.5457854270935059,-0.16934871673583984,0.520492672920227,-0.0743316188454628,-0.0011405348777770996,-0.07414549589157104,0.13597577810287476,0.10220018029212952,-0.0027872323989868164,-0.05289699137210846,-0.04249662160873413,0.032342374324798584,0.1107025220990181,-0.04842942953109741,-0.010867476463317871,0.0,0.0,0.0,0.0,-0.008315091021358967,0.01873239129781723,0.0182118471711874,-0.0067040580324828625,0.005782594438642263,-0.013887911103665829,0.0767730101943016,0.03212255239486694,-0.06437564641237259,-0.0415024571120739,-0.0004304780741222203,0.03834403306245804,-0.29907485842704773,-0.31375378370285034,-0.06935813277959824,-0.45424580574035645,0.3171764612197876,0.20627668499946594,-0.5200841426849365,0.7446506023406982,0.33773279190063477,-0.12336059659719467,0.1099027693271637,0.028628118336200714,0.20843623578548431,-2.008347749710083,-0.45474380254745483,0.1768498569726944,-1.191211223602295,-1.3220105171203613,0.18248119950294495,-2.5689327716827393
1760498768.33031,0.02,-0.06746581196784973,0.06799688935279846,0.14194290339946747,0.00936428364366293,-0.023847585543990135,-0.9996717572212219,0.5457854270935059,-0.16934871673583984,0.5147639513015747,-0.08004608005285263,0.0043174028396606445,-0.06590694189071655,0.13159972429275513,0.10418170690536499,-0.00718611478805542,-0.029292011633515358,-0.03481870889663696,0.011652588844299316,0.09273911267518997,-0.047043800354003906,0.00229036808013916,0.0,0.0,0.0,0.0,-0.011460483074188232,0.011252637952566147,0.02225467562675476,-0.009822440333664417,0.0029608251061290503,-0.006673204246908426,0.04892590269446373,0.008142517879605293,-0.03346352279186249,-0.04357685521245003,0.006239083595573902,0.027805430814623833,-0.28710195422172546,-0.3332456946372986,-0.04303617402911186,-0.46612605452537537,0.23173537850379944,0.16819635033607483,-0.5007307529449463,0.5501490831375122,0.3916715383529663,-0.13476808369159698,0.024332985281944275,0.023636765778064728,0.14797915518283844,-1.1616278886795044,-0.3863481879234314,0.23757486045360565,-1.1799311637878418,-1.2497586011886597,0.1428740918636322,-2.4194576740264893
1760498768.384676,0.02,-0.0715423971414566,0.046862076967954636,0.1426764577627182,0.01354546844959259,-0.017672060057520866,-0.9997521042823792,0.5457854270935059,-0.16934871673583984,0.5090042352676392,-0.08644136786460876,0.007968902587890625,-0.057793617248535156,0.1265004575252533,0.10478207468986511,-0.010059058666229248,-0.021370703354477882,-0.03799283504486084,0.007030785083770752,0.07422303408384323,-0.04252904653549194,0.008945345878601074,0.0,0.0,0.0,0.0,-0.013111898675560951,0.007662733551114798,0.019681939855217934,-0.011903907172381878,-0.0002442580589558929,-0.005477811675518751,0.00666889688000083,-0.017181577160954475,0.0022819582372903824,-0.04495682939887047,0.01473961677402258,0.00860848929733038,-0.2796556353569031,-0.3410099446773529,-0.03653011843562126,-0.46937376260757446,0.1322527527809143,0.1468839943408966,-0.46554484963417053,0.2999040186405182,0.39934229850769043,-0.19958694279193878,-0.13422024250030518,0.013845466077327728,0.17080838978290558,-0.3600488007068634,-0.29759323596954346,0.23594538867473602,-1.168485403060913,-1.2552927732467651,0.03389696031808853,-2.284548044204712
1760498768.4395678,0.02,-0.08877463638782501,0.010265849530696869,0.14251551032066345,0.015321487560868263,-0.01045849360525608,-0.9998279213905334,0.5457854270935059,-0.16934871673583984,0.5032063722610474,-0.09428469091653824,0.01014941930770874,-0.05071204900741577,0.11983296275138855,0.10456514358520508,-0.013760626316070557,-0.03310767933726311,-0.04970085620880127,0.014830589294433594,0.05433875694870949,-0.03350752592086792,0.005140066146850586,0.0,0.0,0.0,0.0,-0.017067864537239075,0.0035843518562614918,0.01718621514737606,-0.016666388139128685,-0.0015458822017535567,-0.009096137247979641,-0.042593955993652344,-0.035323988646268845,0.0264690313488245,-0.04878866299986839,0.027513990178704262,-0.020829083397984505,-0.27340981364250183,-0.35260626673698425,-0.0757187232375145,-0.4708515703678131,-0.03642914071679115,0.12901821732521057,-0.3970032036304474,-0.03245887532830238,0.4065263867378235,-0.28445130586624146,-0.2828611135482788,0.011174507439136505,0.23932909965515137,0.4096963107585907,-0.17684932053089142,0.1649889200925827,-1.14137601852417,-1.3137257099151611,-0.10050299018621445,-2.1435744762420654
1760498768.4932697,0.02,-0.0802089050412178,-0.022676847875118256,0.1435929387807846,0.014212246052920818,-0.0035997836384922266,-0.99989253282547,0.5457854270935059,-0.16934871673583984,0.4974104166030884,-0.10195549577474594,0.010243415832519531,-0.04530024528503418,0.1132640466094017,0.10374853014945984,-0.017791271209716797,-0.05292173847556114,-0.06110584735870361,0.020631074905395508,0.034913383424282074,-0.020000576972961426,-0.011826872825622559,0.0,0.0,0.0,0.0,-0.01752934604883194,-0.0018368756864219904,0.01361264567822218,-0.01507673878222704,-0.0025789651554077864,-0.00858360342681408,-0.04791439697146416,-0.024920662865042686,0.006429062690585852,-0.046381209045648575,0.036276791244745255,-0.05078384280204773,-0.264471173286438,-0.37351641058921814,-0.11959772557020187,-0.45340949296951294,-0.25080135464668274,0.07128584384918213,-0.3026643991470337,-0.36525967717170715,0.38449689745903015,-0.39853039383888245,-0.3354179561138153,0.02384684979915619,0.33674925565719604,1.1186240911483765,-0.0651012510061264,0.020412132143974304,-1.0661327838897705,-1.4623461961746216,-0.3297022581100464,-1.8448697328567505
1760498768.5494502,0.02,-0.047177016735076904,-0.03308699652552605,0.1604776233434677,0.011623907834291458,0.0005364236421883106,-0.9999322891235352,0.5457854270935059,-0.16934871673583984,0.4912296533584595,-0.10669643431901932,0.00902324914932251,-0.0421409010887146,0.10959716886281967,0.1027890145778656,-0.02063041925430298,-0.07091742008924484,-0.06745636463165283,0.02314072847366333,0.02006363309919834,-0.005138039588928223,-0.03443324565887451,0.0,0.0,0.0,0.0,-0.008810039609670639,0.0023869711440056562,0.002187988255172968,-0.007394301239401102,-0.0021938132122159004,-0.005211200099438429,-0.04468308389186859,-0.01284441351890564,0.007457816507667303,-0.03380150720477104,0.03673321753740311,-0.056040700525045395,-0.3564321994781494,-0.40048596262931824,-0.18115390837192535,-0.4028121531009674,-0.40620163083076477,-0.005904674530029297,-0.2562575340270996,-0.674802303314209,0.36329928040504456,-0.49969545006752014,-0.47979140281677246,-0.02038409933447838,0.47511497139930725,1.7283499240875244,0.0367254763841629,-0.1460644155740738,-1.0149298906326294,-1.640142560005188,-0.590184211730957,-1.5915775299072266
1760498768.6020591,0.02,-0.025890611112117767,-0.03934461995959282,0.17004850506782532,0.008603105321526527,0.0026604318991303444,-0.9999594688415527,0.5457854270935059,-0.16934871673583984,0.48455727100372314,-0.10841751843690872,0.006014704704284668,-0.038294076919555664,0.10803569853305817,0.10259449481964111,-0.02174001932144165,-0.08805597573518753,-0.07071638107299805,0.027087032794952393,0.012190824374556541,0.00881040096282959,-0.054134249687194824,0.0,0.0,0.0,0.0,-0.0016558908391743898,-0.007362729404121637,0.007817449048161507,-0.0036265221424400806,0.0005016268114559352,-0.0016330383950844407,-0.043508268892765045,-0.0066313655115664005,0.011326128616929054,-0.013243496417999268,0.03293703496456146,-0.0433446504175663,-0.2612435519695282,-0.4354303777217865,-0.22192762792110443,-0.3387157917022705,-0.4700413942337036,-0.11477237939834595,-0.23767805099487305,-1.0722583532333374,0.4154990315437317,-0.5210236310958862,-0.5536520481109619,-0.11111105233430862,0.559269368648529,2.214310884475708,0.1460290551185608,-0.27677303552627563,-1.0406653881072998,-1.7063037157058716,-0.787580668926239,-1.3164998292922974
1760498768.6592956,0.02,-0.01632269099354744,-0.049867451190948486,0.17142370343208313,0.0050114793702960014,0.0038666510954499245,-0.9999799728393555,0.5457854270935059,-0.16934871673583984,0.47769200801849365,-0.10804899036884308,0.0009369850158691406,-0.03509652614593506,0.10692392289638519,0.10358574986457825,-0.022501885890960693,-0.10529645532369614,-0.07120287418365479,0.03280216455459595,0.013050977140665054,0.0194818377494812,-0.06690835952758789,0.0,0.0,0.0,0.0,0.004172113258391619,-0.013582576997578144,0.004211112856864929,-0.0035616219975054264,0.0034867895301431417,-0.002696762327104807,-0.04403027892112732,0.0003525325155351311,0.01429654099047184,0.010187387466430664,0.022493509575724602,-0.025064894929528236,-0.23032589256763458,-0.4594469666481018,-0.27596747875213623,-0.2901665270328522,-0.4658098816871643,-0.1658133566379547,-0.23026809096336365,-1.436332106590271,0.40848585963249207,-0.535490870475769,-0.49631956219673157,-0.21727308630943298,0.5822060108184814,2.4992687702178955,0.16029924154281616,-0.3464857339859009,-0.9250227212905884,-1.8126569986343384,-1.0737991333007812,-1.1294617652893066
1760498768.7096949,0.02,0.008487381041049957,-0.05987531319260597,0.16574892401695251,0.0006692224415019155,0.003389260033145547,-0.9999940395355225,0.5457854270935059,-0.16934871673583984,0.47094500064849854,-0.10375924408435822,-0.006430268287658691,-0.03251492977142334,0.10651905834674835,0.10480877757072449,-0.023028552532196045,-0.12153200805187225,-0.0706440806388855,0.04077112674713135,0.023999778553843498,0.02471470832824707,-0.07276928424835205,0.0,0.0,0.0,0.0,0.01452513225376606,-0.01916024461388588,0.002422490855678916,-0.0014804188394919038,0.003266992513090372,-0.002306148409843445,-0.040784697979688644,0.0015941798919811845,0.020175904035568237,0.03556254878640175,0.007279593497514725,-0.008731122128665447,-0.21130461990833282,-0.4688841998577118,-0.3144688606262207,-0.2571597695350647,-0.3568304479122162,-0.168893963098526,-0.21262015402317047,-1.6604347229003906,0.4054063558578491,-0.519028902053833,-0.3894941210746765,-0.3280877470970154,0.5804910659790039,2.554299831390381,0.13422788679599762,-0.3511141538619995,-0.8338071703910828,-1.802933931350708,-1.2773725986480713,-0.9842014908790588
1760498768.7673478,0.02,0.025770045816898346,-0.06869372725486755,0.1562449336051941,-0.004395066760480404,0.0013849982060492039,-0.99998939037323,0.5457854270935059,-0.16934871673583984,0.46452248096466064,-0.09597892314195633,-0.015550851821899414,-0.031449079513549805,0.10637982189655304,0.10546576976776123,-0.02347022294998169,-0.13671931624412537,-0.07078045606613159,0.05130356550216675,0.04344353824853897,0.022700190544128418,-0.07265210151672363,0.0,0.0,0.0,0.0,0.02131686545908451,-0.02370835840702057,0.00010702815052354708,-0.0014374518068507314,0.0014430931769311428,-0.002527777571231127,-0.038515809923410416,-0.0007672795909456909,0.02596844546496868,0.05439748242497444,-0.011963040567934513,0.00479412404820323,-0.1942422091960907,-0.46519285440444946,-0.3351583778858185,-0.24420201778411865,-0.24091410636901855,-0.16393253207206726,-0.19560988247394562,-1.7278954982757568,0.39174914360046387,-0.505935788154602,-0.29297083616256714,-0.42381373047828674,0.577419102191925,2.477243661880493,0.08229833841323853,-0.3188096880912781,-0.7748302221298218,-1.7653303146362305,-1.3870391845703125,-0.9108168482780457
1760498768.8226857,0.02,0.03276257961988449,-0.07603016495704651,0.14744015038013458,-0.010087618604302406,-0.0013927449472248554,-0.9999481439590454,0.5457854270935059,-0.16934871673583984,0.4584876298904419,-0.08629404008388519,-0.025348663330078125,-0.032765209674835205,0.10579519718885422,0.10554346442222595,-0.02441728115081787,-0.1513698548078537,-0.07288450002670288,0.06399106979370117,0.06800183653831482,0.013063609600067139,-0.06809389591217041,0.0,0.0,0.0,0.0,0.024171657860279083,-0.024580292403697968,-0.005853468086570501,-0.0031064264476299286,-8.259480637207162e-06,-0.0040976605378091335,-0.03743499144911766,-0.0068550738506019115,0.02960079349577427,0.06370895355939865,-0.0303507037460804,0.013618893921375275,-0.1872827112674713,-0.4575999677181244,-0.35941487550735474,-0.24896565079689026,-0.15171319246292114,-0.15991827845573425,-0.18944235146045685,-1.6376475095748901,0.3724989891052246,-0.5080896615982056,-0.22649610042572021,-0.5027898550033569,0.5840855836868286,2.3099446296691895,0.035847947001457214,-0.2534794807434082,-0.7390663623809814,-1.7478785514831543,-1.4137096405029297,-0.911151111125946
1760498768.8753023,0.02,0.03968527168035507,-0.07038519531488419,0.139072448015213,-0.015733785927295685,-0.004549645818769932,-0.9998658895492554,0.5457854270935059,-0.16934871673583984,0.4528089761734009,-0.07675796002149582,-0.034132957458496094,-0.03717947006225586,0.10453297197818756,0.1052476167678833,-0.02504122257232666,-0.16568730771541595,-0.07886558771133423,0.08014810085296631,0.09368206560611725,-0.0025709867477416992,-0.06050980091094971,0.0,0.0,0.0,0.0,0.023167138919234276,-0.020696664229035378,-0.012421091087162495,-0.004366506822407246,-0.000911178532987833,-0.0011728918179869652,-0.03623909875750542,-0.0165999922901392,0.041457924991846085,0.06327104568481445,-0.042859144508838654,0.01984291896224022,-0.1778755635023117,-0.4526192843914032,-0.3423316180706024,-0.26964956521987915,-0.09966146945953369,-0.1557985544204712,-0.2015371322631836,-1.387063980102539,0.35949793457984924,-0.5081461668014526,-0.15133723616600037,-0.5723089575767517,0.6055994629859924,2.014106035232544,-0.0002555549144744873,-0.14011599123477936,-0.6905269622802734,-1.7161401510238647,-1.3730645179748535,-0.9628569483757019
1760498768.9317427,0.02,0.050354138016700745,-0.046787604689598083,0.1242760568857193,-0.01999587006866932,-0.008648107759654522,-0.9997626543045044,0.5457854270935059,-0.16934871673583984,0.4476357698440552,-0.07009601593017578,-0.039079248905181885,-0.047148168087005615,0.10337982326745987,0.1044979989528656,-0.022727668285369873,-0.1785205900669098,-0.09024637937545776,0.103543221950531,0.11642573028802872,-0.02116292715072632,-0.05224931240081787,0.0,0.0,0.0,0.0,0.015269855037331581,-0.010077079758048058,-0.024890659376978874,-0.003985980525612831,-0.0020772949792444706,0.008153319358825684,-0.03182891011238098,-0.03150748088955879,0.061828672885894775,0.051365870982408524,-0.04705829545855522,0.018165484070777893,-0.15597832202911377,-0.4460199475288391,-0.3111806809902191,-0.31995317339897156,-0.06049782410264015,-0.14286082983016968,-0.26107949018478394,-0.9653188586235046,0.34694796800613403,-0.4748038947582245,0.022628873586654663,-0.5848804116249084,0.6353779435157776,1.4050350189208984,-0.10406716167926788,-0.001934930682182312,-0.6082000732421875,-1.649511456489563,-1.2200701236724854,-1.1992355585098267
1760498768.9825265,0.02,0.08833509683609009,0.009535528719425201,0.09609058499336243,-0.02080816589295864,-0.015679527074098587,-0.9996605515480042,0.5457854270935059,-0.16934871673583984,0.44337594509124756,-0.06896977871656418,-0.03709733486175537,-0.06540334224700928,0.10484997183084488,0.10140800476074219,-0.011376023292541504,-0.1845320165157318,-0.10642287135124207,0.1334134340286255,0.13166818022727966,-0.03639489412307739,-0.0498504638671875,0.0,0.0,0.0,0.0,0.0012497861171141267,0.005804157815873623,-0.044826459139585495,0.00369025650434196,-0.00909330788999796,0.035909734666347504,-0.008775305934250355,-0.03958985581994057,0.07339414209127426,0.0263971034437418,-0.03206178918480873,0.0009414069354534149,-0.13187193870544434,-0.4282892346382141,-0.23639515042304993,-0.2876354157924652,-0.0192837156355381,-0.06545844674110413,-0.382794588804245,-0.139888197183609,0.32322901487350464,-0.32498112320899963,0.3931019604206085,-0.4268967807292938,0.6413360834121704,0.010384372435510159,-0.3261649012565613,0.13298030197620392,-0.4504067301750183,-1.4623781442642212,-0.9283660054206848,-1.5956131219863892
1760498769.0346859,0.02,0.11403743922710419,0.0773421972990036,0.07738682627677917,-0.016635261476039886,-0.024663204327225685,-0.999557375907898,0.5457854270935059,-0.16934871673583984,0.4399343729019165,-0.06576278805732727,-0.031779348850250244,-0.07594746351242065,0.10942799597978592,0.09677588939666748,0.0065566301345825195,-0.16928906738758087,-0.10898220539093018,0.14262866973876953,0.13279737532138824,-0.04127258062362671,-0.053658366203308105,0.0,0.0,0.0,0.0,0.009550823830068111,0.01525861769914627,-0.02120727300643921,0.012882095761597157,-0.01057356782257557,0.04567980393767357,0.05945871025323868,0.009010931476950645,0.0019709018524736166,-0.00764054199680686,-0.005862019490450621,-0.002718966454267502,-0.18683122098445892,-0.36907246708869934,-0.17899872362613678,-0.2348707765340805,-0.04374218359589577,0.19440433382987976,-0.45527777075767517,0.733260989189148,0.19785666465759277,-0.22706083953380585,0.6559572219848633,-0.019979014992713928,0.6331708431243896,-1.5620702505111694,-0.5268714427947998,0.17429722845554352,-0.5750154256820679,-1.4024187326431274,-0.49438366293907166,-1.9921513795852661
1760498769.0876794,0.02,0.0784328356385231,0.08932001143693924,0.087548166513443,-0.010031173937022686,-0.031189600005745888,-0.9994631409645081,0.5457854270935059,-0.16934871673583984,0.4366039037704468,-0.06252103298902512,-0.021064460277557373,-0.07889652252197266,0.11387251317501068,0.09378010034561157,0.01792728900909424,-0.1325223445892334,-0.09026318788528442,0.11563360691070557,0.1286768764257431,-0.04438519477844238,-0.04483318328857422,0.0,0.0,0.0,0.0,0.009814956225454807,0.03018375113606453,-0.007272935006767511,0.012562398798763752,-0.0056861951015889645,0.018697133287787437,0.10312409698963165,0.05358811840415001,-0.07352516800165176,-0.01055282074958086,-0.010599269531667233,0.03441759943962097,-0.3062584698200226,-0.30014342069625854,-0.16121487319469452,-0.32938212156295776,0.17721296846866608,0.3573038876056671,-0.47319844365119934,0.9654724597930908,0.07119358330965042,-0.23677895963191986,0.4672551453113556,0.1876164674758911,0.5177652835845947,-2.2843120098114014,-0.6183558106422424,0.15737010538578033,-1.0239348411560059,-1.5458072423934937,-0.1255006492137909,-2.3968684673309326
1760498769.1444209,0.02,0.003092259168624878,0.08149171620607376,0.11054476350545883,-0.0037121912464499474,-0.03244952857494354,-0.9994664788246155,0.5457854270935059,-0.16934871673583984,0.43254339694976807,-0.06250522285699844,-0.009678840637207031,-0.07806664705276489,0.1150544285774231,0.09286129474639893,0.01933872699737549,-0.09261813014745712,-0.06650447845458984,0.07820886373519897,0.11971910297870636,-0.048748910427093506,-0.02890753746032715,0.0,0.0,0.0,0.0,-0.0010134479962289333,0.02788246050477028,0.004391708876937628,0.0017855085898190737,-0.0015813427744433284,-0.001919099478982389,0.09293504804372787,0.050892479717731476,-0.07465247064828873,-0.026107830926775932,-0.011067740619182587,0.041017379611730576,-0.33520546555519104,-0.28200700879096985,-0.1367809921503067,-0.3760668635368347,0.2326921820640564,0.28630331158638,-0.5068525075912476,0.9808003306388855,0.163038969039917,-0.14288200438022614,0.09930828213691711,0.09421763569116592,0.3928307592868805,-2.3554751873016357,-0.5282121896743774,0.135895237326622,-1.2188029289245605,-1.4316765069961548,0.03562472015619278,-2.4043781757354736
1760498769.1948385,0.02,-0.04549889266490936,0.07425732165575027,0.12020038068294525,0.002005035988986492,-0.02910325489938259,-0.9995744228363037,0.5457854270935059,-0.16934871673583984,0.42789387702941895,-0.0662682056427002,-0.0020188093185424805,-0.07359421253204346,0.11250314116477966,0.09308165311813354,0.016987204551696777,-0.06020571291446686,-0.04833310842514038,0.04664969444274902,0.10585076361894608,-0.052060067653656006,-0.013296961784362793,0.0,0.0,0.0,0.0,-0.009629069827497005,0.016561994329094887,0.013944651000201702,-0.006686659995466471,8.730388071853667e-05,-0.004686469677835703,0.07152777165174484,0.034335505217313766,-0.05904586985707283,-0.03622053936123848,-0.006158212199807167,0.03591417893767357,-0.311684250831604,-0.30193254351615906,-0.10531258583068848,-0.4050903022289276,0.1533730924129486,0.18547657132148743,-0.5277547836303711,0.9054189324378967,0.2835809588432312,-0.06746523827314377,0.019788488745689392,0.036546915769577026,0.26832082867622375,-1.9352167844772339,-0.45037466287612915,0.18497450649738312,-1.2170851230621338,-1.2967777252197266,0.08191312104463577,-2.3238375186920166
1760498769.249962,0.02,-0.05340592563152313,0.06514458358287811,0.11933233588933945,0.007168383337557316,-0.024364035576581955,-0.9996774792671204,0.5457854270935059,-0.16934871673583984,0.42309582233428955,-0.07144845277070999,0.002419412136077881,-0.066791832447052,0.10856398940086365,0.09319490194320679,0.015918731689453125,-0.03689438849687576,-0.03878265619277954,0.025741219520568848,0.0904233455657959,-0.05266892910003662,-0.001412034034729004,0.0,0.0,0.0,0.0,-0.011728371493518353,0.009578653611242771,0.017420148476958275,-0.008790355175733566,-0.0007524222601205111,0.0004198676033411175,0.049443334341049194,0.013793322257697582,-0.03601231798529625,-0.03755756467580795,0.0014557874528691173,0.02483811043202877,-0.29726681113243103,-0.32704269886016846,-0.0784556195139885,-0.42222219705581665,0.05763363465666771,0.14426854252815247,-0.5251708030700684,0.7707251310348511,0.3465825319290161,-0.05401381105184555,-0.002195119857788086,0.030025199055671692,0.19693738222122192,-1.2711979150772095,-0.3846190571784973,0.24091175198554993,-1.2144560813903809,-1.2367727756500244,0.04578704386949539,-2.218433141708374
1760498769.3033023,0.02,-0.047549888491630554,0.04511774703860283,0.11809941381216049,0.011125113815069199,-0.02011018991470337,-0.9997358918190002,0.5457854270935059,-0.16934871673583984,0.4183105230331421,-0.07644300907850266,0.00562816858291626,-0.060838937759399414,0.1047680452466011,0.0928162932395935,0.015784382820129395,-0.024724023416638374,-0.03846442699432373,0.017043888568878174,0.0753655955195427,-0.049916863441467285,0.004241466522216797,0.0,0.0,0.0,0.0,-0.011242300271987915,0.007527147885411978,0.013162096031010151,-0.008516069501638412,-0.0015905002364888787,0.0004096494521945715,0.02021983079612255,-0.007488727569580078,-0.009625131264328957,-0.03632321208715439,0.010098828934133053,0.007617688272148371,-0.2917127311229706,-0.342286080121994,-0.06359055638313293,-0.431645929813385,0.006817813962697983,0.12813273072242737,-0.5084437131881714,0.5801706910133362,0.36700963973999023,-0.09418927878141403,-0.06699909269809723,0.03155503422021866,0.19048762321472168,-0.6683889627456665,-0.32246634364128113,0.24705028533935547,-1.216627836227417,-1.2414857149124146,-0.0392092689871788,-2.1364922523498535
1760498769.3590965,0.02,-0.05892275273799896,0.015961945056915283,0.1185545101761818,0.013051183894276619,-0.015418268740177155,-0.9997959733009338,0.5457854270935059,-0.16934871673583984,0.4135110378265381,-0.08204913139343262,0.008019626140594482,-0.05691152811050415,0.10026790201663971,0.09271591901779175,0.013876914978027344,-0.02740640379488468,-0.04600793123245239,0.01900613307952881,0.059783849865198135,-0.04362136125564575,0.0020737051963806152,0.0,0.0,0.0,0.0,-0.013700476847589016,0.005268387030810118,0.007938659749925137,-0.01124761626124382,-7.191579788923264e-05,-0.005935719236731529,-0.018315104767680168,-0.024688538163900375,0.01316747348755598,-0.03846324607729912,0.019190652295947075,-0.01306269969791174,-0.2856045663356781,-0.35607513785362244,-0.07017648965120316,-0.43805190920829773,-0.03843185678124428,0.11044582724571228,-0.4614545404911041,0.2887766659259796,0.3857884407043457,-0.16409681737422943,-0.15370914340019226,0.029854364693164825,0.2310132384300232,-0.1061316728591919,-0.2559852600097656,0.1985313445329666,-1.1850067377090454,-1.2852810621261597,-0.12812989950180054,-2.0724194049835205
1760498769.4126036,0.02,-0.07866863161325455,-0.013673454523086548,0.11882161349058151,0.012569145299494267,-0.009195848368108273,-0.9998787045478821,0.5457854270935059,-0.16934871673583984,0.4086798429489136,-0.08898742496967316,0.009041786193847656,-0.05341660976409912,0.09427814185619354,0.09342056512832642,0.009177088737487793,-0.043663039803504944,-0.058250486850738525,0.02549678087234497,0.04283233359456062,-0.03418391942977905,-0.008913874626159668,0.0,0.0,0.0,0.0,-0.01715521514415741,0.0020073240157216787,0.007938268594443798,-0.014771672897040844,0.002247301861643791,-0.012249298393726349,-0.04175874590873718,-0.031164420768618584,0.010169580578804016,-0.04164949432015419,0.02608652226626873,-0.034330129623413086,-0.2891767621040344,-0.37173548340797424,-0.11196687072515488,-0.42633649706840515,-0.13379645347595215,0.08154517412185669,-0.377749502658844,-0.10679861903190613,0.3867937922477722,-0.2645278871059418,-0.24408680200576782,0.02339639514684677,0.3110847771167755,0.5651026964187622,-0.16637781262397766,0.1063348799943924,-1.1297557353973389,-1.3681434392929077,-0.25224220752716064,-1.9298588037490845
1760498769.4690325,0.02,-0.05772267282009125,-0.026031989604234695,0.1312718391418457,0.01066676713526249,-0.003927304875105619,-0.9999353885650635,0.5457854270935059,-0.16934871673583984,0.40354716777801514,-0.0945194661617279,0.008496761322021484,-0.050518810749053955,0.08970286697149277,0.09453743696212769,0.00396120548248291,-0.06004178151488304,-0.0670434832572937,0.027987360954284668,0.02689017914235592,-0.02273184061050415,-0.02654123306274414,0.0,0.0,0.0,0.0,-0.011892354115843773,-0.0037585378158837557,0.00401636678725481,-0.009193534962832928,0.0028131031431257725,-0.012018109671771526,-0.03941628336906433,-0.01941547729074955,0.005835691466927528,-0.03794104605913162,0.02926056645810604,-0.046860333532094955,-0.2387257069349289,-0.3878229856491089,-0.15823011100292206,-0.4170730710029602,-0.25972121953964233,0.0013604462146759033,-0.3003317415714264,-0.5138487219810486,0.3578110933303833,-0.3887541890144348,-0.3843716084957123,0.015058822929859161,0.43988266587257385,1.2950315475463867,-0.0555969774723053,-0.04342840611934662,-1.111531138420105,-1.5017902851104736,-0.47178182005882263,-1.6635888814926147
1760498769.5226762,0.02,-0.04628323018550873,-0.03978274017572403,0.14466126263141632,0.007772728800773621,0.0001221273560076952,-0.9999697804450989,0.5457854270935059,-0.16934871673583984,0.39787375926971436,-0.09827495366334915,0.006356537342071533,-0.04846155643463135,0.08675835281610489,0.09642982482910156,-0.0016627311706542969,-0.07616821676492691,-0.07032930850982666,0.02925395965576172,0.014972079545259476,-0.010874748229980469,-0.04521667957305908,0.0,0.0,0.0,0.0,-0.011699177324771881,-0.005370718892663717,0.004855827894061804,-0.0062816329300403595,0.005427944473922253,-0.013785610906779766,-0.04016370698809624,-0.005236765835434198,0.0027610836550593376,-0.024505309760570526,0.029482334852218628,-0.04492942988872528,-0.18524543941020966,-0.41043955087661743,-0.2248811274766922,-0.3710234463214874,-0.3580947518348694,-0.0897459089756012,-0.2789236009120941,-0.9919267296791077,0.35437560081481934,-0.4766913056373596,-0.5208158493041992,-0.055793311446905136,0.5259150266647339,1.9580192565917969,0.06474590301513672,-0.1987731009721756,-1.0534721612930298,-1.6564983129501343,-0.7935552000999451,-1.4538017511367798
1760498769.5783434,0.02,-0.027960050851106644,-0.05469229817390442,0.14866796135902405,0.0038355975411832333,0.002666283631697297,-0.9999890923500061,0.5457854270935059,-0.16934871673583984,0.39191222190856934,-0.09836532175540924,0.0018976926803588867,-0.046241581439971924,0.08508693426847458,0.099312424659729,-0.007546782493591309,-0.09178060293197632,-0.0689389705657959,0.030314862728118896,0.01127676572650671,1.7583370208740234e-05,-0.06016230583190918,0.0,0.0,0.0,0.0,0.003530941903591156,-0.013952079229056835,0.0030925367027521133,-0.0039130887016654015,0.007965506985783577,-0.015038018114864826,-0.03887861594557762,0.005692390259355307,0.0016865537036210299,-0.0008227137150242925,0.025483956560492516,-0.032199274748563766,-0.19810210168361664,-0.43596792221069336,-0.29327449202537537,-0.3184102475643158,-0.34335342049598694,-0.16356566548347473,-0.26892751455307007,-1.4815630912780762,0.3706560730934143,-0.503882646560669,-0.5432929992675781,-0.19058465957641602,0.5588774085044861,2.387071132659912,0.12595722079277039,-0.3032052516937256,-0.9619219303131104,-1.7496534585952759,-1.1425421237945557,-1.2466989755630493
1760498769.6351624,0.02,-0.0017852932214736938,-0.05769098550081253,0.14288371801376343,-0.0005720955086871982,0.003187626600265503,-0.9999947547912598,0.5457854270935059,-0.16934871673583984,0.38604581356048584,-0.09283402562141418,-0.0061907172203063965,-0.0414394736289978,0.0844377875328064,0.10204687714576721,-0.011838018894195557,-0.10621263086795807,-0.06593430042266846,0.03393656015396118,0.01778068207204342,0.007856190204620361,-0.06798815727233887,0.0,0.0,0.0,0.0,0.01677439734339714,-0.021625664085149765,0.008457906544208527,-0.001795136951841414,0.006666121073067188,-0.010032492689788342,-0.03573540598154068,0.007447549141943455,0.01051194965839386,0.024891367182135582,0.01577877067029476,-0.011990107595920563,-0.2017751932144165,-0.4478026032447815,-0.33832764625549316,-0.26595649123191833,-0.23268228769302368,-0.168250173330307,-0.2403034269809723,-1.831855297088623,0.38996434211730957,-0.47995832562446594,-0.46697893738746643,-0.32840630412101746,0.5717085003852844,2.5335781574249268,0.11971734464168549,-0.3364402651786804,-0.9041383862495422,-1.6955512762069702,-1.3669729232788086,-1.0348178148269653
1760498769.688112,0.02,0.02039298415184021,-0.06021106243133545,0.13365139067173004,-0.005146033130586147,0.001785428961738944,-0.9999851584434509,0.5457854270935059,-0.16934871673583984,0.3805118799209595,-0.08333166688680649,-0.016058623790740967,-0.03691232204437256,0.08419966697692871,0.10354766249656677,-0.01401817798614502,-0.11946485936641693,-0.06379657983779907,0.041803717613220215,0.033468056470155716,0.010099291801452637,-0.06813299655914307,0.0,0.0,0.0,0.0,0.02419494278728962,-0.024575751274824142,0.00687028095126152,-0.0013786490308120847,0.003024132689461112,-0.0055579617619514465,-0.03332720324397087,0.004449607338756323,0.02077183686196804,0.04587759077548981,-0.00021513317187782377,0.005794900935143232,-0.20487523078918457,-0.4438795745372772,-0.3644901216030121,-0.23368564248085022,-0.11063116788864136,-0.157330721616745,-0.20826324820518494,-1.961014986038208,0.3838808834552765,-0.46429792046546936,-0.36040443181991577,-0.422474205493927,0.5706292390823364,2.493969440460205,0.06282968819141388,-0.3243601322174072,-0.866222083568573,-1.6424660682678223,-1.4988656044006348,-0.8989939093589783
1760498769.761853,0.02,0.028541199862957,-0.06560245156288147,0.12543253600597382,-0.010069245472550392,-0.0005263239145278931,-0.9999491572380066,0.5457854270935059,-0.16934871673583984,0.37533819675445557,-0.07246000319719315,-0.025898993015289307,-0.034911930561065674,0.08330869674682617,0.10381218791007996,-0.015232622623443604,-0.13245534896850586,-0.06364130973815918,0.05278724431991577,0.0551317036151886,0.005345284938812256,-0.06263768672943115,0.0,0.0,0.0,0.0,0.02626224234700203,-0.023732228204607964,0.0009151350823231041,-0.00374473980627954,8.730683475732803e-05,-0.0038677470292896032,-0.033635105937719345,-0.0006544578936882317,0.027272600680589676,0.057677220553159714,-0.01798873022198677,0.017050350084900856,-0.20805037021636963,-0.4366571605205536,-0.3678710162639618,-0.22272174060344696,-0.026760224252939224,-0.14995473623275757,-0.1880415678024292,-1.8755344152450562,0.37090790271759033,-0.46503081917762756,-0.28194940090179443,-0.4876757562160492,0.5696260333061218,2.341670274734497,0.011465802788734436,-0.27028876543045044,-0.8541128635406494,-1.6271426677703857,-1.5275051593780518,-0.8354450464248657
1760498769.810687,0.02,0.033090680837631226,-0.06740177422761917,0.11896045506000519,-0.015228291042149067,-0.0032607433386147022,-0.9998787045478821,0.5457854270935059,-0.16934871673583984,0.3704841136932373,-0.06205890327692032,-0.034140706062316895,-0.03634285926818848,0.08148454874753952,0.1033906638622284,-0.015849947929382324,-0.14552253484725952,-0.06644678115844727,0.06650048494338989,0.0791933611035347,-0.005797863006591797,-0.0542144775390625,0.0,0.0,0.0,0.0,0.024380158632993698,-0.018867040053009987,-0.006732364185154438,-0.006149218883365393,-0.0013751831138506532,-0.0019644189160317183,-0.033609539270401,-0.009054074995219707,0.03293503075838089,0.060293883085250854,-0.032536718994379044,0.021200232207775116,-0.2108762264251709,-0.43413791060447693,-0.3738255500793457,-0.23397286236286163,0.010591443628072739,-0.1542750895023346,-0.1927819848060608,-1.6100562810897827,0.3547619581222534,-0.47014960646629333,-0.20826296508312225,-0.5416257381439209,0.5759251117706299,2.082270860671997,-0.030164077877998352,-0.1724000722169876,-0.8645514249801636,-1.642968773841858,-1.4752137660980225,-0.8412714004516602
1760498769.8628085,0.02,0.039946962147951126,-0.05183904245495796,0.11170575022697449,-0.019683070480823517,-0.006395596545189619,-0.999785840511322,0.5457854270935059,-0.16934871673583984,0.36592555046081543,-0.05468638613820076,-0.03879725933074951,-0.0424078106880188,0.07906635105609894,0.10245460271835327,-0.014462172985076904,-0.15830208361148834,-0.0742540955543518,0.08475244045257568,0.10155671089887619,-0.021168172359466553,-0.04528665542602539,0.0,0.0,0.0,0.0,0.016061538830399513,-0.008647087961435318,-0.01682589016854763,-0.006999477744102478,-0.002781580900773406,0.005657378118485212,-0.032198626548051834,-0.021989118307828903,0.04808049649000168,0.05236833915114403,-0.04043847322463989,0.02031107060611248,-0.20333588123321533,-0.43291187286376953,-0.33928626775741577,-0.2671011984348297,-0.004761580377817154,-0.15824776887893677,-0.23270748555660248,-1.1823444366455078,0.3373729884624481,-0.4547736942768097,-0.11236897110939026,-0.5740970373153687,0.600292980670929,1.6416404247283936,-0.0840955525636673,-0.03764231503009796,-0.826727032661438,-1.6202980279922485,-1.343513011932373,-0.9418182969093323
1760498769.9220834,0.02,0.060519032180309296,-0.0070723071694374084,0.09251725673675537,-0.021410346031188965,-0.01137461606413126,-0.9997060894966125,0.5457854270935059,-0.16934871673583984,0.36194634437561035,-0.05367258936166763,-0.03719216585159302,-0.0566103458404541,0.07785410434007645,0.09991931915283203,-0.006200551986694336,-0.16825862228870392,-0.08929640054702759,0.1125037670135498,0.11776953190565109,-0.03633260726928711,-0.039807677268981934,0.0,0.0,0.0,0.0,-0.003496898803859949,0.007279285229742527,-0.03619234636425972,-0.0038393933791667223,-0.00741181243211031,0.026687471196055412,-0.02408388815820217,-0.04261251911520958,0.07626234740018845,0.030772266909480095,-0.03466338291764259,0.0076560950838029385,-0.17898863554000854,-0.4242889881134033,-0.28655681014060974,-0.2909000813961029,0.0034891925752162933,-0.1300189197063446,-0.3402094542980194,-0.5147778391838074,0.3257431983947754,-0.3496451675891876,0.1481029987335205,-0.5029749274253845,0.6209672093391418,0.6382881999015808,-0.24638745188713074,0.11538775265216827,-0.7092158198356628,-1.485927939414978,-1.0787358283996582,-1.3016101121902466
1760498769.9778154,0.02,0.09587408602237701,0.05754190683364868,0.06646767258644104,-0.01872926950454712,-0.019182143732905388,-0.9996405839920044,0.5457854270935059,-0.16934871673583984,0.3588557243347168,-0.052844125777482986,-0.032485008239746094,-0.06861555576324463,0.07981050759553909,0.09469431638717651,0.011398673057556152,-0.16360098123550415,-0.09966915845870972,0.13378167152404785,0.12229064851999283,-0.04313725233078003,-0.042763352394104004,0.0,0.0,0.0,0.0,0.002380585763603449,0.011223278008401394,-0.02260410226881504,0.004988263826817274,-0.013201321475207806,0.04871302470564842,0.02765134908258915,-0.014265361241996288,0.03832898288965225,-0.005303593352437019,-0.007571380119770765,-0.011509299278259277,-0.19505900144577026,-0.38336068391799927,-0.20592384040355682,-0.22766868770122528,-0.10221278667449951,0.04676046967506409,-0.44722285866737366,0.5150955319404602,0.23788535594940186,-0.18891789019107819,0.44652631878852844,-0.15255388617515564,0.5990789532661438,-0.8819790482521057,-0.4291689395904541,0.21778284013271332,-0.6826050281524658,-1.346122145652771,-0.7380329966545105,-1.6496648788452148
1760498770.0372233,0.02,0.08325226604938507,0.07673954963684082,0.062221698462963104,-0.013165552169084549,-0.025822345167398453,-0.9995798468589783,0.5457854270935059,-0.16934871673583984,0.3563188314437866,-0.05123250558972359,-0.024089276790618896,-0.07347297668457031,0.0823628380894661,0.08992975950241089,0.026875734329223633,-0.13750191032886505,-0.09036916494369507,0.12219053506851196,0.11838749051094055,-0.045184969902038574,-0.04088413715362549,0.0,0.0,0.0,0.0,0.006226052064448595,0.023598037660121918,-0.011998213827610016,0.008277473039925098,-0.010568051598966122,0.03162607178092003,0.08082474768161774,0.034713972359895706,-0.04599788412451744,-0.008113010786473751,-0.008041001856327057,0.018626205623149872,-0.2886802852153778,-0.31853362917900085,-0.18558701872825623,-0.29367420077323914,0.012493874877691269,0.2361825406551361,-0.48405593633651733,0.9472863078117371,0.0981939509510994,-0.18393753468990326,0.36966803669929504,0.11307374387979507,0.5266507863998413,-1.731923222541809,-0.5789101123809814,0.20303846895694733,-1.0242832899093628,-1.4688578844070435,-0.35254496335983276,-2.0929131507873535
1760498770.0890863,0.02,0.03338604420423508,0.07409483194351196,0.08274632692337036,-0.007447069510817528,-0.029213551431894302,-0.9995454549789429,0.5457854270935059,-0.16934871673583984,0.35334014892578125,-0.050622858107089996,-0.013885974884033203,-0.07502573728561401,0.08387679606676102,0.0864759087562561,0.033936381340026855,-0.10252532362937927,-0.07155835628509521,0.09281271696090698,0.11242718249559402,-0.04911094903945923,-0.030140042304992676,0.0,0.0,0.0,0.0,0.0015680249780416489,0.026028210297226906,-0.002377271419391036,0.003768542781472206,-0.00777791440486908,0.011174282059073448,0.08549748361110687,0.04347233101725578,-0.06259053945541382,-0.017249783501029015,-0.01143463235348463,0.030934590846300125,-0.3334832787513733,-0.2845698297023773,-0.165178120136261,-0.33590254187583923,0.09575843811035156,0.24988684058189392,-0.5077189207077026,1.071472406387329,0.11730510741472244,-0.11045169085264206,0.06370146572589874,0.1053101196885109,0.4413672983646393,-2.0714471340179443,-0.543990969657898,0.16942478716373444,-1.2254832983016968,-1.4125720262527466,-0.12620043754577637,-2.1995341777801514
1760498770.150857,0.02,-0.02373056858778,0.0693008303642273,0.09627311676740646,-0.0020898031070828438,-0.027950000017881393,-0.9996071457862854,0.5457854270935059,-0.16934871673583984,0.3497096300125122,-0.053322918713092804,-0.006390392780303955,-0.07276129722595215,0.08214722573757172,0.0844426155090332,0.03568565845489502,-0.07203135639429092,-0.054694414138793945,0.06435716152191162,0.10180273652076721,-0.053404390811920166,-0.01719045639038086,0.0,0.0,0.0,0.0,-0.007465192582458258,0.016568448394536972,0.008464040234684944,-0.005086825229227543,-0.004725306760519743,0.0030893816146999598,0.06798584014177322,0.03350655734539032,-0.05461585149168968,-0.028905583545565605,-0.009977472014725208,0.03148314356803894,-0.3206453323364258,-0.2938309609889984,-0.13708777725696564,-0.3642658293247223,0.015791770070791245,0.17427876591682434,-0.5339473485946655,1.054854154586792,0.22024929523468018,-0.01928558200597763,-0.03243601322174072,0.04230866581201553,0.3346099555492401,-1.945954442024231,-0.4665253758430481,0.19360584020614624,-1.2467126846313477,-1.2991174459457397,-0.05391024798154831,-2.145251750946045
1760498770.2067223,0.02,-0.03879179432988167,0.06199614331126213,0.09779345989227295,0.002803790383040905,-0.024595342576503754,-0.9996935725212097,0.5457854270935059,-0.16934871673583984,0.34582042694091797,-0.057755690068006516,-0.002075672149658203,-0.06787729263305664,0.07870866358280182,0.08301955461502075,0.037068843841552734,-0.048390451818704605,-0.0437658429145813,0.04241305589675903,0.08899501711130142,-0.05594325065612793,-0.006374478340148926,0.0,0.0,0.0,0.0,-0.010288525372743607,0.00924684014171362,0.013015895150601864,-0.007925370708107948,-0.0038595050573349,0.005308398045599461,0.05191795155405998,0.018789464607834816,-0.04071147367358208,-0.031676482409238815,-0.004025659058243036,0.023465696722269058,-0.30486392974853516,-0.3188154101371765,-0.11065858602523804,-0.3823662996292114,-0.10528066754341125,0.13695654273033142,-0.5478715896606445,0.9985871911048889,0.2861449122428894,0.02734748274087906,-0.01839977502822876,0.03524763137102127,0.25212362408638,-1.5255944728851318,-0.40124502778053284,0.24135397374629974,-1.240067481994629,-1.2440745830535889,-0.059705279767513275,-2.05420184135437
1760498770.2600937,0.02,-0.027728945016860962,0.05145604908466339,0.09451727569103241,0.007024693302810192,-0.021857131272554398,-0.9997364282608032,0.5457854270935059,-0.16934871673583984,0.34196436405181885,-0.06175785884261131,0.0009219646453857422,-0.06298017501831055,0.07566690444946289,0.08145797252655029,0.03995668888092041,-0.03149712458252907,-0.039846062660217285,0.0295371413230896,0.07678920775651932,-0.055793702602386475,0.0001774430274963379,0.0,0.0,0.0,0.0,-0.008738945238292217,0.007172656245529652,0.010998106561601162,-0.0065484801307320595,-0.004266568925231695,0.008698257617652416,0.03533630073070526,0.0026330258697271347,-0.020646361634135246,-0.029142875224351883,0.002813606755807996,0.012223158031702042,-0.2996906042098999,-0.33850058913230896,-0.09091170132160187,-0.39269959926605225,-0.19330570101737976,0.12988820672035217,-0.5540993213653564,0.9450284838676453,0.3073304295539856,0.035979487001895905,-0.015206381678581238,0.05549456924200058,0.21731732785701752,-1.113552212715149,-0.3543715178966522,0.2738403081893921,-1.249169945716858,-1.2390481233596802,-0.1111680194735527,-1.9745997190475464
1760498770.3140755,0.02,-0.02100895531475544,0.03513776883482933,0.09184672683477402,0.01013787742704153,-0.020018164068460464,-0.9997482299804688,0.5457854270935059,-0.16934871673583984,0.3382073640823364,-0.06511031836271286,0.003622889518737793,-0.05986380577087402,0.07320737838745117,0.07999271154403687,0.043030500411987305,-0.022403862327337265,-0.0419124960899353,0.025148391723632812,0.06551571190357208,-0.05310589075088501,0.0017122626304626465,0.0,0.0,0.0,0.0,-0.007846742868423462,0.0066647157073020935,0.005911835469305515,-0.0058740293607115746,-0.0034040112514048815,0.007278888951987028,0.015444949269294739,-0.009861364960670471,-0.003435684833675623,-0.02745836041867733,0.008786167949438095,-0.0005110531928949058,-0.2958548367023468,-0.35300061106681824,-0.08082395046949387,-0.3967489004135132,-0.2244168519973755,0.12653091549873352,-0.5456758737564087,0.858650803565979,0.3185017704963684,0.01963994652032852,-0.025480210781097412,0.07359287887811661,0.21436801552772522,-0.8349106907844543,-0.32005083560943604,0.2708500027656555,-1.2406679391860962,-1.2673497200012207,-0.16396266222000122,-1.9185870885849
1760498770.371691,0.02,-0.02712748944759369,0.01680823042988777,0.09089981764554977,0.01185564137995243,-0.018008416518568993,-0.999767541885376,0.5457854270935059,-0.16934871673583984,0.3345041275024414,-0.06864703446626663,0.005699515342712402,-0.05847269296646118,0.07050655037164688,0.07933777570724487,0.04455375671386719,-0.022161152213811874,-0.04791158437728882,0.026845455169677734,0.05422975495457649,-0.048454999923706055,-0.0016398429870605469,0.0,0.0,0.0,0.0,-0.008800563402473927,0.00433631706982851,0.0027607984375208616,-0.006947559304535389,-0.0008227218058891594,0.002422987250611186,-0.0061302147805690765,-0.017524970695376396,0.008553246036171913,-0.028010914102196693,0.013225072994828224,-0.01242911722511053,-0.2876066565513611,-0.367014080286026,-0.08504097163677216,-0.3959296941757202,-0.2237638533115387,0.11495044827461243,-0.5124967098236084,0.7093100547790527,0.3339042067527771,-0.015455774031579494,-0.0286170095205307,0.078678198158741,0.23341479897499084,-0.6006619930267334,-0.29471027851104736,0.24142210185527802,-1.1967676877975464,-1.3071303367614746,-0.20574671030044556,-1.876555323600769
1760498770.4238129,0.02,-0.03671731427311897,-0.0016524046659469604,0.09095440059900284,0.012094507925212383,-0.01530548371374607,-0.999809741973877,0.5457854270935059,-0.16934871673583984,0.33080387115478516,-0.07257115840911865,0.006537735462188721,-0.058020830154418945,0.06739816814661026,0.07986146211624146,0.04383671283721924,-0.03012090176343918,-0.0565372109413147,0.03200739622116089,0.04260774701833725,-0.04217684268951416,-0.009783625602722168,0.0,0.0,0.0,0.0,-0.009650709107518196,0.0007580367964692414,0.0013668149476870894,-0.007815607823431492,0.002281959168612957,-0.0031943463254719973,-0.02383248321712017,-0.0233334731310606,0.012927986681461334,-0.028707940131425858,0.017086362466216087,-0.024076836183667183,-0.2763768136501312,-0.38090428709983826,-0.11480983346700668,-0.3921310305595398,-0.21250268816947937,0.10318878293037415,-0.45921552181243896,0.4813612997531891,0.3453094959259033,-0.0706416592001915,-0.037632666528224945,0.0685543343424797,0.27362024784088135,-0.31280025839805603,-0.263161301612854,0.1862092763185501,-1.126880168914795,-1.357628345489502,-0.263306200504303,-1.8331621885299683
1760498770.4779754,0.02,-0.0426846444606781,-0.015047430992126465,0.0937727838754654,0.01106495875865221,-0.01193203404545784,-0.9998675584793091,0.5457854270935059,-0.16934871673583984,0.32704436779022217,-0.07652941346168518,0.005841374397277832,-0.05756932497024536,0.06428413093090057,0.08173573017120361,0.040804505348205566,-0.041796695441007614,-0.06661450862884521,0.03543376922607422,0.030857151374220848,-0.03476685285568237,-0.021807312965393066,0.0,0.0,0.0,0.0,-0.008987336419522762,-0.002901504747569561,0.002131331479176879,-0.007030792068690062,0.005768418312072754,-0.008495158515870571,-0.028514260426163673,-0.02562776766717434,0.005234400741755962,-0.028576448559761047,0.019207067787647247,-0.03191891685128212,-0.2641668915748596,-0.3933515250682831,-0.14701727032661438,-0.3863670527935028,-0.19961446523666382,0.08289042115211487,-0.3915518820285797,0.15049788355827332,0.3478359282016754,-0.15628568828105927,-0.09060904383659363,0.04751748591661453,0.3427235782146454,0.12049252539873123,-0.21603938937187195,0.10115872323513031,-1.049943447113037,-1.4251405000686646,-0.37963658571243286,-1.7564908266067505
1760498770.5300906,0.02,-0.05135420337319374,-0.022660791873931885,0.10883358865976334,0.009341900236904621,-0.007680036127567291,-0.9999268651008606,0.5457854270935059,-0.16934871673583984,0.3228555917739868,-0.08043640851974487,0.005514681339263916,-0.05555945634841919,0.06129484251141548,0.08534979820251465,0.034728407859802246,-0.0544537678360939,-0.07399946451187134,0.036915361881256104,0.01826821267604828,-0.027216613292694092,-0.03506755828857422,0.0,0.0,0.0,0.0,-0.008414248004555702,-0.001055607688613236,0.0038441848009824753,-0.006187866907566786,0.010292347520589828,-0.017279034480452538,-0.03129533678293228,-0.01670762710273266,0.004651718307286501,-0.031157249584794044,0.01872425153851509,-0.03373083844780922,-0.2709597945213318,-0.3976399600505829,-0.18294839560985565,-0.3828166425228119,-0.2354232370853424,0.032545626163482666,-0.32348647713661194,-0.3393760025501251,0.33114680647850037,-0.29322776198387146,-0.31291794776916504,0.022846214473247528,0.45276400446891785,0.903739333152771,-0.10719968378543854,-0.017820969223976135,-1.0508899688720703,-1.5143259763717651,-0.5537969470024109,-1.6235988140106201
1760498770.5882044,0.02,-0.06195804104208946,-0.04007768630981445,0.12488275021314621,0.006441063247621059,-0.0026564206928014755,-0.9999757409095764,0.5457854270935059,-0.16934871673583984,0.318045973777771,-0.08389965444803238,0.0037149786949157715,-0.05372518301010132,0.05831385403871536,0.09027886390686035,0.02495133876800537,-0.06863819807767868,-0.07654023170471191,0.03599661588668823,0.00692365039139986,-0.019663333892822266,-0.04890239238739014,0.0,0.0,0.0,0.0,-0.009175485000014305,-0.006422010716050863,0.007957466877996922,-0.0067567648366093636,0.012773427180945873,-0.025672955438494682,-0.03599747270345688,-0.003317570313811302,-0.003913006279617548,-0.025023048743605614,0.019309375435113907,-0.034335214644670486,-0.2376636564731598,-0.40157029032707214,-0.2313099205493927,-0.36174625158309937,-0.2856181263923645,-0.09963887929916382,-0.28945112228393555,-0.9483014941215515,0.3319944143295288,-0.4074483811855316,-0.5183813571929932,-0.038296665996313095,0.5391730666160583,1.7651594877243042,0.03414861857891083,-0.1761348396539688,-1.102362871170044,-1.5718462467193604,-0.796421229839325,-1.416073203086853
1760498770.6396377,0.02,-0.03851146623492241,-0.05889584496617317,0.12785781919956207,0.002177627757191658,0.0009800089756026864,-0.9999971389770508,0.5457854270935059,-0.16934871673583984,0.31289589405059814,-0.08250106871128082,-0.001190781593322754,-0.05025285482406616,0.05663787201046944,0.0956762433052063,0.013821959495544434,-0.0824594646692276,-0.07412946224212646,0.03341549634933472,0.003232724266126752,-0.010992884635925293,-0.06267428398132324,0.0,0.0,0.0,0.0,0.007601130288094282,-0.014968632720410824,0.006762369070202112,-0.003474502358585596,0.013574928045272827,-0.027855295687913895,-0.03422622010111809,0.008460124023258686,-0.007344774901866913,0.000529431679751724,0.020041607320308685,-0.0259185079485178,-0.22519317269325256,-0.4153044819831848,-0.28833839297294617,-0.3020575940608978,-0.23474854230880737,-0.18468859791755676,-0.2817724645137787,-1.5883119106292725,0.35954034328460693,-0.4486217200756073,-0.5682228803634644,-0.16424351930618286,0.5806537866592407,2.3509862422943115,0.11789928376674652,-0.30858856439590454,-1.0934985876083374,-1.5988860130310059,-1.1407124996185303,-1.1841849088668823
1760498770.6979845,0.02,-0.00492221862077713,-0.06199067831039429,0.12001796066761017,-0.002635784214362502,0.0018999786116182804,-0.999994695186615,0.5457854270935059,-0.16934871673583984,0.30789220333099365,-0.07433316111564636,-0.00950610637664795,-0.04435938596725464,0.056512847542762756,0.10036733746528625,0.004534006118774414,-0.0944574698805809,-0.0692480206489563,0.033309757709503174,0.01076965406537056,-0.003837287425994873,-0.06978309154510498,0.0,0.0,0.0,0.0,0.022579865530133247,-0.021848246455192566,0.010979828424751759,-0.00032480835216119885,0.011135909706354141,-0.02197512984275818,-0.02984797954559326,0.01226945873349905,0.0021571533288806677,0.028064852580428123,0.015436969697475433,-0.009993856772780418,-0.22625742852687836,-0.4224109351634979,-0.34709441661834717,-0.24538500607013702,-0.07986980676651001,-0.18919417262077332,-0.25253963470458984,-2.0244688987731934,0.3712090253829956,-0.4386352002620697,-0.46936535835266113,-0.30826666951179504,0.5854526162147522,2.525198221206665,0.10192270576953888,-0.3465907573699951,-1.0502210855484009,-1.567944049835205,-1.4334523677825928,-0.9662594199180603
1760498770.7534075,0.02,0.02263353019952774,-0.061603594571352005,0.11093320697546005,-0.007403443101793528,0.0004804308991879225,-0.9999724626541138,0.5457854270935059,-0.16934871673583984,0.303256630897522,-0.06207607686519623,-0.019115090370178223,-0.038852691650390625,0.05697360262274742,0.10315147042274475,-0.0014815926551818848,-0.10502135753631592,-0.06472831964492798,0.03797793388366699,0.028243109583854675,-0.0020698904991149902,-0.0658121109008789,0.0,0.0,0.0,0.0,0.03060341440141201,-0.02363484911620617,0.009025394916534424,0.0006855389219708741,0.005470131523907185,-0.013894455507397652,-0.026803065091371536,0.010420367121696472,0.013502758927643299,0.05050132796168327,0.00037450791569426656,0.01500509213656187,-0.232769176363945,-0.4166410565376282,-0.3826616704463959,-0.20463740825653076,0.054748233407735825,-0.16777661442756653,-0.21329116821289062,-2.1496834754943848,0.36560866236686707,-0.42517998814582825,-0.3543364703655243,-0.40641966462135315,0.5784164667129517,2.4605233669281006,0.035237669944763184,-0.3278768062591553,-1.0045839548110962,-1.5180964469909668,-1.60087251663208,-0.8189249038696289
1760498770.8141506,0.02,0.032052647322416306,-0.064912348985672,0.10446679592132568,-0.012392726726830006,-0.002176240086555481,-0.9999208450317383,0.5457854270935059,-0.16934871673583984,0.2989464998245239,-0.049039576202631,-0.028065204620361328,-0.03608196973800659,0.0568709671497345,0.10377943515777588,-0.00495147705078125,-0.1153213307261467,-0.061828434467315674,0.04556399583816528,0.05184352397918701,-0.0067099928855896,-0.05463087558746338,0.0,0.0,0.0,0.0,0.030317887663841248,-0.02083376981317997,0.0029470704030245543,-0.00201395177282393,0.0003455395926721394,-0.008154291659593582,-0.027132293209433556,0.006361460778862238,0.018458344042301178,0.06096137687563896,-0.013982239179313183,0.02326151356101036,-0.2367958128452301,-0.40909239649772644,-0.3975999057292938,-0.188410684466362,0.12783539295196533,-0.15201890468597412,-0.18971195816993713,-2.0089516639709473,0.3633820414543152,-0.4222283363342285,-0.2544684112071991,-0.47420987486839294,0.5628313422203064,2.258150339126587,-0.027289509773254395,-0.25671881437301636,-0.9885373711585999,-1.486336350440979,-1.6341800689697266,-0.7287894487380981
1760498770.8696034,0.02,0.029405947774648666,-0.05829552561044693,0.09895680099725723,-0.017091497778892517,-0.004566751886159182,-0.9998434782028198,0.5457854270935059,-0.16934871673583984,0.2948988676071167,-0.038993366062641144,-0.03443425893783569,-0.03664374351501465,0.05493469536304474,0.10325589776039124,-0.006232500076293945,-0.12675046920776367,-0.06197035312652588,0.0566595196723938,0.07598832994699478,-0.016277551651000977,-0.043177127838134766,0.0,0.0,0.0,0.0,0.021850578486919403,-0.012991768307983875,-0.005059811286628246,-0.0065556797198951244,-0.0021604588255286217,-0.0014127513859421015,-0.029921812936663628,-0.002197499154135585,0.02909672260284424,0.05977863818407059,-0.028405530378222466,0.029376257210969925,-0.23891139030456543,-0.40890932083129883,-0.38158029317855835,-0.19448146224021912,0.12752830982208252,-0.15661472082138062,-0.197494238615036,-1.6751246452331543,0.35657984018325806,-0.4212583005428314,-0.18176104128360748,-0.533614993095398,0.5589462518692017,1.9627629518508911,-0.0721864253282547,-0.14097334444522858,-1.000406265258789,-1.4973481893539429,-1.5722217559814453,-0.6900425553321838
1760498770.9213634,0.02,0.03711051866412163,-0.040526486933231354,0.09442367404699326,-0.020699234679341316,-0.00732084084302187,-0.9997589588165283,0.5457854270935059,-0.16934871673583984,0.29107964038848877,-0.03435695543885231,-0.036111414432525635,-0.04273796081542969,0.05214514955878258,0.10160136222839355,-0.0037285685539245605,-0.13835911452770233,-0.06677716970443726,0.07333344221115112,0.09750670939683914,-0.029864847660064697,-0.0320582389831543,0.0,0.0,0.0,0.0,0.008660202845931053,-0.0010872010607272387,-0.01767326332628727,-0.007607079576700926,-0.005286178085952997,0.009798957966268063,-0.028626015409827232,-0.014243990182876587,0.0429120771586895,0.049886949360370636,-0.03583484888076782,0.024011101573705673,-0.2363017052412033,-0.4103327691555023,-0.36647850275039673,-0.2319096326828003,0.07043951749801636,-0.17053091526031494,-0.2500791549682617,-1.167683482170105,0.3240184485912323,-0.40327563881874084,-0.11523176729679108,-0.5441043376922607,0.5694050192832947,1.4987150430679321,-0.12518410384655,-0.003387466073036194,-0.9912938475608826,-1.521977424621582,-1.404090166091919,-0.7899478673934937
1760498770.9753401,0.02,0.05664537474513054,0.007997393608093262,0.07813705503940582,-0.021278850734233856,-0.011786902323365211,-0.999704122543335,0.5457854270935059,-0.16934871673583984,0.2877225875854492,-0.03683982044458389,-0.03190743923187256,-0.05540519952774048,0.050279755145311356,0.09749031066894531,0.007099747657775879,-0.14758771657943726,-0.07946878671646118,0.09940648078918457,0.11162944883108139,-0.04280972480773926,-0.025989055633544922,0.0,0.0,0.0,0.0,-0.007400251924991608,0.013334134593605995,-0.02407725155353546,-0.004991377238184214,-0.011898024939000607,0.03366304561495781,-0.022586442530155182,-0.038083095103502274,0.0743308737874031,0.02490406297147274,-0.028506580740213394,0.007390501443296671,-0.2537384033203125,-0.39874404668807983,-0.30920982360839844,-0.25295349955558777,-0.011610422283411026,-0.13371717929840088,-0.36746323108673096,-0.3925616145133972,0.3016696572303772,-0.2748342454433441,0.1001485288143158,-0.460919588804245,0.5788602232933044,0.4763577878475189,-0.258026659488678,0.1750880926847458,-0.878240704536438,-1.3773549795150757,-1.133756160736084,-1.1145392656326294
1760498771.037002,0.02,0.06846006214618683,0.05449850112199783,0.05208249390125275,-0.0183587446808815,-0.0178629569709301,-0.9996718764305115,0.5457854270935059,-0.16934871673583984,0.2852092981338501,-0.03784427046775818,-0.027042806148529053,-0.06304049491882324,0.050110381096601486,0.09091556072235107,0.024834394454956055,-0.14558513462543488,-0.08932620286941528,0.12062036991119385,0.11266790330410004,-0.04744422435760498,-0.030527353286743164,0.0,0.0,0.0,0.0,-0.0034668862354010344,0.010938622057437897,-0.013903774321079254,-0.0017670042579993606,-0.01622103527188301,0.04673336446285248,0.01730138063430786,-0.014758777804672718,0.040346428751945496,-0.015363437123596668,-0.0020264715421944857,-0.019975019618868828,-0.24243751168251038,-0.3556012511253357,-0.21874582767486572,-0.2234189361333847,-0.15565979480743408,0.021588295698165894,-0.46568772196769714,0.574552595615387,0.21897417306900024,-0.13088415563106537,0.29249027371406555,-0.12031017988920212,0.5423727631568909,-0.8101540803909302,-0.4043581783771515,0.26034224033355713,-0.9293943643569946,-1.2582980394363403,-0.7995455861091614,-1.4594426155090332
1760498771.0949225,0.02,0.06737861037254333,0.06108405441045761,0.04637477546930313,-0.01372692734003067,-0.023229463025927544,-0.9996359348297119,0.5457854270935059,-0.16934871673583984,0.2832983732223511,-0.03782971575856209,-0.01974797248840332,-0.06717199087142944,0.05073363706469536,0.08470696210861206,0.039673447608947754,-0.12501226365566254,-0.08279788494110107,0.1132584810256958,0.10855653136968613,-0.04903346300125122,-0.030698418617248535,0.0,0.0,0.0,0.0,0.0021092307288199663,0.020223302766680717,-0.011107406578958035,0.003237798111513257,-0.014447078108787537,0.03087981604039669,0.06501937657594681,0.026631955057382584,-0.03514362871646881,-0.00849099364131689,-0.006593430880457163,0.010071014054119587,-0.3049719035625458,-0.30489811301231384,-0.19762936234474182,-0.2832880914211273,-0.0552566833794117,0.14743074774742126,-0.5056332349777222,0.990436851978302,0.09791106730699539,-0.12187882512807846,0.21053296327590942,0.0788743868470192,0.4817260503768921,-1.5074079036712646,-0.5487430095672607,0.2417878955602646,-1.1716065406799316,-1.3911290168762207,-0.4468185603618622,-1.917148232460022
1760498771.151246,0.02,0.02852819114923477,0.05847065895795822,0.06393617391586304,-0.009188897907733917,-0.02619600109755993,-0.9996145963668823,0.5457854270935059,-0.16934871673583984,0.281032919883728,-0.038141824305057526,-0.011630237102508545,-0.06988829374313354,0.051016274839639664,0.07968378067016602,0.047177910804748535,-0.097345732152462,-0.06911826133728027,0.09160220623016357,0.10326237976551056,-0.05248737335205078,-0.024012207984924316,0.0,0.0,0.0,0.0,-0.0007477395120076835,0.02028881013393402,-0.005564299412071705,0.0006339672836475074,-0.011765527538955212,0.013595704920589924,0.0667436495423317,0.03121725283563137,-0.04597628861665726,-0.015207231044769287,-0.010439857840538025,0.02050492726266384,-0.3240240514278412,-0.2793804109096527,-0.17179779708385468,-0.3156038224697113,-0.029236752539873123,0.15809336304664612,-0.5325638651847839,1.13032066822052,0.12529617547988892,-0.04437621682882309,-0.026904374361038208,0.05998346954584122,0.4365275204181671,-1.8652907609939575,-0.5231325626373291,0.20381470024585724,-1.258489966392517,-1.3136361837387085,-0.2630862593650818,-2.0079309940338135
1760498771.2044208,0.02,-0.019750505685806274,0.05529187247157097,0.07484222948551178,-0.004902712069451809,-0.02519085630774498,-0.9996706247329712,0.5457854270935059,-0.16934871673583984,0.2782219648361206,-0.04107663035392761,-0.006144165992736816,-0.06929248571395874,0.04875196889042854,0.07626783847808838,0.05008375644683838,-0.0734400600194931,-0.05653107166290283,0.06944406032562256,0.09418284893035889,-0.05655401945114136,-0.014968156814575195,0.0,0.0,0.0,0.0,-0.00790404062718153,0.011727727949619293,0.003965507727116346,-0.006304127164185047,-0.007848547771573067,0.006159767508506775,0.05345118045806885,0.02540694549679756,-0.04420993849635124,-0.0245758555829525,-0.009820562787353992,0.022506920620799065,-0.31064578890800476,-0.29111313819885254,-0.14704419672489166,-0.3404015004634857,-0.135696679353714,0.12213632464408875,-0.557056188583374,1.142952799797058,0.203518807888031,0.041170068085193634,-0.06575281172990799,0.027192942798137665,0.3515428602695465,-1.8599152565002441,-0.45613816380500793,0.22324401140213013,-1.2469110488891602,-1.244428038597107,-0.20571622252464294,-1.9684804677963257
1760498771.2657428,0.02,-0.028658242896199226,0.05010069161653519,0.07520744204521179,-0.000947847031056881,-0.022631263360381126,-0.9997434020042419,0.5457854270935059,-0.16934871673583984,0.275223970413208,-0.04511955752968788,-0.0032631754875183105,-0.06652981042861938,0.045393653213977814,0.07380431890487671,0.05253303050994873,-0.054051920771598816,-0.04775720834732056,0.05066758394241333,0.08365213871002197,-0.05935394763946533,-0.00722658634185791,0.0,0.0,0.0,0.0,-0.009252974763512611,0.005942414980381727,0.007649959530681372,-0.0077016837894916534,-0.006102986633777618,0.007639436516910791,0.0435563288629055,0.01564701646566391,-0.03664680942893028,-0.02580665424466133,-0.005332508590072393,0.0169869102537632,-0.2984069585800171,-0.3153007924556732,-0.1264011263847351,-0.35562846064567566,-0.2622365355491638,0.11351904273033142,-0.5767965316772461,1.1307690143585205,0.24578440189361572,0.09201998263597488,-0.04129442572593689,0.03330640494823456,0.27969521284103394,-1.5926883220672607,-0.4020397663116455,0.2625797986984253,-1.2328002452850342,-1.2282012701034546,-0.21242213249206543,-1.8901094198226929
1760498771.3200712,0.02,-0.014296896755695343,0.04497404024004936,0.07165762782096863,0.0026610828936100006,-0.020986415445804596,-0.9997762441635132,0.5457854270935059,-0.16934871673583984,0.272286057472229,-0.048343125730752945,-0.0013678669929504395,-0.06374859809875488,0.04281703755259514,0.07150459289550781,0.0565030574798584,-0.03869754448533058,-0.044027090072631836,0.038721323013305664,0.07412254810333252,-0.060274362564086914,-0.002254486083984375,0.0,0.0,0.0,0.0,-0.0068372576497495174,0.004318492952734232,0.00649092486128211,-0.005468802992254496,-0.005893258843570948,0.011532584205269814,0.03366275131702423,0.003830284345895052,-0.020217685028910637,-0.022524822503328323,-0.0007480715285055339,0.009957517497241497,-0.29367595911026,-0.3349721133708954,-0.11112650483846664,-0.3623037338256836,-0.35873425006866455,0.12234297394752502,-0.5905340909957886,1.1422523260116577,0.2548641562461853,0.11717069894075394,-0.030255496501922607,0.06375285238027573,0.24535775184631348,-1.3265154361724854,-0.36908143758773804,0.294087290763855,-1.229990005493164,-1.2427853345870972,-0.24805057048797607,-1.8128979206085205
1760498771.3723338,0.02,-0.0014955773949623108,0.03706306964159012,0.0677071064710617,0.005754582118242979,-0.020661965012550354,-0.9997699856758118,0.5457854270935059,-0.16934871673583984,0.26948249340057373,-0.05049648508429527,0.0004673004150390625,-0.06220132112503052,0.04125458747148514,0.06928747892379761,0.06154048442840576,-0.027674399316310883,-0.04438793659210205,0.03385210037231445,0.06598907709121704,-0.059556424617767334,-0.0003267526626586914,0.0,0.0,0.0,0.0,-0.004834476392716169,0.004282438196241856,0.0031781033612787724,-0.0036858234088867903,-0.005377249792218208,0.013009647838771343,0.022916017100214958,-0.004031024407595396,-0.0057335407473146915,-0.019621549174189568,0.0029719460289925337,0.0023967998567968607,-0.2918221652507782,-0.3489340543746948,-0.10395918041467667,-0.36295586824417114,-0.4163419008255005,0.13293293118476868,-0.6012657880783081,1.1721211671829224,0.25365567207336426,0.13267381489276886,-0.022615492343902588,0.098018579185009,0.23130327463150024,-1.2068122625350952,-0.3452072739601135,0.30669379234313965,-1.2285089492797852,-1.2741281986236572,-0.28274211287498474,-1.74954354763031
1760498771.4263463,0.02,-0.00010071694850921631,0.028187746182084084,0.064741350710392,0.008174688555300236,-0.020797323435544968,-0.9997503161430359,0.5457854270935059,-0.16934871673583984,0.2668067216873169,-0.05233827978372574,0.0021352171897888184,-0.06186056137084961,0.03995080664753914,0.06755226850509644,0.06647360324859619,-0.02095978707075119,-0.04664051532745361,0.03344780206680298,0.05846469849348068,-0.05777031183242798,-0.0010981559753417969,0.0,0.0,0.0,0.0,-0.004726048093289137,0.003562646685168147,0.0006456233677454293,-0.0037241836544126272,-0.003811181290075183,0.011915003880858421,0.012917558662593365,-0.006520567927509546,0.001993337878957391,-0.018803643062710762,0.005095419939607382,-0.003847913583740592,-0.2879329025745392,-0.36063745617866516,-0.10286038368940353,-0.3593507707118988,-0.43820175528526306,0.13617566227912903,-0.5996396541595459,1.1942267417907715,0.25700992345809937,0.14156471192836761,-0.0006637871265411377,0.11908764392137527,0.22712403535842896,-1.1937243938446045,-0.334561824798584,0.3065602779388428,-1.2108361721038818,-1.3066142797470093,-0.30079737305641174,-1.706262469291687
1760498771.4827523,0.02,-0.0022685956209897995,0.02172005921602249,0.06305903196334839,0.010013291612267494,-0.020834462717175484,-0.9997327923774719,0.5457854270935059,-0.16934871673583984,0.26421618461608887,-0.05422227084636688,0.003281116485595703,-0.06204646825790405,0.03857475891709328,0.06654685735702515,0.07084155082702637,-0.01758810691535473,-0.04918116331100464,0.035162925720214844,0.05109644681215286,-0.05545097589492798,-0.0037610530853271484,0.0,0.0,0.0,0.0,-0.00482103880494833,0.0020444814581424,-8.61607477418147e-05,-0.0038756728172302246,-0.001936187967658043,0.010541552677750587,0.006018761545419693,-0.0061327205039560795,0.005358928348869085,-0.018468262627720833,0.006009203381836414,-0.007763795554637909,-0.2821572422981262,-0.37096139788627625,-0.10438058525323868,-0.3546803295612335,-0.4468708634376526,0.13891413807868958,-0.586957573890686,1.2066024541854858,0.2615463137626648,0.1464482992887497,0.032596930861473083,0.12636509537696838,0.23086100816726685,-1.218455195426941,-0.32826000452041626,0.30139344930648804,-1.1785075664520264,-1.3324862718582153,-0.30870315432548523,-1.6802842617034912
1760498771.5360541,0.02,-0.0031258687376976013,0.01764107495546341,0.06211741641163826,0.011458726599812508,-0.020754823461174965,-0.9997189044952393,0.5457854270935059,-0.16934871673583984,0.26167547702789307,-0.05598777160048485,0.0037901997566223145,-0.06226146221160889,0.037304431200027466,0.06624805927276611,0.07463729381561279,-0.01611904613673687,-0.05132865905761719,0.03763633966445923,0.04395744204521179,-0.052937865257263184,-0.0074596405029296875,0.0,0.0,0.0,0.0,-0.004264994524419308,0.00044885705574415624,0.0001099221408367157,-0.0033368587028235197,-0.0002630482485983521,0.009234216995537281,0.002645375905558467,-0.00479794992133975,0.006303459405899048,-0.017682185396552086,0.006240157876163721,-0.009626503102481365,-0.2763793170452118,-0.3781619966030121,-0.1062144860625267,-0.3511124849319458,-0.45839738845825195,0.14508822560310364,-0.5730777978897095,1.2122840881347656,0.2627500891685486,0.14930294454097748,0.06288695335388184,0.1265966296195984,0.23868319392204285,-1.2415804862976074,-0.3211343586444855,0.2935740351676941,-1.14423668384552,-1.352579116821289,-0.3142361342906952,-1.667770266532898
1760498771.5960088,0.02,-0.003269759938120842,0.014682721346616745,0.061560239642858505,0.01263546571135521,-0.02063179388642311,-0.9997072815895081,0.5457854270935059,-0.16934871673583984,0.2591625452041626,-0.057454146444797516,0.0037691593170166016,-0.06235772371292114,0.03633162006735802,0.06655997037887573,0.07776761054992676,-0.015502704307436943,-0.05294537544250488,0.040182530879974365,0.037174809724092484,-0.05041706562042236,-0.011543631553649902,0.0,0.0,0.0,0.0,-0.003354971995577216,-0.000796691922005266,0.00045439042150974274,-0.0024318594951182604,0.0011835101759061217,0.007481979671865702,0.001270177192054689,-0.003509189235046506,0.0061180987395346165,-0.016661277040839195,0.006129284389317036,-0.010108625516295433,-0.27191853523254395,-0.38156425952911377,-0.10795380175113678,-0.34947967529296875,-0.475155234336853,0.15327927470207214,-0.5615764856338501,1.2098115682601929,0.261768639087677,0.15040485560894012,0.08135008811950684,0.12432876974344254,0.2485375851392746,-1.2467727661132812,-0.3124372959136963,0.2825126051902771,-1.1161038875579834,-1.3657467365264893,-0.3195972740650177,-1.666401743888855
1760498771.6476119,0.02,-0.004289254546165466,0.011818431317806244,0.061346299946308136,0.013578128069639206,-0.02042842097580433,-0.9996991157531738,0.5457854270935059,-0.16934871673583984,0.25666284561157227,-0.05861136317253113,0.0033648014068603516,-0.06234639883041382,0.03567136079072952,0.0674058198928833,0.08000993728637695,-0.01542196050286293,-0.05421668291091919,0.04258245229721069,0.030724819749593735,-0.04795253276824951,-0.015659213066101074,0.0,0.0,0.0,0.0,-0.0025468114763498306,-0.0017119068652391434,0.0007597901276312768,-0.0016177584184333682,0.0024529113434255123,0.00511964363977313,7.491950236726552e-05,-0.0029180573765188456,0.005712392274290323,-0.01583096943795681,0.006008423399180174,-0.010065225884318352,-0.2690150737762451,-0.38192811608314514,-0.1101122498512268,-0.34974339604377747,-0.493638277053833,0.1607743799686432,-0.5505563020706177,1.1925855875015259,0.26149195432662964,0.14840556681156158,0.08661136031150818,0.12035123258829117,0.2604813277721405,-1.2243322134017944,-0.3018006384372711,0.26693660020828247,-1.0946338176727295,-1.371138572692871,-0.32476934790611267,-1.6727372407913208
1760498771.7025268,0.02,-0.006817810237407684,0.008363557979464531,0.06151027977466583,0.014258287847042084,-0.020030749961733818,-0.9996976852416992,0.5457854270935059,-0.16934871673583984,0.2541612386703491,-0.059566937386989594,0.002659142017364502,-0.06222778558731079,0.03522318974137306,0.0687255859375,0.08116650581359863,-0.016151227056980133,-0.055557310581207275,0.044875144958496094,0.02446492202579975,-0.04545879364013672,-0.01981675624847412,0.0,0.0,0.0,0.0,-0.0020572785288095474,-0.002484274795278907,0.001101713627576828,-0.0010986056877300143,0.003577561816200614,0.002332377480342984,-0.002150503220036626,-0.0035259444266557693,0.005503020249307156,-0.015388679690659046,0.0062355599366128445,-0.010344509035348892,-0.2673484981060028,-0.3806822597980499,-0.11352070420980453,-0.351614773273468,-0.5100346803665161,0.16590574383735657,-0.536861777305603,1.1501141786575317,0.263893723487854,0.14080984890460968,0.07974821329116821,0.11428651958703995,0.27580350637435913,-1.1623177528381348,-0.2884748578071594,0.24514946341514587,-1.0774903297424316,-1.3706096410751343,-0.3313526213169098,-1.6832624673843384
1760498771.7582994,0.02,-0.015413613989949226,0.004138795658946037,0.05713739991188049,0.014601083472371101,-0.01921004056930542,-0.9997088313102722,0.5457854270935059,-0.16934871673583984,0.2517040967941284,-0.0605732724070549,0.001574099063873291,-0.06193357706069946,0.034729767590761185,0.07055783271789551,0.08109521865844727,-0.018295258283615112,-0.05756717920303345,0.046952903270721436,0.018249046057462692,-0.04257839918136597,-0.024551749229431152,0.0,0.0,0.0,0.0,-0.002918113488703966,-0.00383957102894783,0.0018162935739383101,-0.0019862845074385405,0.005341788288205862,-0.0009474093094468117,-0.005995309446007013,-0.0056460765190422535,0.003986291121691465,-0.01533462107181549,0.009850758127868176,-0.017299821600317955,-0.2666739225387573,-0.37949416041374207,-0.11984572559595108,-0.34821605682373047,-0.5216176509857178,0.16778269410133362,-0.5173492431640625,1.0680906772613525,0.2697142958641052,0.12432006746530533,0.05944445729255676,0.10560292750597,0.29716676473617554,-1.0435607433319092,-0.27101612091064453,0.21398521959781647,-1.06155264377594,-1.3683854341506958,-0.3434531092643738,-1.694017767906189
