vaithak/rl_training/csvs/data_obs_m20_4_env_0.csv
timestamp,dt,base_ang_vel_0,base_ang_vel_1,base_ang_vel_2,projected_gravity_0,projected_gravity_1,projected_gravity_2,velocity_commands_0,velocity_commands_1,velocity_commands_2,joint_pos_0,joint_pos_1,joint_pos_2,joint_pos_3,joint_pos_4,joint_pos_5,joint_pos_6,joint_pos_7,joint_pos_8,joint_pos_9,joint_pos_10,joint_pos_11,joint_pos_12,joint_pos_13,joint_pos_14,joint_pos_15,joint_vel_0,joint_vel_1,joint_vel_2,joint_vel_3,joint_vel_4,joint_vel_5,joint_vel_6,joint_vel_7,joint_vel_8,joint_vel_9,joint_vel_10,joint_vel_11,joint_vel_12,joint_vel_13,joint_vel_14,joint_vel_15,actions_0,actions_1,actions_2,actions_3,actions_4,actions_5,actions_6,actions_7,actions_8,actions_9,actions_10,actions_11,actions_12,actions_13,actions_14,actions_15
1760498215.309951,0.02,0.03765556588768959,0.1944321244955063,-0.03032809868454933,-0.024745088070631027,-0.008815315552055836,-0.9996549487113953,-0.6637924909591675,0.838921308517456,-0.0665433406829834,-0.034937404096126556,0.16346430778503418,0.010080933570861816,0.07058234512805939,0.028355300426483154,-0.08120083808898926,-0.06039879471063614,0.0280073881149292,-0.004212021827697754,0.17350712418556213,-0.0460701584815979,0.15702998638153076,0.0,0.0,0.0,0.0,-0.11356282234191895,0.024432482197880745,-0.03794671222567558,0.08606527000665665,0.083393894135952,-0.0466889962553978,0.09551879018545151,0.014883944764733315,0.032051824033260345,-0.08853741735219955,0.03837282955646515,-0.052338194102048874,-0.06847665458917618,0.31776824593544006,0.39577117562294006,0.2585030794143677,-0.5919020175933838,0.12778013944625854,-0.014028072357177734,-0.1246386468410492,0.36235255002975464,-0.7232100963592529,2.6476197242736816,0.12284674495458603,0.37820807099342346,-1.3250170946121216,0.18915647268295288,0.42234957218170166,-0.2715986669063568,1.3346683979034424,1.8157949447631836,0.8838124871253967
1760498215.3618956,0.02,0.011977399699389935,0.19901403784751892,-0.03287988528609276,-0.0090718949213624,-0.008649987168610096,-0.999921441078186,-0.6637924909591675,0.838921308517456,-0.06535828113555908,-0.08373931050300598,0.17044079303741455,-0.005446255207061768,0.1020856648683548,0.0636245608329773,-0.10192084312438965,-0.025440065190196037,0.03634500503540039,0.006687939167022705,0.12928704917430878,-0.025954067707061768,0.13015252351760864,0.0,0.0,0.0,0.0,-0.11576781421899796,0.010364278219640255,-0.03229778632521629,0.08209237456321716,0.08557049185037613,-0.045675184577703476,0.09075320512056351,0.021764179691672325,0.029105419293045998,-0.11048727482557297,0.05466029793024063,-0.06630288809537888,-0.09164335578680038,0.31012699007987976,0.38296744227409363,0.36989831924438477,-0.8617762327194214,0.2182217836380005,-0.07004457712173462,-0.06132224574685097,0.42050275206565857,-0.7918078899383545,2.5783889293670654,0.12381473928689957,0.412410169839859,-1.5695533752441406,0.33926355838775635,0.28123652935028076,-0.3657153844833374,1.2431436777114868,1.6634260416030884,1.3742095232009888
1760498215.416794,0.02,-0.008609986864030361,0.2028583288192749,-0.027996454387903214,0.00683198357000947,-0.0065912907011806965,-0.9999549388885498,-0.6637924909591675,0.838921308517456,-0.06419181823730469,-0.1305357813835144,0.174432635307312,-0.023835599422454834,0.1324048489332199,0.09987986087799072,-0.12165522575378418,0.007736946456134319,0.04839813709259033,0.016009807586669922,0.0782228335738182,-0.0015279650688171387,0.10175788402557373,0.0,0.0,0.0,0.0,-0.10607542097568512,0.005434725433588028,-0.04192931950092316,0.0803142711520195,0.08791273832321167,-0.04325900599360466,0.08601530641317368,0.039791565388441086,0.008192402310669422,-0.1263972967863083,0.06320139020681381,-0.06779200583696365,-0.12995374202728271,0.28673335909843445,0.37063512206077576,0.4341946244239807,-1.0247361660003662,0.29877257347106934,-0.17671914398670197,-0.028231654316186905,0.5468529462814331,-0.8182659149169922,2.2834744453430176,0.1475493311882019,0.42240601778030396,-1.6076651811599731,0.43717074394226074,0.1400500386953354,-0.5156992077827454,1.133979320526123,1.4613902568817139,1.6654343605041504
1760498215.4719603,0.02,0.01488795131444931,0.21267330646514893,0.003300438169389963,0.02312339097261429,-0.007618253119289875,-0.999703586101532,-0.6637924909591675,0.838921308517456,-0.06390583515167236,-0.1589794009923935,0.18224823474884033,-0.05776745080947876,0.1670258343219757,0.134546160697937,-0.13638043403625488,0.04315333440899849,0.0705190896987915,0.011458635330200195,0.03156684711575508,0.023364484310150146,0.07853943109512329,0.0,0.0,0.0,0.0,-0.0505012646317482,0.016468990594148636,-0.07874002307653427,0.09027370810508728,0.08544246852397919,-0.03424571454524994,0.08781823515892029,0.05873475596308708,-0.008501353673636913,-0.11369369179010391,0.05968694016337395,-0.04709096625447273,-0.14955969154834747,0.26466402411460876,0.35692358016967773,0.4219225347042084,-0.5268892049789429,0.38653820753097534,-0.44505855441093445,-0.1670481264591217,0.6339929103851318,-0.7557740211486816,1.3403493165969849,0.3066723644733429,0.34785714745521545,-1.2790780067443848,0.38646095991134644,0.11979362368583679,-0.5842216610908508,1.0481079816818237,1.460120439529419,1.6011186838150024
1760498215.52476,0.02,-0.000392537796869874,0.09398858994245529,0.03402499854564667,0.035432156175374985,-0.004953115247189999,-0.9993597865104675,-0.6637924909591675,0.838921308517456,-0.06509506702423096,-0.15280985832214355,0.1837107539176941,-0.08448058366775513,0.19058582186698914,0.15795305371284485,-0.1416400671005249,0.06587193161249161,0.09269797801971436,-0.0014946460723876953,-0.001473449170589447,0.04349541664123535,0.06190007925033569,0.0,0.0,0.0,0.0,0.13041110336780548,-0.13877099752426147,0.31894370913505554,0.05021822080016136,0.04275016114115715,-0.010805266909301281,0.05382091924548149,0.04803052172064781,-0.048333536833524704,-0.04416560009121895,0.045810915529727936,-0.05247880890965462,0.28166061639785767,0.2779744267463684,0.3991420567035675,0.3808515965938568,0.6463044881820679,0.40838000178337097,-0.7552151679992676,-0.6671803593635559,0.633124828338623,-0.6806193590164185,-0.3545483648777008,0.45284733176231384,0.08459022641181946,-0.1929069310426712,0.25920993089675903,0.2610255479812622,-0.026014216244220734,1.0581759214401245,1.651882529258728,1.2004765272140503
1760498215.5816054,0.02,-0.08888716995716095,-0.16489970684051514,0.02698506787419319,0.02967488020658493,0.0023012347519397736,-0.9995569586753845,-0.6637924909591675,0.838921308517456,-0.06606948375701904,-0.12672126293182373,0.14922338724136353,-0.021699249744415283,0.17724420130252838,0.15187260508537292,-0.1341385841369629,0.06072463467717171,0.1054161787033081,-0.03675127029418945,0.003439482068642974,0.045630037784576416,0.05539584159851074,0.0,0.0,0.0,0.0,0.06666367501020432,-0.06813901662826538,0.09917213767766953,-0.062047310173511505,-0.043374545872211456,0.025855859741568565,-0.04038193076848984,0.01302819699048996,-0.0830681100487709,0.05696430802345276,-0.006553689483553171,-0.026144836097955704,0.29261884093284607,0.2985743284225464,0.4679751396179199,0.32313451170921326,1.2432547807693481,0.3898982107639313,-0.851508378982544,-0.8623165488243103,0.2398013472557068,-0.6781166791915894,-1.530951976776123,0.6847009658813477,-0.2616967558860779,0.856637716293335,-0.20782391726970673,0.6261003017425537,0.7107535600662231,1.0871690511703491,1.8967081308364868,1.0366092920303345
1760498215.6372411,0.02,-0.023220159113407135,-0.23610737919807434,0.04421180859208107,0.01281694881618023,0.005627160891890526,-0.9999020099639893,-0.6637924909591675,0.838921308517456,-0.06763625144958496,-0.09630235284566879,0.13163098692893982,0.004113554954528809,0.1408127248287201,0.11966997385025024,-0.100430428981781,0.03477371111512184,0.10475915670394897,-0.06669020652770996,0.030280128121376038,0.0437624454498291,0.03476470708847046,0.0,0.0,0.0,0.0,0.08071319013834,-0.02991761639714241,0.04121813550591469,-0.098353810608387,-0.08668430894613266,0.08400967717170715,-0.07923123240470886,-0.014645214192569256,-0.05814126133918762,0.07042362540960312,-0.0037225091364234686,-0.062035925686359406,0.19562435150146484,0.46589574217796326,0.397432804107666,0.3553233742713928,1.3306561708450317,0.34645822644233704,-0.6579514741897583,-0.38677385449409485,0.28283724188804626,-0.4064425528049469,-1.5522478818893433,0.48938146233558655,-0.40571752190589905,1.063065528869629,-0.37024611234664917,1.0075345039367676,0.4764057397842407,0.9234305024147034,1.593064308166504,1.3464126586914062
1760498215.692315,0.02,-0.0008270926773548126,-0.2578035295009613,0.03378114849328995,-0.006881740875542164,0.005974350497126579,-0.9999584555625916,-0.6637924909591675,0.838921308517456,-0.06917130947113037,-0.06284552067518234,0.12464404106140137,0.013475537300109863,0.0966060683131218,0.08322882652282715,-0.06189984083175659,-0.004576741252094507,0.0903557538986206,-0.0778954029083252,0.06050824746489525,0.040606141090393066,0.010294914245605469,0.0,0.0,0.0,0.0,0.08485138416290283,-0.010034129023551941,0.009596812538802624,-0.10629843920469284,-0.08247102797031403,0.0688353031873703,-0.10793137550354004,-0.04549958556890488,-0.018845204263925552,0.07811576128005981,-0.011156789027154446,-0.05905689671635628,0.1517801731824875,0.7849018573760986,0.32643964886665344,0.3687985837459564,1.0726969242095947,0.2357335388660431,-0.6453007459640503,-0.0037731267511844635,0.20198869705200195,-0.24149645864963531,-1.7163344621658325,0.26840466260910034,-0.44714197516441345,1.230499505996704,-0.32922154664993286,1.323287844657898,0.4536919593811035,1.1909116506576538,1.3059114217758179,1.6580866575241089
1760498215.7455206,0.02,-0.023530706763267517,-0.24618388712406158,0.0237817894667387,-0.02630871906876564,0.006357960868626833,-0.9996336698532104,-0.6637924909591675,0.838921308517456,-0.07015180587768555,-0.02955436147749424,0.12236294150352478,0.014641284942626953,0.05170324072241783,0.050072312355041504,-0.035155296325683594,-0.051499802619218826,0.0715835690498352,-0.08476078510284424,0.09232290834188461,0.03333336114883423,-0.003016352653503418,0.0,0.0,0.0,0.0,0.08063744753599167,-0.002372963121160865,-0.006009058561176062,-0.09907905757427216,-0.07757099717855453,0.01854276843369007,-0.12632536888122559,-0.05368770286440849,-0.006759937386959791,0.07732796669006348,-0.024948643520474434,-0.0212435033172369,0.15796975791454315,1.4772223234176636,0.33042725920677185,0.32826584577560425,0.8789969682693481,0.22726485133171082,-0.6280547380447388,0.0658276379108429,-0.004735320806503296,-0.14940620958805084,-1.8744112253189087,0.11551413685083389,-0.39337584376335144,1.232901930809021,-0.35289138555526733,1.4500999450683594,0.6427367925643921,1.7517098188400269,1.2877964973449707,1.5260776281356812
1760498215.7983575,0.02,-0.01746879145503044,-0.23621408641338348,-0.004690086469054222,-0.044353190809488297,0.005817866884171963,-0.9989989995956421,-0.6637924909591675,0.838921308517456,-0.07042133808135986,0.004605559166520834,0.11821547150611877,0.017247796058654785,0.012140912935137749,0.01330268383026123,-0.008535683155059814,-0.10068724304437637,0.045259714126586914,-0.07674753665924072,0.127061128616333,0.02431952953338623,-0.0019475221633911133,0.0,0.0,0.0,0.0,0.08026602119207382,-0.021137496456503868,0.022103412076830864,-0.1021212488412857,-0.07088214159011841,-0.020731037482619286,-0.1286161094903946,-0.07252376526594162,0.025961026549339294,0.08397731184959412,-0.02526043727993965,0.012150908820331097,0.16378305852413177,1.8552563190460205,0.3595275580883026,0.2344576120376587,0.9529831409454346,0.15289869904518127,-0.5861035585403442,-0.07556834816932678,-0.13677924871444702,0.021863766014575958,-1.9597299098968506,0.07170013338327408,-0.3181382715702057,1.2186172008514404,-0.6188855767250061,1.351921796798706,0.8588788509368896,2.8456571102142334,1.418627142906189,0.919495165348053
1760498215.8498282,0.02,0.015926698222756386,-0.21171894669532776,-0.02330591529607773,-0.060946833342313766,0.0011189887300133705,-0.9981403946876526,-0.6637924909591675,0.838921308517456,-0.06960701942443848,0.042020533233881,0.11096534132957458,0.025951862335205078,-0.023716099560260773,-0.0208246111869812,0.012746930122375488,-0.1432773470878601,0.015092849731445312,-0.057428598403930664,0.1677701473236084,0.014051675796508789,0.01027899980545044,0.0,0.0,0.0,0.0,0.08555998653173447,-0.017038187012076378,0.016806354746222496,-0.09336594492197037,-0.06098547205328941,-0.037307675927877426,-0.11123964935541153,-0.07528430968523026,0.050492849200963974,0.09244170784950256,-0.03071516752243042,0.03900175169110298,0.17391559481620789,1.86745285987854,0.4368942677974701,0.20175056159496307,1.0470441579818726,0.2439056932926178,-0.48038414120674133,-0.23607280850410461,-0.20672041177749634,0.1369677037000656,-1.8169169425964355,0.06789910048246384,-0.11373740434646606,0.8231130242347717,-0.9896330833435059,1.0928910970687866,0.8568757772445679,3.2089829444885254,1.690919280052185,0.6749101877212524
1760498215.9109519,0.02,-0.0668359026312828,-0.14157506823539734,-0.00778421014547348,-0.072943314909935,4.3239444494247437e-05,-0.9973360896110535,-0.6637924909591675,0.838921308517456,-0.06867587566375732,0.07641731202602386,0.1060808002948761,0.039975643157958984,-0.04889331012964249,-0.047115206718444824,0.015485286712646484,-0.1777757853269577,-0.008303582668304443,-0.03457534313201904,0.2049519419670105,-0.006313800811767578,0.046331942081451416,0.0,0.0,0.0,0.0,0.0741063579916954,-0.010778125375509262,0.03821089491248131,-0.039656516164541245,-0.06994153559207916,-0.04280417412519455,-0.0891595333814621,-0.046751733869314194,0.047873254865407944,0.07608312368392944,-0.06906396150588989,0.11639725416898727,0.14933328330516815,1.7518671751022339,0.5203285217285156,0.22069652378559113,0.4117535948753357,0.3205983638763428,-0.2152557671070099,-0.241044819355011,-0.20799076557159424,0.08427288383245468,-0.888152003288269,-0.13007068634033203,0.2134144902229309,0.43897804617881775,-1.394148349761963,0.8251777291297913,0.7751619815826416,2.9850993156433105,1.907047986984253,0.6014248728752136
1760498215.9661212,0.02,-0.09476882964372635,0.09461510926485062,-0.018084876239299774,-0.07161149382591248,0.00428695697337389,-0.9974234104156494,-0.6637924909591675,0.838921308517456,-0.06766247749328613,0.07780683040618896,0.11310821771621704,0.05096304416656494,-0.03918594866991043,-0.056631624698638916,-0.009843230247497559,-0.18384401500225067,-0.006006300449371338,-0.02682185173034668,0.22966121137142181,-0.03980445861816406,0.12445473670959473,0.0,0.0,0.0,0.0,-0.04490478336811066,0.030703729018568993,0.021108543500304222,0.06105608865618706,-0.009271536022424698,-0.1050264835357666,0.011541168205440044,0.031104126945137978,0.005330901592969894,0.03226691111922264,-0.08958933502435684,0.21091750264167786,0.12093441933393478,1.2561670541763306,0.5014964938163757,0.1448344588279724,-1.3568660020828247,0.03143811225891113,0.2739277184009552,0.11374044418334961,0.04082728922367096,-0.14722232520580292,1.8289159536361694,-0.1919323205947876,0.6551564335823059,-0.016788221895694733,-1.1217730045318604,0.7592185139656067,0.458432674407959,2.892425537109375,2.198681116104126,0.464336633682251
1760498216.0214288,0.02,0.008510772138834,0.20311979949474335,-0.01601269468665123,-0.05793684720993042,0.004704349674284458,-0.9983091950416565,-0.6637924909591675,0.838921308517456,-0.06689345836639404,0.0477324016392231,0.1288129687309265,0.05558061599731445,-0.0061048162169754505,-0.03724747896194458,-0.04633814096450806,-0.15012642741203308,0.015446186065673828,-0.031448960304260254,0.22933009266853333,-0.061732351779937744,0.1798633337020874,0.0,0.0,0.0,0.0,-0.09810388088226318,0.038507282733917236,0.008072190918028355,0.08254832774400711,0.06466080248355865,-0.08174871653318405,0.08985401690006256,0.04159688949584961,0.02418171800673008,-0.02503076009452343,-0.041140392422676086,0.10285820811986923,0.05380456522107124,0.5468949675559998,0.2697114944458008,0.10259079933166504,-1.1351672410964966,-0.34406644105911255,0.2797757685184479,0.24322062730789185,0.5227071642875671,-0.6340620517730713,3.164623260498047,-0.027927182614803314,0.6549972891807556,-0.6263263821601868,-0.539053201675415,0.7093670964241028,0.18791240453720093,2.4742565155029297,2.029575824737549,0.3456791639328003
1760498216.0793266,0.02,0.11249648034572601,0.19621866941452026,-0.016219712793827057,-0.04239799454808235,-0.003554892260581255,-0.9990944862365723,-0.6637924909591675,0.838921308517456,-0.0662316083908081,0.011009137146174908,0.1498624086380005,0.03327333927154541,0.034084513783454895,-0.011324405670166016,-0.06386864185333252,-0.10639306157827377,0.025823473930358887,-0.018022656440734863,0.21301473677158356,-0.06269890069961548,0.18171876668930054,0.0,0.0,0.0,0.0,-0.09289584308862686,0.047726042568683624,-0.059820353984832764,0.10209598392248154,0.06665654480457306,-0.044323451817035675,0.10947614908218384,0.01728178560733795,0.04051461070775986,-0.05750343203544617,0.004703489597886801,-0.014230779372155666,0.005358423572033644,0.3964410722255707,0.33802518248558044,0.1421034187078476,-0.37952613830566406,-0.037949204444885254,0.02154180407524109,-0.13250145316123962,0.37275204062461853,-0.6650614738464355,2.77968168258667,0.10264945775270462,0.47063037753105164,-1.010495662689209,-0.1368207037448883,0.5063179135322571,0.011199824512004852,1.8053056001663208,2.029547929763794,0.547002375125885
1760498216.1331868,0.02,0.04934348538517952,0.19936177134513855,-0.03131571784615517,-0.026625780388712883,-0.008012739941477776,-0.999613344669342,-0.6637924909591675,0.838921308517456,-0.06524038314819336,-0.032649874687194824,0.1635727882385254,0.014117717742919922,0.07030341774225235,0.02119767665863037,-0.08373939990997314,-0.06648649275302887,0.0328902006149292,-0.004435420036315918,0.18100771307945251,-0.05109894275665283,0.16255974769592285,0.0,0.0,0.0,0.0,-0.10972114652395248,0.024379897862672806,-0.03745844587683678,0.08924929797649384,0.08232312649488449,-0.046613071113824844,0.09922278672456741,0.01545302290469408,0.03527095541357994,-0.08497351408004761,0.03661223128437996,-0.051460981369018555,-0.043366141617298126,0.327515184879303,0.38157257437705994,0.241838738322258,-0.5723150968551636,0.11786907911300659,0.0032029151916503906,-0.1267402172088623,0.38017165660858154,-0.7167832851409912,2.685840368270874,0.10444743186235428,0.3875724673271179,-1.3193784952163696,0.16184040904045105,0.43199461698532104,-0.1706940233707428,1.4106606245040894,1.8279982805252075,0.8136834502220154
1760498216.187622,0.02,0.011682172305881977,0.20249168574810028,-0.03381355106830597,-0.01064191572368145,-0.008076042868196964,-0.9999107718467712,-0.6637924909591675,0.838921308517456,-0.06401646137237549,-0.08054187148809433,0.17048001289367676,-0.0012825727462768555,0.10236500203609467,0.057069361209869385,-0.105144202709198,-0.03077903762459755,0.041106343269348145,0.006972074508666992,0.13709039986133575,-0.031340062618255615,0.13537079095840454,0.0,0.0,0.0,0.0,-0.11401369422674179,0.010203702375292778,-0.03249362111091614,0.08281281590461731,0.08785982429981232,-0.048128172755241394,0.09192541241645813,0.020757509395480156,0.029882779344916344,-0.11077052354812622,0.054064493626356125,-0.06750122457742691,-0.07823850214481354,0.308249831199646,0.3860931098461151,0.348672091960907,-0.8262616395950317,0.2092491090297699,-0.056405290961265564,-0.05462542548775673,0.41363006830215454,-0.8002944588661194,2.557574987411499,0.12498285621404648,0.41298601031303406,-1.5566438436508179,0.3266502916812897,0.2974395453929901,-0.3127802312374115,1.2344645261764526,1.707216501235962,1.2850124835968018
1760498216.241729,0.02,-0.014696843922138214,0.2050849348306656,-0.03011096455156803,0.005549979396164417,-0.005691605620086193,-0.999968409538269,-0.6637924909591675,0.838921308517456,-0.06282556056976318,-0.12719236314296722,0.1743200719356537,-0.019579768180847168,0.13267658650875092,0.0944318175315857,-0.12628310918807983,0.002525237388908863,0.052419185638427734,0.0171547532081604,0.08525566011667252,-0.006926000118255615,0.10626184940338135,0.0,0.0,0.0,0.0,-0.10655255615711212,0.004465450998395681,-0.041822660714387894,0.07978563755750656,0.09077082574367523,-0.047655001282691956,0.08641877770423889,0.03024943731725216,0.026608502492308617,-0.1286005824804306,0.06347226351499557,-0.07004433870315552,-0.12116845697164536,0.28313833475112915,0.35978832840919495,0.4154943525791168,-1.0166585445404053,0.2890096604824066,-0.16002050042152405,-0.0048758722841739655,0.5349100828170776,-0.8357765674591064,2.2708306312561035,0.15367457270622253,0.4279577434062958,-1.593230128288269,0.4360930323600769,0.15573838353157043,-0.4816755950450897,1.100481629371643,1.509673833847046,1.5896618366241455
1760498216.2969325,0.02,0.014789775013923645,0.21636728942394257,0.0019872416742146015,0.02209368906915188,-0.006345406174659729,-0.9997357726097107,-0.6637924909591675,0.838921308517456,-0.06245827674865723,-0.1565716415643692,0.18045151233673096,-0.04981619119644165,0.16726239025592804,0.1303914487361908,-0.1419023871421814,0.03807734698057175,0.07360124588012695,0.013600349426269531,0.037551119923591614,0.018496572971343994,0.08177977800369263,0.0,0.0,0.0,0.0,-0.053317200392484665,0.01234922744333744,-0.06921618431806564,0.09085441380739212,0.08810019493103027,-0.03526743873953819,0.08902692049741745,0.057901348918676376,-0.008316905237734318,-0.11578792333602905,0.061372060328722,-0.05019364506006241,-0.14650431275367737,0.2546863257884979,0.36268550157546997,0.40948936343193054,-0.5902660489082336,0.37768495082855225,-0.3870201110839844,-0.09088853001594543,0.6192569136619568,-0.7893778085708618,1.4018603563308716,0.309209406375885,0.35504722595214844,-1.2738831043243408,0.3962690830230713,0.12831293046474457,-0.5730200409889221,0.9914951324462891,1.4823424816131592,1.5520142316818237
1760498216.3515496,0.02,0.011576077900826931,0.10617759823799133,0.03344092518091202,0.035028744488954544,-0.004674128256738186,-0.9993754029273987,-0.6637924909591675,0.838921308517456,-0.06363701820373535,-0.15120500326156616,0.18380236625671387,-0.08047658205032349,0.1925486922264099,0.1555401086807251,-0.14768129587173462,0.06309094280004501,0.09535986185073853,0.001962125301361084,0.00240127881988883,0.03900599479675293,0.06511414051055908,0.0,0.0,0.0,0.0,0.12571723759174347,-0.12369760125875473,0.27028390765190125,0.05513070151209831,0.04826287925243378,-0.01191362552344799,0.0609179325401783,0.047663260251283646,-0.04415660351514816,-0.04502580687403679,0.05315132811665535,-0.06284867227077484,0.16810379922389984,0.26312002539634705,0.39847156405448914,0.41078025102615356,0.6100932955741882,0.41395071148872375,-0.7383095026016235,-0.632415235042572,0.6348662376403809,-0.7054175138473511,-0.25242915749549866,0.4309885799884796,0.11839550733566284,-0.2819819748401642,0.26066192984580994,0.25084495544433594,-0.07847345620393753,0.9980307221412659,1.659637689590454,1.1583688259124756
1760498216.4062748,0.02,-0.08120130002498627,-0.15410584211349487,0.028726492077112198,0.030096709728240967,0.001655262429267168,-0.9995456337928772,-0.6637924909591675,0.838921308517456,-0.06464695930480957,-0.12368542701005936,0.14821186661720276,-0.0168723464012146,0.18110765516757965,0.15192756056785583,-0.14005529880523682,0.06071624904870987,0.1087719202041626,-0.03498029708862305,0.005647771526128054,0.04304242134094238,0.05656665563583374,0.0,0.0,0.0,0.0,0.06961845606565475,-0.07003574818372726,0.1015443354845047,-0.058944083750247955,-0.03678625449538231,0.028598541393876076,-0.03470754995942116,0.014952299185097218,-0.08845297992229462,0.050142910331487656,-0.004426759667694569,-0.02502584457397461,0.30837497115135193,0.26349472999572754,0.47179436683654785,0.30696597695350647,1.3820573091506958,0.3621805012226105,-0.8239099979400635,-0.9221819639205933,0.2761974632740021,-0.6927849054336548,-1.5417894124984741,0.6639680862426758,-0.2729494869709015,0.84315025806427,-0.1721169352531433,0.6189531683921814,0.7180208563804626,1.1039735078811646,1.9111855030059814,1.0864313840866089
1760498216.463772,0.02,-0.030793823301792145,-0.24182969331741333,0.04439461976289749,0.013101819902658463,0.0053206756711006165,-0.9998999834060669,-0.6637924909591675,0.838921308517456,-0.06621325016021729,-0.09307447075843811,0.1295337975025177,0.00879359245300293,0.14349232614040375,0.12054717540740967,-0.10453635454177856,0.03522300347685814,0.10623800754547119,-0.06454813480377197,0.03265834227204323,0.040587663650512695,0.03697192668914795,0.0,0.0,0.0,0.0,0.08061989396810532,-0.032550569623708725,0.039867278188467026,-0.10421949625015259,-0.08660966157913208,0.09074630588293076,-0.07846452295780182,-0.01550939679145813,-0.06828060001134872,0.07016678154468536,-0.004773641005158424,-0.061950113624334335,0.20856256783008575,0.38491472601890564,0.4204772412776947,0.35330885648727417,1.416725516319275,0.3709985911846161,-0.643614649772644,-0.502728283405304,0.2663414180278778,-0.4326094686985016,-1.553330898284912,0.4879191815853119,-0.41488397121429443,1.101073980331421,-0.3688245415687561,1.0091485977172852,0.5320504903793335,0.8934473395347595,1.6319191455841064,1.3330636024475098
1760498216.5221665,0.02,-0.006464637815952301,-0.26342469453811646,0.03613138943910599,-0.007069258950650692,0.006267373450100422,-0.9999553561210632,-0.6637924909591675,0.838921308517456,-0.06782984733581543,-0.059639107435941696,0.12205898761749268,0.017495036125183105,0.09712963551282883,0.08352029323577881,-0.06444293260574341,-0.004082255065441132,0.09109079837799072,-0.078346848487854,0.06267889589071274,0.03663337230682373,0.012206554412841797,0.0,0.0,0.0,0.0,0.08517981320619583,-0.01061934418976307,0.007832086645066738,-0.11179707199335098,-0.08457130938768387,0.07288695126771927,-0.10773197561502457,-0.04795103892683983,-0.02292444556951523,0.07787387818098068,-0.013320463709533215,-0.06011306867003441,0.15524111688137054,0.6631406545639038,0.352169007062912,0.3762044310569763,1.0702273845672607,0.2776443064212799,-0.6342167854309082,0.0018621943891048431,0.16989219188690186,-0.2670672833919525,-1.712965965270996,0.2912789583206177,-0.44753268361091614,1.2320175170898438,-0.3096767067909241,1.3472778797149658,0.4782179594039917,0.9778714776039124,1.4140040874481201,1.7161355018615723
1760498216.5771897,0.02,-0.012933961115777493,-0.24583451449871063,0.024567460641264915,-0.02676663175225258,0.006658073049038649,-0.9996195435523987,-0.6637924909591675,0.838921308517456,-0.06893372535705566,-0.025776874274015427,0.120372474193573,0.017665505409240723,0.05130992829799652,0.0501440167427063,-0.03729289770126343,-0.05026949197053909,0.07217848300933838,-0.08732187747955322,0.09478957951068878,0.02823615074157715,-0.001162886619567871,0.0,0.0,0.0,0.0,0.08363930135965347,4.7474797611357644e-05,-0.008037827908992767,-0.10279081016778946,-0.07603810727596283,0.028102193027734756,-0.12233997881412506,-0.054180145263671875,-0.008927064947783947,0.08021118491888046,-0.026986265555024147,-0.021180329844355583,0.1521582454442978,1.1774086952209473,0.3579195439815521,0.34025153517723083,0.8550498485565186,0.26843926310539246,-0.6278631687164307,0.1106596291065216,-0.01822277158498764,-0.17818690836429596,-1.8678196668624878,0.12867435812950134,-0.3924839198589325,1.2348721027374268,-0.2998548150062561,1.4976359605789185,0.6337642669677734,1.4519562721252441,1.3921318054199219,1.627884030342102
1760498216.631193,0.02,-0.030461713671684265,-0.23898418247699738,-0.008083103224635124,-0.0450836718082428,0.007253316231071949,-0.9989568591117859,-0.6637924909591675,0.838921308517456,-0.06918990612030029,0.007511744741350412,0.11672884225845337,0.020730972290039062,0.009689036756753922,0.017575323581695557,-0.020152151584625244,-0.10001592338085175,0.046012699604034424,-0.08121597766876221,0.12866806983947754,0.017054378986358643,0.0004917383193969727,0.0,0.0,0.0,0.0,0.07768405973911285,-0.01742328703403473,0.017118070274591446,-0.10557790100574493,-0.0607246570289135,-0.04428766295313835,-0.12968817353248596,-0.07196583598852158,0.021051540970802307,0.08221924304962158,-0.03091898374259472,0.013415688648819923,0.15462034940719604,1.8680559396743774,0.3722594678401947,0.26399338245391846,0.8455019593238831,0.2260647714138031,-0.5778156518936157,0.016938503831624985,-0.14465102553367615,-0.055350206792354584,-1.9573776721954346,0.07901439815759659,-0.33754369616508484,1.247267723083496,-0.5395399332046509,1.4451093673706055,0.8486873507499695,2.3296446800231934,1.4652024507522583,1.135230302810669
1760498216.6872916,0.02,0.027880122885107994,-0.20404201745986938,-0.02528773434460163,-0.06118418276309967,0.001527290791273117,-0.9981253147125244,-0.6637924909591675,0.838921308517456,-0.06827867031097412,0.04592623561620712,0.11054810881614685,0.029279708862304688,-0.025956958532333374,-0.018986761569976807,0.00888359546661377,-0.14131025969982147,0.015672743320465088,-0.061200737953186035,0.1705663949251175,0.006356477737426758,0.01371985673904419,0.0,0.0,0.0,0.0,0.08784017711877823,-0.01486020814627409,0.01759554259479046,-0.09351877868175507,-0.07026675343513489,-0.010520524345338345,-0.10901830345392227,-0.07601938396692276,0.054067280143499374,0.09517794102430344,-0.03084227256476879,0.042886268347501755,0.1668083667755127,1.8515713214874268,0.44135138392448425,0.19927042722702026,1.071945309638977,0.2484491467475891,-0.4748823940753937,-0.23360192775726318,-0.22708505392074585,0.1357726901769638,-1.8344950675964355,0.06878527253866196,-0.11526095867156982,0.8532373309135437,-0.9480111002922058,1.1315767765045166,0.8520703911781311,3.1572866439819336,1.7083252668380737,0.6439105272293091
1760498216.741311,0.02,-0.06730577349662781,-0.14059454202651978,-0.008741781115531921,-0.0729239359498024,0.00039994530379772186,-0.9973374009132385,-0.6637924909591675,0.838921308517456,-0.06731772422790527,0.08037277311086655,0.10670432448387146,0.042882442474365234,-0.051082711666822433,-0.046698689460754395,0.016256332397460938,-0.17606529593467712,-0.007905542850494385,-0.03738677501678467,0.20779693126678467,-0.014156460762023926,0.051337480545043945,0.0,0.0,0.0,0.0,0.07407834380865097,-0.00795130804181099,0.0361909493803978,-0.03962744399905205,-0.06825267523527145,-0.042123280465602875,-0.09023329615592957,-0.04708652198314667,0.04969673231244087,0.07606254518032074,-0.06926202028989792,0.11995692551136017,0.1432042121887207,1.64473557472229,0.525722086429596,0.21419572830200195,0.41345569491386414,0.32056447863578796,-0.21381495893001556,-0.2348128855228424,-0.20789161324501038,0.06796332448720932,-0.8813740015029907,-0.1198730394244194,0.21158812940120697,0.4514597952365875,-1.3688373565673828,0.8486266732215881,0.7475645542144775,2.977421998977661,1.931058645248413,0.5800883173942566
1760498216.7978253,0.02,-0.09940275549888611,0.09196827560663223,-0.018140755593776703,-0.07178401947021484,0.0049781594425439835,-0.9974077939987183,-0.6637924909591675,0.838921308517456,-0.06632375717163086,0.08071829378604889,0.11501291394233704,0.05215096473693848,-0.039892200380563736,-0.05480271577835083,-0.012609243392944336,-0.18249575793743134,-0.0053473711013793945,-0.029702305793762207,0.23155620694160461,-0.04721355438232422,0.12926721572875977,0.0,0.0,0.0,0.0,-0.04885528236627579,0.033603083342313766,0.017273126170039177,0.06428848952054977,-0.0076943496242165565,-0.11342495679855347,0.011217494495213032,0.032212551683187485,0.004477303475141525,0.028704030439257622,-0.08717411756515503,0.20812121033668518,0.11509573459625244,1.1411603689193726,0.4989529550075531,0.13994890451431274,-1.3949030637741089,0.03332355618476868,0.27584996819496155,0.16792431473731995,0.04028834402561188,-0.18037600815296173,1.8795907497406006,-0.16525226831436157,0.6561310291290283,-0.0018526101484894753,-1.0856311321258545,0.7844403386116028,0.43577051162719727,2.8552942276000977,2.191166639328003,0.4527286887168884
1760498216.85159,0.02,0.0008839955553412437,0.20472514629364014,-0.01763320527970791,-0.0580621138215065,0.004529757425189018,-0.998302698135376,-0.6637924909591675,0.838921308517456,-0.06548774242401123,0.050066784024238586,0.1323627233505249,0.05417680740356445,-0.005896119400858879,-0.03427308797836304,-0.0480501651763916,-0.14740900695323944,0.016145169734954834,-0.03383433818817139,0.2310400903224945,-0.06696230173110962,0.1823541522026062,0.0,0.0,0.0,0.0,-0.10360175371170044,0.041756391525268555,0.0029584963340312243,0.08043714612722397,0.06923424452543259,-0.07871565222740173,0.08641614019870758,0.037904538214206696,0.035323310643434525,-0.0299379862844944,-0.03537952899932861,0.09717513620853424,0.04112904146313667,0.5141124129295349,0.2983493506908417,0.0947372242808342,-1.1070045232772827,-0.349730521440506,0.2541967034339905,0.25677689909935,0.513958215713501,-0.6452467441558838,3.1960346698760986,0.03173554688692093,0.6696583032608032,-0.6247730255126953,-0.5150510668754578,0.7132838368415833,0.13953381776809692,2.3165836334228516,2.0837972164154053,0.3045562505722046
1760498216.907077,0.02,0.12746217846870422,0.19848772883415222,-0.016791654750704765,-0.042320616543293,-0.004613050725311041,-0.9990934133529663,-0.6637924909591675,0.838921308517456,-0.06480467319488525,0.013021128252148628,0.15363702178001404,0.03208589553833008,0.03502878546714783,-0.008019506931304932,-0.06350308656692505,-0.1028478592634201,0.026237964630126953,-0.01938331127166748,0.2146633267402649,-0.06592714786529541,0.1827915906906128,0.0,0.0,0.0,0.0,-0.09264858067035675,0.047154080122709274,-0.05764489993453026,0.10487253963947296,0.06655118614435196,-0.03888202831149101,0.11354093998670578,0.01482786238193512,0.04598468169569969,-0.05649330094456673,0.009104184806346893,-0.016446229070425034,-0.007875827141106129,0.3816433250904083,0.3417876958847046,0.13134737312793732,-0.3637385964393616,-0.044253647327423096,0.020764201879501343,-0.12960907816886902,0.3346266746520996,-0.6874449253082275,2.8414649963378906,0.13329383730888367,0.48104003071784973,-0.9958583116531372,-0.13065174221992493,0.5125749111175537,-0.041293270885944366,1.691383957862854,2.0964314937591553,0.5062423348426819
1760498216.966387,0.02,0.05079495906829834,0.20109760761260986,-0.030381226912140846,-0.026428818702697754,-0.009260240010917187,-0.9996078014373779,-0.6637924909591675,0.838921308517456,-0.06383633613586426,-0.03140232712030411,0.1673983633518219,0.012539863586425781,0.07134901732206345,0.02426093816757202,-0.08247888088226318,-0.06288088113069534,0.03279757499694824,-0.005445361137390137,0.18237747251987457,-0.05289053916931152,0.16334211826324463,0.0,0.0,0.0,0.0,-0.11139251291751862,0.024638105183839798,-0.03909178823232651,0.08940322697162628,0.08163999766111374,-0.04486699402332306,0.09903457760810852,0.014088151045143604,0.03656572476029396,-0.08575007319450378,0.039875324815511703,-0.05170800909399986,-0.051807910203933716,0.3275880217552185,0.3886847496032715,0.23532052338123322,-0.5408105850219727,0.12101003527641296,-0.011147171258926392,-0.14939579367637634,0.36714670062065125,-0.7200316190719604,2.6975667476654053,0.1173720583319664,0.39716511964797974,-1.3301283121109009,0.15517711639404297,0.43328166007995605,-0.2055756151676178,1.389461636543274,1.863715410232544,0.787534236907959
1760498217.0202968,0.02,0.010203116573393345,0.20472250878810883,-0.03227124363183975,-0.010268249548971653,-0.009175741113722324,-0.9999051690101624,-0.6637924909591675,0.838921308517456,-0.06267178058624268,-0.08017416298389435,0.17419341206550598,-0.0033347606658935547,0.10319048166275024,0.05977916717529297,-0.10314983129501343,-0.027561262249946594,0.04065638780593872,0.00660473108291626,0.13774344325065613,-0.03189742565155029,0.13600420951843262,0.0,0.0,0.0,0.0,-0.1159423217177391,0.00963340513408184,-0.03344052657485008,0.08240868896245956,0.08690106123685837,-0.04632581025362015,0.09102781116962433,0.020213736221194267,0.031596552580595016,-0.11254455894231796,0.05704527720808983,-0.06801512092351913,-0.08293667435646057,0.3094729781150818,0.387336790561676,0.3434290587902069,-0.8165383338928223,0.20619606971740723,-0.06942172348499298,-0.07387122511863708,0.41105297207832336,-0.7962539792060852,2.5749497413635254,0.12761223316192627,0.41760721802711487,-1.5687811374664307,0.3251693546772003,0.2938389480113983,-0.3319799602031708,1.2318147420883179,1.7162500619888306,1.2658272981643677
1760498217.0766628,0.02,-0.01743227057158947,0.20570892095565796,-0.02922741509974003,0.006023143418133259,-0.006605185102671385,-0.9999600648880005,-0.6637924909591675,0.838921308517456,-0.0615311861038208,-0.12753942608833313,0.1776263415813446,-0.022114992141723633,0.13323011994361877,0.09683030843734741,-0.12348145246505737,0.005345841404050589,0.051884472370147705,0.017009377479553223,0.08525796234607697,-0.006401121616363525,0.10665535926818848,0.0,0.0,0.0,0.0,-0.10815206915140152,0.0031208063010126352,-0.0429404191672802,0.07905623316764832,0.09004562348127365,-0.04558425769209862,0.08538404852151871,0.03024381957948208,0.02650226093828678,-0.13007752597332,0.0659097284078598,-0.07049094885587692,-0.12418047338724136,0.2822161912918091,0.3619246482849121,0.4130539000034332,-1.0085742473602295,0.2886162996292114,-0.17439797520637512,-0.026859555393457413,0.5363348126411438,-0.8279606699943542,2.284958600997925,0.15098252892494202,0.4251438081264496,-1.6008459329605103,0.43505650758743286,0.15297284722328186,-0.49417051672935486,1.1059454679489136,1.506301999092102,1.580308437347412
1760498217.1284204,0.02,0.012321798130869865,0.2159157395362854,0.003239965997636318,0.022558435797691345,-0.007068732753396034,-0.9997205138206482,-0.6637924909591675,0.838921308517456,-0.061228036880493164,-0.1572267860174179,0.1832323670387268,-0.05309861898422241,0.16757747530937195,0.13218984007835388,-0.13871848583221436,0.040516749024391174,0.0734664797782898,0.012439727783203125,0.03717227652668953,0.01976388692855835,0.08205986022949219,0.0,0.0,0.0,0.0,-0.05365978553891182,0.010755356401205063,-0.07085079699754715,0.09032297879457474,0.08637409657239914,-0.03427394479513168,0.08810300379991531,0.05800870060920715,-0.009064114652574062,-0.1164044663310051,0.06289906054735184,-0.05028852820396423,-0.1467927098274231,0.25910231471061707,0.36438462138175964,0.40901118516921997,-0.575189471244812,0.38087815046310425,-0.40501752495765686,-0.11335745453834534,0.617211639881134,-0.7778542041778564,1.3973537683486938,0.31258004903793335,0.350035697221756,-1.2769029140472412,0.3909261226654053,0.12568530440330505,-0.5738763809204102,1.0042649507522583,1.4855525493621826,1.5500441789627075
1760498217.1832266,0.02,0.009845143184065819,0.10216456651687622,0.03406503051519394,0.035353828221559525,-0.0049479310400784016,-0.999362587928772,-0.6637924909591675,0.838921308517456,-0.06244516372680664,-0.15212875604629517,0.18485823273658752,-0.08185869455337524,0.19221341609954834,0.15660935640335083,-0.1442546248435974,0.0647534430027008,0.095287024974823,0.00016772747039794922,0.002078370191156864,0.04075819253921509,0.06515920162200928,0.0,0.0,0.0,0.0,0.12931182980537415,-0.13365676999092102,0.29505211114883423,0.05426063761115074,0.046270422637462616,-0.011968973092734814,0.05967153236269951,0.047548409551382065,-0.04635152965784073,-0.04388782009482384,0.053862717002630234,-0.0640670582652092,0.21227870881557465,0.2671944200992584,0.4007587432861328,0.4095669388771057,0.6067172884941101,0.4137885272502899,-0.7498546838760376,-0.6431816220283508,0.6342625021934509,-0.6939254403114319,-0.2684902846813202,0.43717649579048157,0.10824504494667053,-0.2609702944755554,0.25660812854766846,0.2507474422454834,-0.06688714772462845,1.014629602432251,1.6652781963348389,1.1647695302963257
1760498217.241573,0.02,-0.08672025054693222,-0.1584119349718094,0.02927410416305065,0.030140860006213188,0.0020548137836158276,-0.9995435476303101,-0.6637924909591675,0.838921308517456,-0.06348288059234619,-0.1254061907529831,0.14927801489830017,-0.018338441848754883,0.17957492172718048,0.15194085240364075,-0.13690632581710815,0.06108434870839119,0.10829740762710571,-0.03622627258300781,0.0050605712458491325,0.044442951679229736,0.05725473165512085,0.0,0.0,0.0,0.0,0.06810609996318817,-0.06966893374919891,0.10032522678375244,-0.061242904514074326,-0.04007044807076454,0.027460573241114616,-0.037435561418533325,0.013761875219643116,-0.08653143793344498,0.050535108894109726,-0.0049921623431146145,-0.0252838134765625,0.30498650670051575,0.27269038558006287,0.4732132852077484,0.30744874477386475,1.319724678993225,0.3718549311161041,-0.8403311967849731,-0.8969402313232422,0.25740960240364075,-0.6834853887557983,-1.5488169193267822,0.6781988143920898,-0.27034875750541687,0.8489017486572266,-0.19399182498455048,0.6200559735298157,0.7069401741027832,1.094138503074646,1.9175095558166504,1.065467119216919
1760498217.2936432,0.02,-0.02923598699271679,-0.24110808968544006,0.04434730112552643,0.013051104731857777,0.005751781165599823,-0.9998983144760132,-0.6637924909591675,0.838921308517456,-0.06506335735321045,-0.09500373154878616,0.13083407282829285,0.007129073143005371,0.1421447992324829,0.12022185325622559,-0.10250276327133179,0.035203710198402405,0.10624372959136963,-0.0663682222366333,0.031841255724430084,0.042157888412475586,0.0370216965675354,0.0,0.0,0.0,0.0,0.08047051727771759,-0.03193869814276695,0.03987247869372368,-0.10241743177175522,-0.08635944873094559,0.08730784058570862,-0.07918338477611542,-0.015897905454039574,-0.06488657742738724,0.0699983760714531,-0.004606213886290789,-0.06249081715941429,0.20538845658302307,0.40880462527275085,0.4059498906135559,0.3547608554363251,1.3704817295074463,0.36069419980049133,-0.6510170698165894,-0.45261433720588684,0.27915915846824646,-0.4183115065097809,-1.5598386526107788,0.48931190371513367,-0.4175631105899811,1.0995203256607056,-0.36929067969322205,1.0124176740646362,0.5164346694946289,0.89422208070755,1.621635913848877,1.3517016172409058
1760498217.3494163,0.02,-0.003307095728814602,-0.2617780268192291,0.035596735775470734,-0.007007375359535217,0.006421186029911041,-0.9999548196792603,-0.6637924909591675,0.838921308517456,-0.06666505336761475,-0.06147985905408859,0.12341979146003723,0.015929698944091797,0.09670678526163101,0.08346736431121826,-0.06332707405090332,-0.004183613229542971,0.0910833477973938,-0.07919907569885254,0.06198544055223465,0.038368046283721924,0.012121737003326416,0.0,0.0,0.0,0.0,0.08535204827785492,-0.010734920389950275,0.008324201218783855,-0.10938065499067307,-0.08375661820173264,0.07094410806894302,-0.10798058658838272,-0.04787350445985794,-0.020945055410265923,0.07815318554639816,-0.012906930409371853,-0.06026564911007881,0.15535001456737518,0.6975641250610352,0.34070733189582825,0.3760318458080292,1.0645663738250732,0.26373085379600525,-0.6380245685577393,0.0094621442258358,0.18021446466445923,-0.25729885697364807,-1.7200918197631836,0.28339338302612305,-0.4504464566707611,1.23625648021698,-0.3148951828479767,1.343617558479309,0.47627007961273193,1.0453418493270874,1.3667700290679932,1.713212490081787
1760498217.4042869,0.02,-0.014543144963681698,-0.24551865458488464,0.02442874386906624,-0.02660212479531765,0.006697793956845999,-0.9996236562728882,-0.6637924909591675,0.838921308517456,-0.06774091720581055,-0.027685629203915596,0.12145686149597168,0.016448020935058594,0.051437053829431534,0.05020129680633545,-0.03645014762878418,-0.050663113594055176,0.07197916507720947,-0.08721578121185303,0.09408564120531082,0.030211031436920166,-0.0013350248336791992,0.0,0.0,0.0,0.0,0.08301707357168198,-0.0009167694370262325,-0.007209473755210638,-0.10111125558614731,-0.07618138939142227,0.02500549517571926,-0.12364586442708969,-0.05453528091311455,-0.007533099502325058,0.0795871689915657,-0.026568297296762466,-0.021463802084326744,0.15430127084255219,1.2674025297164917,0.3462516963481903,0.3381696343421936,0.859393298625946,0.25592753291130066,-0.6284956932067871,0.0987805426120758,-0.014011941850185394,-0.16861580312252045,-1.8710498809814453,0.12511378526687622,-0.39475443959236145,1.2358417510986328,-0.31702250242233276,1.4844098091125488,0.6371617913246155,1.5364291667938232,1.3479275703430176,1.6050968170166016
1760498217.4575438,0.02,-0.02463528700172901,-0.23784340918064117,-0.006212771404534578,-0.0448424369096756,0.006949068978428841,-0.9989699125289917,-0.6637924909591675,0.838921308517456,-0.06803667545318604,0.005903362296521664,0.11761915683746338,0.019180774688720703,0.010606462135910988,0.016540944576263428,-0.01826876401901245,-0.10041526705026627,0.04556983709335327,-0.08029627799987793,0.1281796246767044,0.019525647163391113,2.8192996978759766e-05,0.0,0.0,0.0,0.0,0.07892606407403946,-0.01902169920504093,0.01904325745999813,-0.10385128110647202,-0.06458128243684769,-0.03931264206767082,-0.12936483323574066,-0.07267122715711594,0.02330755442380905,0.08302424848079681,-0.029427124187350273,0.01251088734716177,0.15791867673397064,1.8671257495880127,0.3645181953907013,0.2564855217933655,0.8744281530380249,0.20312276482582092,-0.5812875032424927,-0.012516532093286514,-0.14291703701019287,-0.03235884755849838,-1.9594045877456665,0.07838190346956253,-0.33334270119667053,1.2424962520599365,-0.568101167678833,1.4158639907836914,0.8538405895233154,2.495199203491211,1.436964511871338,1.0735613107681274
1760498217.5096443,0.02,0.02573494426906109,-0.2054137885570526,-0.024810729548335075,-0.0610179640352726,0.0013756901025772095,-0.9981357455253601,-0.6637924909591675,0.838921308517456,-0.06716310977935791,0.044170260429382324,0.11090496182441711,0.028085947036743164,-0.0250473003834486,-0.01998502016067505,0.009344816207885742,-0.1420358568429947,0.015109121799468994,-0.060201287269592285,0.1698543280363083,0.00893867015838623,0.012872099876403809,0.0,0.0,0.0,0.0,0.08740109205245972,-0.016061969101428986,0.018174855038523674,-0.09369102120399475,-0.06911962479352951,-0.015501679852604866,-0.10956063121557236,-0.07617313414812088,0.05359910801053047,0.09461969882249832,-0.030829820781946182,0.04165496304631233,0.1691601276397705,1.8551353216171265,0.4366883337497711,0.20022062957286835,1.0648781061172485,0.24563241004943848,-0.4776389002799988,-0.24210652709007263,-0.2176450490951538,0.13895606994628906,-1.827728271484375,0.06919505447149277,-0.11537960171699524,0.8426253199577332,-0.9595094919204712,1.118229866027832,0.8535332679748535,3.1794495582580566,1.6905975341796875,0.6546632051467896
1760498217.5656118,0.02,-0.06723529100418091,-0.14131981134414673,-0.008539554663002491,-0.07282895594835281,0.00020905956625938416,-0.997344434261322,-0.6637924909591675,0.838921308517456,-0.06620728969573975,0.07865079492330551,0.10661861300468445,0.042006731033325195,-0.050151336938142776,-0.047724783420562744,0.01637721061706543,-0.1768025904893875,-0.008579671382904053,-0.03650021553039551,0.20712979137897491,-0.011548399925231934,0.04983919858932495,0.0,0.0,0.0,0.0,0.07399885356426239,-0.00898518692702055,0.03699484094977379,-0.0397774800658226,-0.0687682032585144,-0.04177669808268547,-0.09039267152547836,-0.047425251454114914,0.0495295487344265,0.07607947289943695,-0.06923950463533401,0.11826511472463608,0.14386242628097534,1.6540968418121338,0.520603597164154,0.21728305518627167,0.4225533604621887,0.32201826572418213,-0.21631067991256714,-0.23649275302886963,-0.20956051349639893,0.07317329198122025,-0.8962095975875854,-0.12027613073587418,0.21028563380241394,0.4420337677001953,-1.3826103210449219,0.8385406732559204,0.7497764825820923,2.9710733890533447,1.9098480939865112,0.588740885257721
1760498217.6465383,0.02,-0.09948678314685822,0.09082566201686859,-0.017369361594319344,-0.07175011932849884,0.004802089184522629,-0.9974110722541809,-0.6637924909591675,0.838921308517456,-0.06522858142852783,0.07936088740825653,0.11458373069763184,0.05154383182525635,-0.03923967853188515,-0.05602186918258667,-0.012218356132507324,-0.18350131809711456,-0.006230294704437256,-0.028765559196472168,0.23119206726551056,-0.044899702072143555,0.1277451515197754,0.0,0.0,0.0,0.0,-0.04730292782187462,0.03286587446928024,0.01772432215511799,0.06390207260847092,-0.00763728329911828,-0.11353154480457306,0.010183281265199184,0.03152592107653618,0.005042808596044779,0.03003612719476223,-0.08849966526031494,0.2089860886335373,0.11471311002969742,1.169929027557373,0.4988000988960266,0.1416705697774887,-1.3785816431045532,0.040155380964279175,0.27349087595939636,0.1646551489830017,0.03865428268909454,-0.17322923243045807,1.8449203968048096,-0.17157992720603943,0.6526966094970703,-0.008203395642340183,-1.1055431365966797,0.7754738926887512,0.43431198596954346,2.844758987426758,2.174668550491333,0.45557868480682373
1760498217.697485,0.02,0.01993623375892639,0.20429196953773499,-0.01748008280992508,-0.0581090971827507,0.004365374334156513,-0.9983006715774536,-0.6637924909591675,0.838921308517456,-0.06442344188690186,0.04934832826256752,0.1314389407634735,0.05440521240234375,-0.005161863751709461,-0.03574305772781372,-0.04811751842498779,-0.14887401461601257,0.015237808227539062,-0.03286397457122803,0.23122665286064148,-0.06547164916992188,0.18169242143630981,0.0,0.0,0.0,0.0,-0.0980164036154747,0.041240449994802475,0.004142337944358587,0.08455196768045425,0.06722789257764816,-0.07700134813785553,0.09207352250814438,0.04143992438912392,0.026503149420022964,-0.0241137333214283,-0.037279557436704636,0.09967049211263657,0.04345795512199402,0.5180758833885193,0.2682175040245056,0.09341718256473541,-1.1218104362487793,-0.3473241627216339,0.2626122832298279,0.2584128677845001,0.5206141471862793,-0.6405965089797974,3.1858835220336914,0.016413964331150055,0.6663966774940491,-0.6236953735351562,-0.5222324132919312,0.7142419219017029,0.1464557647705078,2.359445333480835,2.064797878265381,0.3109113574028015
1760498217.7507038,0.02,0.11576607823371887,0.20027947425842285,-0.015619557350873947,-0.04236745461821556,-0.004045004956424236,-0.9990938901901245,-0.6637924909591675,0.838921308517456,-0.06377077102661133,0.012130814604461193,0.15278980135917664,0.03224468231201172,0.0351235531270504,-0.00962364673614502,-0.06463247537612915,-0.10500269383192062,0.02537059783935547,-0.018548011779785156,0.21428903937339783,-0.06533867120742798,0.18304526805877686,0.0,0.0,0.0,0.0,-0.09353674203157425,0.0480675995349884,-0.05829678848385811,0.10272634029388428,0.06693397462368011,-0.042340394109487534,0.11303915083408356,0.016765613108873367,0.04313603416085243,-0.05889222025871277,0.007230554707348347,-0.014703087508678436,0.000604430097155273,0.3921704590320587,0.3460098206996918,0.13454341888427734,-0.36346137523651123,-0.040718019008636475,0.01848311722278595,-0.14204996824264526,0.3573947846889496,-0.6763155460357666,2.7834455966949463,0.11677441745996475,0.4862903356552124,-1.0187958478927612,-0.13907307386398315,0.5070180892944336,-0.007506169378757477,1.767859697341919,2.0714170932769775,0.5178771615028381
1760498217.803831,0.02,0.04690665006637573,0.20251062512397766,-0.02956993691623211,-0.02635650523006916,-0.00815731380134821,-0.9996193051338196,-0.6637924909591675,0.838921308517456,-0.06283020973205566,-0.03238307312130928,0.16677632927894592,0.012645244598388672,0.07094230502843857,0.023053467273712158,-0.08405518531799316,-0.06556733697652817,0.03222322463989258,-0.004363656044006348,0.18118928372859955,-0.05272972583770752,0.1634521484375,0.0,0.0,0.0,0.0,-0.11117460578680038,0.02510552480816841,-0.03923812136054039,0.08870089799165726,0.08252472430467606,-0.045149270445108414,0.09905584901571274,0.015179337933659554,0.035632580518722534,-0.08725868910551071,0.03907932713627815,-0.05274475738406181,-0.04779491946101189,0.3236398696899414,0.3668902516365051,0.23235705494880676,-0.5548924207687378,0.10967519879341125,-0.012647688388824463,-0.1442764699459076,0.3694019019603729,-0.7203996777534485,2.6461353302001953,0.11566748470067978,0.3966657519340515,-1.3087365627288818,0.15995728969573975,0.42987996339797974,-0.18962910771369934,1.377514123916626,1.8378639221191406,0.7745402455329895
1760498217.8559427,0.02,0.009744608774781227,0.20532913506031036,-0.03184099122881889,-0.01012916024774313,-0.007994765415787697,-0.9999167323112488,-0.6637924909591675,0.838921308517456,-0.06167125701904297,-0.08077085763216019,0.17355495691299438,-0.002953827381134033,0.10273781418800354,0.05861026048660278,-0.10473108291625977,-0.030286995694041252,0.04027438163757324,0.007603049278259277,0.13641272485256195,-0.03213387727737427,0.13590943813323975,0.0,0.0,0.0,0.0,-0.11481869220733643,0.00945180281996727,-0.03250740095973015,0.08238096535205841,0.08670113235712051,-0.04615720734000206,0.09068077057600021,0.020011775195598602,0.0324961319565773,-0.11250337213277817,0.05605519935488701,-0.06849726289510727,-0.07727249711751938,0.3092938959598541,0.3829851448535919,0.34269794821739197,-0.819351315498352,0.2028719186782837,-0.06623952090740204,-0.06763231754302979,0.41868847608566284,-0.7939457893371582,2.5289268493652344,0.12657126784324646,0.416781485080719,-1.535109519958496,0.32643598318099976,0.29483190178871155,-0.30888044834136963,1.2452877759933472,1.7089619636535645,1.2580269575119019
1760498217.9162495,0.02,-0.016224000602960587,0.20581459999084473,-0.02904168702661991,0.0061777327209711075,-0.0054896241053938866,-0.9999658465385437,-0.6637924909591675,0.838921308517456,-0.06052672863006592,-0.12764990329742432,0.1768600344657898,-0.02123814821243286,0.1329229772090912,0.09543395042419434,-0.12520158290863037,0.0027661090716719627,0.051678597927093506,0.017679929733276367,0.08419706672430038,-0.007084488868713379,0.10659873485565186,0.0,0.0,0.0,0.0,-0.10700251162052155,0.002857424085959792,-0.0417943000793457,0.0794857069849968,0.08938180655241013,-0.04622143507003784,0.08575015515089035,0.030595168471336365,0.025791630148887634,-0.12921150028705597,0.06484034657478333,-0.0703892633318901,-0.12045033276081085,0.28615835309028625,0.3607494533061981,0.4110177159309387,-1.0171198844909668,0.2859843671321869,-0.16817687451839447,-0.010918889194726944,0.538158118724823,-0.8317398428916931,2.259432792663574,0.15761226415634155,0.42560330033302307,-1.570837378501892,0.43554818630218506,0.1559443324804306,-0.4788469076156616,1.1049113273620605,1.507811427116394,1.5716572999954224
1760498217.9673934,0.02,0.014558839611709118,0.21569891273975372,0.003307933919131756,0.02270592376589775,-0.00617006653919816,-0.9997231364250183,-0.6637924909591675,0.838921308517456,-0.06020987033843994,-0.1567208617925644,0.18239644169807434,-0.05181407928466797,0.16756761074066162,0.13090327382087708,-0.1404990553855896,0.03827843442559242,0.07310199737548828,0.013467550277709961,0.036692969501018524,0.01871800422668457,0.08214461803436279,0.0,0.0,0.0,0.0,-0.05219319462776184,0.010744470171630383,-0.07006501406431198,0.09093351662158966,0.08706731349229813,-0.03504609689116478,0.08893802016973495,0.05840737745165825,-0.009967651218175888,-0.11503344774246216,0.06204069405794144,-0.049802266061306,-0.14362774789333344,0.25717267394065857,0.3651014566421509,0.4061499536037445,-0.5710060596466064,0.37904253602027893,-0.3979640305042267,-0.10052886605262756,0.6184973120689392,-0.7866924405097961,1.3774876594543457,0.31551992893218994,0.35282087326049805,-1.256416916847229,0.3923163414001465,0.13170140981674194,-0.5615416765213013,0.9967146515846252,1.488743543624878,1.5385040044784546
1760498218.0316007,0.02,0.015065295621752739,0.10019790381193161,0.03085908852517605,0.035400766879320145,-0.004466068930923939,-0.9993632435798645,-0.6637924909591675,0.838921308517456,-0.061429381370544434,-0.15038876235485077,0.18242183327674866,-0.07593005895614624,0.1928199827671051,0.15570276975631714,-0.14683234691619873,0.06307023763656616,0.09490853548049927,0.0010413527488708496,0.0021155227441340685,0.03943520784378052,0.06525403261184692,0.0,0.0,0.0,0.0,0.12327803671360016,-0.15101055800914764,0.35605818033218384,0.05485180765390396,0.04778223857283592,-0.014859119430184364,0.06132763624191284,0.04731237515807152,-0.04732189700007439,-0.039313074201345444,0.055893659591674805,-0.06856291741132736,0.3001127243041992,0.26646268367767334,0.4016347825527191,0.42379578948020935,0.6244329214096069,0.41558536887168884,-0.7423330545425415,-0.6402575373649597,0.6324801445007324,-0.7042927145957947,-0.2768767178058624,0.4342764914035797,0.11118961870670319,-0.2606414258480072,0.25882992148399353,0.25389987230300903,-0.05195225030183792,1.005923867225647,1.6680680513381958,1.1533417701721191
1760498218.0881188,0.02,-0.08500450104475021,-0.16186438500881195,0.03406545892357826,0.02991768717765808,0.002010380383580923,-0.9995503425598145,-0.6637924909591675,0.838921308517456,-0.06257152557373047,-0.1229296550154686,0.14971813559532166,-0.01524418592453003,0.17991256713867188,0.14970168471336365,-0.13914072513580322,0.05957219377160072,0.10734295845031738,-0.03376901149749756,0.00624482799321413,0.043116629123687744,0.05775618553161621,0.0,0.0,0.0,0.0,0.06895755976438522,-0.06399185955524445,0.09537370502948761,-0.06364138424396515,-0.04534481093287468,0.028432268649339676,-0.03855632618069649,0.012380099855363369,-0.08194751292467117,0.05229387432336807,-0.005588557571172714,-0.02120092511177063,0.28718894720077515,0.27609267830848694,0.47164279222488403,0.2859003245830536,1.362197995185852,0.3948221504688263,-0.8535476922988892,-0.8741750121116638,0.2078576683998108,-0.6985855102539062,-1.577128529548645,0.7029432058334351,-0.24866145849227905,0.7841416001319885,-0.24053150415420532,0.6020689606666565,0.6921099424362183,1.0687652826309204,1.9131643772125244,0.9316590428352356
1760498218.1396973,0.02,-0.03133725747466087,-0.2451857626438141,0.04471631348133087,0.012503383681178093,0.005763355642557144,-0.9999052286148071,-0.6637924909591675,0.838921308517456,-0.06422793865203857,-0.0924680158495903,0.13261714577674866,0.008366227149963379,0.14112494885921478,0.11686119437217712,-0.1037745475769043,0.033344872295856476,0.10533124208450317,-0.06408858299255371,0.03283774107694626,0.040889739990234375,0.037457287311553955,0.0,0.0,0.0,0.0,0.0800083801150322,-0.029544765129685402,0.03547988086938858,-0.10580422729253769,-0.08739902824163437,0.08909112215042114,-0.08009085059165955,-0.01644027791917324,-0.06490572541952133,0.06942833960056305,-0.004626150708645582,-0.06292740255594254,0.20148120820522308,0.43231484293937683,0.39802804589271545,0.351550430059433,1.3573789596557617,0.3432926833629608,-0.6560131311416626,-0.44158294796943665,0.2997927963733673,-0.40224969387054443,-1.56156587600708,0.45927396416664124,-0.42048460245132446,1.0809476375579834,-0.3476082384586334,1.0131503343582153,0.521064043045044,0.8738880753517151,1.597487211227417,1.365618109703064
1760498218.193503,0.02,-0.006958736106753349,-0.26361218094825745,0.03517375886440277,-0.007769405841827393,0.006694622803479433,-0.9999474287033081,-0.6637924909591675,0.838921308517456,-0.06581830978393555,-0.059217218309640884,0.12566602230072021,0.016041874885559082,0.09450995922088623,0.08020257949829102,-0.06398779153823853,-0.006370513699948788,0.09009742736816406,-0.07734346389770508,0.06272270530462265,0.03702712059020996,0.012431740760803223,0.0,0.0,0.0,0.0,0.08453454822301865,-0.010128633119165897,0.006298878695815802,-0.11158877611160278,-0.08270599693059921,0.07123244553804398,-0.10870734602212906,-0.04785645380616188,-0.022445933893322945,0.07748132199048996,-0.013177675195038319,-0.0604228749871254,0.15580666065216064,0.7387998700141907,0.3352605402469635,0.3763473629951477,1.056517481803894,0.25603553652763367,-0.6349654197692871,0.022268202155828476,0.1789955496788025,-0.2520642876625061,-1.7376220226287842,0.26648372411727905,-0.44766172766685486,1.2318171262741089,-0.3099873960018158,1.3484060764312744,0.49132049083709717,1.0994521379470825,1.3441598415374756,1.7263544797897339
1760498218.245444,0.02,-0.02219807729125023,-0.24653860926628113,0.024977251887321472,-0.02740360051393509,0.007247207686305046,-0.9995982050895691,-0.6637924909591675,0.838921308517456,-0.06688141822814941,-0.02570492960512638,0.12360036373138428,0.016272902488708496,0.048632994294166565,0.047455430030822754,-0.0369914174079895,-0.05301232263445854,0.07121998071670532,-0.08633005619049072,0.09459296613931656,0.02891683578491211,-0.0008647441864013672,0.0,0.0,0.0,0.0,0.08171343058347702,-0.0016848782543092966,-0.0075440662913024426,-0.10135505348443985,-0.07510942220687866,0.020777197554707527,-0.12505744397640228,-0.054665058851242065,-0.008708097040653229,0.0781346783041954,-0.026796210557222366,-0.020657982677221298,0.15892639756202698,1.390350580215454,0.3444124162197113,0.33483120799064636,0.8549561500549316,0.25138208270072937,-0.6234999895095825,0.10091456770896912,-0.021595291793346405,-0.16327442228794098,-1.885742425918579,0.11539307981729507,-0.39172470569610596,1.2333018779754639,-0.3251091241836548,1.4803597927093506,0.663094162940979,1.6123268604278564,1.3372743129730225,1.5832850933074951
1760498218.310617,0.02,-0.019391365349292755,-0.23661163449287415,-0.007212592288851738,-0.045512836426496506,0.0069679319858551025,-0.9989394545555115,-0.6637924909591675,0.838921308517456,-0.06714463233947754,0.008394742384552956,0.11900240182876587,0.020172476768493652,0.008457751013338566,0.012569963932037354,-0.012999296188354492,-0.10205178707838058,0.04466050863265991,-0.07929205894470215,0.12929309904575348,0.018972575664520264,0.0007585883140563965,0.0,0.0,0.0,0.0,0.07985830307006836,-0.019771719351410866,0.018558980897068977,-0.10281776636838913,-0.06656661629676819,-0.025921836495399475,-0.12792283296585083,-0.07300127297639847,0.023553086444735527,0.08419866859912872,-0.027316752821207047,0.013559523038566113,0.16499567031860352,1.8559645414352417,0.36737626791000366,0.24228151142597198,0.9161925911903381,0.1782342493534088,-0.5822113752365112,-0.03959951177239418,-0.1473810076713562,-0.0031382357701659203,-1.9680781364440918,0.07254395633935928,-0.3263561725616455,1.2381038665771484,-0.5867878198623657,1.393889307975769,0.8722723722457886,2.678100109100342,1.4471291303634644,0.9850296378135681
1760498218.3624182,0.02,0.021673478186130524,-0.20712082087993622,-0.02336134761571884,-0.06180938705801964,0.0017424700781702995,-0.9980864524841309,-0.6637924909591675,0.838921308517456,-0.06630599498748779,0.046390973031520844,0.11218571662902832,0.028652071952819824,-0.026873406022787094,-0.021794140338897705,0.011398673057556152,-0.14383767545223236,0.014340639114379883,-0.05967235565185547,0.17064324021339417,0.008385777473449707,0.013903439044952393,0.0,0.0,0.0,0.0,0.0868745669722557,-0.016027063131332397,0.01690301112830639,-0.09206707775592804,-0.06238497421145439,-0.02781161665916443,-0.10974489897489548,-0.07551409304141998,0.052177902311086655,0.09381585568189621,-0.03134334459900856,0.04201206937432289,0.1724361628293991,1.8602503538131714,0.4431307017803192,0.19985270500183105,1.0619767904281616,0.25584352016448975,-0.4707034230232239,-0.23353120684623718,-0.2202523946762085,0.13401482999324799,-1.8220160007476807,0.07024656981229782,-0.1088993102312088,0.8277576565742493,-0.9787048697471619,1.1067827939987183,0.8677420616149902,3.1743218898773193,1.712679386138916,0.6604240536689758
1760498218.4222457,0.02,-0.07152989506721497,-0.13565169274806976,-0.006538502871990204,-0.07333455979824066,0.0008463598787784576,-0.9973070621490479,-0.6637924909591675,0.838921308517456,-0.06540024280548096,0.08067648112773895,0.10777977108955383,0.04277181625366211,-0.051255397498607635,-0.04741084575653076,0.014662861824035645,-0.17793866991996765,-0.00868213176727295,-0.036402106285095215,0.20754489302635193,-0.012616276741027832,0.05225712060928345,0.0,0.0,0.0,0.0,0.07362791150808334,-0.009585663676261902,0.038533806800842285,-0.0372907854616642,-0.0675620287656784,-0.04499286040663719,-0.08820172399282455,-0.045197200030088425,0.048361729830503464,0.0748787671327591,-0.07148105651140213,0.1236347109079361,0.1495794951915741,1.7665261030197144,0.5289620161056519,0.21560876071453094,0.3526768088340759,0.3192184269428253,-0.1969132125377655,-0.24599102139472961,-0.20544981956481934,0.07044964283704758,-0.7989758253097534,-0.14413130283355713,0.23402786254882812,0.4307691752910614,-1.374248743057251,0.8292635083198547,0.7740864157676697,2.9720664024353027,1.9370372295379639,0.5862706899642944
1760498218.4740012,0.02,-0.09137289971113205,0.10592744499444962,-0.020873475819826126,-0.07129701972007751,0.004913666285574436,-0.9974430203437805,-0.6637924909591675,0.838921308517456,-0.06434404850006104,0.08082658052444458,0.11492365598678589,0.05458402633666992,-0.04022110626101494,-0.05594027042388916,-0.010875225067138672,-0.18233084678649902,-0.0054885149002075195,-0.028743982315063477,0.23080013692378998,-0.045316994190216064,0.13008886575698853,0.0,0.0,0.0,0.0,-0.05009840056300163,0.03079557977616787,0.023443540558218956,0.063637875020504,-0.007720436900854111,-0.10289808362722397,0.01744319498538971,0.033921342343091965,0.003532125148922205,0.02657094970345497,-0.08497574925422668,0.2059609442949295,0.11952271312475204,1.179513931274414,0.4931161403656006,0.13680212199687958,-1.4259377717971802,-0.007811218500137329,0.2918286919593811,0.10981366038322449,0.04774071276187897,-0.15916694700717926,1.9703123569488525,-0.17198380827903748,0.6776561141014099,-0.028553374111652374,-1.0576503276824951,0.7667405009269714,0.4509558081626892,2.891662359237671,2.228250741958618,0.4388108253479004
1760498218.5296867,0.02,0.007232014089822769,0.2038055956363678,-0.017040912061929703,-0.0573413148522377,0.004899498075246811,-0.9983426332473755,-0.6637924909591675,0.838921308517456,-0.06350147724151611,0.04932896047830582,0.13183242082595825,0.05552172660827637,-0.006927539128810167,-0.035205066204071045,-0.045967161655426025,-0.14815981686115265,0.015286564826965332,-0.0312880277633667,0.22862635552883148,-0.0643492341041565,0.180539071559906,0.0,0.0,0.0,0.0,-0.10166596621274948,0.041224729269742966,-0.002249891171231866,0.08156727254390717,0.06926590204238892,-0.07950986176729202,0.0904497280716896,0.039982669055461884,0.026806959882378578,-0.030553966760635376,-0.03411950543522835,0.09060407429933548,0.04575320705771446,0.5144052505493164,0.26745468378067017,0.09456035494804382,-1.0669597387313843,-0.34663793444633484,0.2519964277744293,0.2430674135684967,0.5123835802078247,-0.6577083468437195,3.1208717823028564,0.019693560898303986,0.6659085750579834,-0.6437172889709473,-0.5036594867706299,0.6789617538452148,0.15671378374099731,2.306781053543091,2.0478262901306152,0.31207215785980225
1760498218.581512,0.02,0.11584781855344772,0.19714532792568207,-0.014135005883872509,-0.04175663739442825,-0.003239393699914217,-0.9991225600242615,-0.6637924909591675,0.838921308517456,-0.06289136409759521,0.01188779715448618,0.15242543816566467,0.03263092041015625,0.03297727555036545,-0.008620858192443848,-0.06346279382705688,-0.10478150844573975,0.025187671184539795,-0.016960859298706055,0.21068647503852844,-0.06387126445770264,0.1802690029144287,0.0,0.0,0.0,0.0,-0.09290572255849838,0.04559387266635895,-0.05891064926981926,0.10256925970315933,0.06700881570577621,-0.04292910173535347,0.11247999966144562,0.016702067106962204,0.04257270321249962,-0.059757448732852936,0.007237111683934927,-0.017089514061808586,-0.002805163851007819,0.3893164396286011,0.34558889269828796,0.1353546380996704,-0.352805495262146,-0.03423720598220825,0.022330552339553833,-0.12799546122550964,0.3418586552143097,-0.6800026893615723,2.7031147480010986,0.12142208963632584,0.47814515233039856,-0.9725045561790466,-0.13163676857948303,0.49604684114456177,-0.01911986619234085,1.7341164350509644,2.0317976474761963,0.5232840776443481
1760498218.6349907,0.02,0.048106513917446136,0.19890031218528748,-0.029140537604689598,-0.026030397042632103,-0.007454748265445232,-0.9996333718299866,-0.6637924909591675,0.838921308517456,-0.061975836753845215,-0.03248937800526619,0.16539719700813293,0.012934207916259766,0.06881755590438843,0.023758411407470703,-0.08285987377166748,-0.0654161125421524,0.03218609094619751,-0.0034025907516479492,0.17781423032283783,-0.05154389142990112,0.1605520248413086,0.0,0.0,0.0,0.0,-0.1112046018242836,0.022642524912953377,-0.03934963420033455,0.08872120082378387,0.08155115693807602,-0.0448182113468647,0.09890316426753998,0.015845887362957,0.03355010971426964,-0.0858968198299408,0.038363147526979446,-0.05248323827981949,-0.05001933500170708,0.32331857085227966,0.366526335477829,0.23729220032691956,-0.5701349377632141,0.11452504992485046,-0.008731096982955933,-0.1289442777633667,0.3639897108078003,-0.7160462737083435,2.616321086883545,0.10647410899400711,0.390333890914917,-1.280793309211731,0.165316641330719,0.4251137971878052,-0.19804558157920837,1.373287320137024,1.815718412399292,0.7943584322929382
1760498218.6943927,0.02,0.01295631192624569,0.20233222842216492,-0.031103013083338737,-0.010063529014587402,-0.007553239818662405,-0.9999208450317383,-0.6637924909591675,0.838921308517456,-0.06083500385284424,-0.08079186826944351,0.17141911387443542,-0.002834618091583252,0.10080526024103165,0.05876922607421875,-0.10336428880691528,-0.03001001663506031,0.040444791316986084,0.007980406284332275,0.13389728963375092,-0.03135889768600464,0.13344907760620117,0.0,0.0,0.0,0.0,-0.11472989618778229,0.007849233224987984,-0.03290420398116112,0.08285228908061981,0.08527912199497223,-0.04570756107568741,0.09099196642637253,0.020518412813544273,0.031241053715348244,-0.11027603596448898,0.05496358498930931,-0.0671951100230217,-0.07859557867050171,0.311655730009079,0.38114145398139954,0.3489837348461151,-0.8273913860321045,0.21016880869865417,-0.06245139241218567,-0.060477469116449356,0.4179208278656006,-0.790520429611206,2.52698016166687,0.12122000008821487,0.4166301488876343,-1.526397466659546,0.32487595081329346,0.29153019189834595,-0.31340813636779785,1.2573505640029907,1.6988909244537354,1.283452033996582
1760498218.7480478,0.02,-0.013407579623162746,0.20352543890476227,-0.028382565826177597,0.006042475812137127,-0.005316342227160931,-0.999967634677887,-0.6637924909591675,0.838921308517456,-0.05971336364746094,-0.12769301235675812,0.17425966262817383,-0.02124476432800293,0.13119933009147644,0.09511035680770874,-0.12362295389175415,0.0031908939126878977,0.05197262763977051,0.01771378517150879,0.0825771763920784,-0.006713151931762695,0.10471910238265991,0.0,0.0,0.0,0.0,-0.1072528287768364,0.0019556100014597178,-0.04207032173871994,0.07990774512290955,0.08828090876340866,-0.045758310705423355,0.08602874726057053,0.030828122049570084,0.02509271167218685,-0.12712866067886353,0.06392569839954376,-0.06903142482042313,-0.12214729934930801,0.28704413771629333,0.3594094514846802,0.4158528745174408,-1.0232409238815308,0.29123419523239136,-0.16489684581756592,-0.011895719915628433,0.5390912890434265,-0.8264376521110535,2.272216558456421,0.15221211314201355,0.425099641084671,-1.5726574659347534,0.4345315098762512,0.1547522097826004,-0.4849790930747986,1.1192437410354614,1.5043129920959473,1.5912989377975464
1760498218.811535,0.02,0.016255365684628487,0.21430501341819763,0.0034677786752581596,0.022443197667598724,-0.006137947551906109,-0.9997292757034302,-0.6637924909591675,0.838921308517456,-0.059412360191345215,-0.1571478694677353,0.17957735061645508,-0.05182802677154541,0.1659281700849533,0.13020700216293335,-0.13870620727539062,0.03873612359166145,0.07354801893234253,0.013149797916412354,0.035652726888656616,0.01883828639984131,0.08070862293243408,0.0,0.0,0.0,0.0,-0.05341348797082901,0.010399814695119858,-0.07010535150766373,0.09109713137149811,0.08626611530780792,-0.03446458652615547,0.08904372900724411,0.058400191366672516,-0.010009908117353916,-0.11375179141759872,0.06161678954958916,-0.04897724837064743,-0.14764153957366943,0.2589505612850189,0.36374303698539734,0.40920916199684143,-0.5874525308609009,0.381833016872406,-0.3944285809993744,-0.10302990674972534,0.620862603187561,-0.778976321220398,1.4019054174423218,0.31171807646751404,0.3521861135959625,-1.263155221939087,0.3941980004310608,0.1292150765657425,-0.5771029591560364,1.0116535425186157,1.4868834018707275,1.552109956741333
1760498218.8640995,0.02,0.01428610272705555,0.10197554528713226,0.034878455102443695,0.03516412153840065,-0.0044736615382134914,-0.9993715286254883,-0.6637924909591675,0.838921308517456,-0.060637831687927246,-0.1517620086669922,0.181350976228714,-0.08056241273880005,0.19144336879253387,0.1550387740135193,-0.14504772424697876,0.06358930468559265,0.09547054767608643,0.0008245706558227539,0.0016028295503929257,0.03951239585876465,0.06422781944274902,0.0,0.0,0.0,0.0,0.12956836819648743,-0.13234545290470123,0.29188522696495056,0.05651132017374039,0.04772472009062767,-0.01456874143332243,0.060900475829839706,0.047770630568265915,-0.04603756591677666,-0.043242197483778,0.052243560552597046,-0.06110765412449837,0.20288653671741486,0.2667241394519806,0.3993758261203766,0.40105199813842773,0.6115118265151978,0.41585662961006165,-0.7433222532272339,-0.6387466192245483,0.6357522010803223,-0.6965100765228271,-0.26460012793540955,0.4349728524684906,0.1118558943271637,-0.2625165283679962,0.2579682171344757,0.2535671591758728,-0.08393538743257523,1.0141502618789673,1.6629341840744019,1.1557259559631348
1760498218.9216223,0.02,-0.08399394154548645,-0.1573815494775772,0.029367616400122643,0.02998475916683674,0.002177828922867775,-0.9995479583740234,-0.6637924909591675,0.838921308517456,-0.06168854236602783,-0.12464779615402222,0.1460443139076233,-0.017345070838928223,0.17957544326782227,0.1510394811630249,-0.1382763385772705,0.06050959601998329,0.10856491327285767,-0.035474419593811035,0.004994748160243034,0.04323631525039673,0.05633658170700073,0.0,0.0,0.0,0.0,0.06868236511945724,-0.06899797171354294,0.10000772774219513,-0.05996173247694969,-0.038336921483278275,0.026895076036453247,-0.03619905933737755,0.01397019810974598,-0.0862736850976944,0.050942301750183105,-0.004770355299115181,-0.024789487943053246,0.30332762002944946,0.2718580365180969,0.4713241159915924,0.30534628033638,1.340208888053894,0.3804529011249542,-0.833043098449707,-0.9128265976905823,0.2624471187591553,-0.6854978799819946,-1.542380928993225,0.6703675389289856,-0.26866769790649414,0.8416219353675842,-0.18276098370552063,0.6211838722229004,0.7026317119598389,1.0950125455856323,1.9096388816833496,1.0592472553253174
1760498218.9759982,0.02,-0.026709627360105515,-0.24057917296886444,0.04470381140708923,0.01295172143727541,0.0056433603167533875,-0.999900221824646,-0.6637924909591675,0.838921308517456,-0.06327712535858154,-0.09400340914726257,0.12782976031303406,0.007985591888427734,0.1423722356557846,0.11963513493537903,-0.10349863767623901,0.03515312448143959,0.10655397176742554,-0.06561553478240967,0.03200037404894829,0.041066527366638184,0.036326825618743896,0.0,0.0,0.0,0.0,0.08100208640098572,-0.03140127658843994,0.03951457887887955,-0.10226979106664658,-0.08595799654722214,0.08868803083896637,-0.07794719934463501,-0.015818575397133827,-0.06505931168794632,0.07046651095151901,-0.004301918670535088,-0.061954278498888016,0.2041211575269699,0.4069558084011078,0.40565624833106995,0.3513880968093872,1.397602915763855,0.36947157979011536,-0.6443746089935303,-0.478255957365036,0.27398231625556946,-0.42344072461128235,-1.5522804260253906,0.48605409264564514,-0.41559725999832153,1.0950207710266113,-0.3682645559310913,1.0112937688827515,0.5154352188110352,0.8946642279624939,1.6195411682128906,1.3322498798370361
1760498219.0332232,0.02,-0.002762620337307453,-0.26180729269981384,0.0362265408039093,-0.007096992339938879,0.006243625655770302,-0.9999552965164185,-0.6637924909591675,0.838921308517456,-0.06489741802215576,-0.060399096459150314,0.12060478329658508,0.016651153564453125,0.09670759737491608,0.08297157287597656,-0.0637737512588501,-0.00391522329300642,0.09143948554992676,-0.07868540287017822,0.06218746304512024,0.03734159469604492,0.011601448059082031,0.0,0.0,0.0,0.0,0.08548932522535324,-0.010247026570141315,0.00793464481830597,-0.11015184968709946,-0.08355411142110825,0.07213972508907318,-0.10730693489313126,-0.047762494534254074,-0.021647630259394646,0.07817479223012924,-0.012779503129422665,-0.0599069781601429,0.15398575365543365,0.694861650466919,0.3409407138824463,0.37345924973487854,1.0818835496902466,0.27022406458854675,-0.6337331533432007,-0.006337199360132217,0.17711657285690308,-0.26001110672950745,-1.7167060375213623,0.28342482447624207,-0.44963309168815613,1.232467532157898,-0.3144769072532654,1.3427642583847046,0.4733259677886963,1.0404622554779053,1.36768639087677,1.7002815008163452
1760498219.0869331,0.02,-0.014187517575919628,-0.24576473236083984,0.025090131908655167,-0.026714058592915535,0.006512111518532038,-0.9996219277381897,-0.6637924909591675,0.838921308517456,-0.06599855422973633,-0.026586445048451424,0.11878690123558044,0.017007827758789062,0.05107587203383446,0.04979681968688965,-0.036530137062072754,-0.05025755241513252,0.07226622104644775,-0.08680856227874756,0.0942588672041893,0.029233694076538086,-0.001815199851989746,0.0,0.0,0.0,0.0,0.0830923542380333,-0.0005834413459524512,-0.0075988927856087685,-0.10206359624862671,-0.07586916536092758,0.025973601266741753,-0.12331896275281906,-0.05463308095932007,-0.00797642394900322,0.07954660058021545,-0.026394207030534744,-0.021482309326529503,0.15363352000713348,1.2618844509124756,0.34864935278892517,0.33645495772361755,0.8694359064102173,0.2614692151546478,-0.6249525547027588,0.09150668978691101,-0.016418330371379852,-0.16982553899288177,-1.8719165325164795,0.12586665153503418,-0.3945959508419037,1.2376055717468262,-0.30910927057266235,1.48736572265625,0.6383691430091858,1.5329111814498901,1.3580520153045654,1.6008129119873047
1760498219.1486592,0.02,-0.024046920239925385,-0.2380918562412262,-0.006770494394004345,-0.04498787969350815,0.006723594851791859,-0.9989649057388306,-0.6637924909591675,0.838921308517456,-0.06629645824432373,0.0070074982941150665,0.11492323875427246,0.019870281219482422,0.009913419373333454,0.016358911991119385,-0.018365919589996338,-0.09989993274211884,0.0457804799079895,-0.08008003234863281,0.12835882604122162,0.01864403486251831,-0.0005022287368774414,0.0,0.0,0.0,0.0,0.07877669483423233,-0.018620094284415245,0.018027005717158318,-0.10466581583023071,-0.06400178372859955,-0.03937886282801628,-0.12911592423915863,-0.07291113585233688,0.02287323959171772,0.08306499570608139,-0.029092008247971535,0.012394310906529427,0.15804240107536316,1.8665943145751953,0.3686439096927643,0.2549723982810974,0.8781895637512207,0.20811226963996887,-0.579412579536438,-0.013954315334558487,-0.14496275782585144,-0.033745624125003815,-1.9583706855773926,0.07970715314149857,-0.3334263861179352,1.2462527751922607,-0.5549465417861938,1.4225257635116577,0.8571904897689819,2.4874637126922607,1.453925371170044,1.0742262601852417
1760498219.2048042,0.02,0.027832716703414917,-0.20500986278057098,-0.024799972772598267,-0.06114404276013374,0.0009807953611016273,-0.9981284737586975,-0.6637924909591675,0.838921308517456,-0.06541299819946289,0.04537083953619003,0.10830917954444885,0.028558969497680664,-0.025841180235147476,-0.020066022872924805,0.009389400482177734,-0.1413497030735016,0.015198767185211182,-0.0598907470703125,0.1701582670211792,0.00823599100112915,0.012294530868530273,0.0,0.0,0.0,0.0,0.08764561265707016,-0.015863066539168358,0.017771124839782715,-0.0938241109251976,-0.06897421926259995,-0.015116888098418713,-0.10922839492559433,-0.0764906033873558,0.0541236512362957,0.09489760547876358,-0.0303603895008564,0.04157079756259918,0.1697056144475937,1.8547204732894897,0.441599577665329,0.19826090335845947,1.0728157758712769,0.2503291666507721,-0.47501862049102783,-0.2418087124824524,-0.22016918659210205,0.13864052295684814,-1.8262684345245361,0.07401926070451736,-0.11245781183242798,0.8421250581741333,-0.9504568576812744,1.121057391166687,0.8610061407089233,3.1821370124816895,1.7113125324249268,0.6490195393562317
1760498219.2651877,0.02,-0.06508386135101318,-0.14011846482753754,-0.008838025853037834,-0.0728859081864357,-0.0003030095249414444,-0.9973402619361877,-0.6637924909591675,0.838921308517456,-0.06445896625518799,0.07990925759077072,0.1040891706943512,0.042428016662597656,-0.05075656250119209,-0.04790031909942627,0.01725614070892334,-0.17598451673984528,-0.00856935977935791,-0.03591012954711914,0.20748397707939148,-0.012097656726837158,0.049375712871551514,0.0,0.0,0.0,0.0,0.07417149841785431,-0.008802872151136398,0.03694315627217293,-0.039729487150907516,-0.06735639274120331,-0.04147220402956009,-0.08986228704452515,-0.047570254653692245,0.05030852183699608,0.07634494453668594,-0.06873147934675217,0.11859843879938126,0.14432303607463837,1.6128965616226196,0.5256847143173218,0.21489429473876953,0.42225953936576843,0.32413342595100403,-0.2139609009027481,-0.23849129676818848,-0.20880502462387085,0.07290098816156387,-0.8838804960250854,-0.11709725111722946,0.2152101844549179,0.4405839443206787,-1.3739676475524902,0.840666651725769,0.7562690377235413,2.979698896408081,1.932430386543274,0.5829006433486938
1760498219.3199837,0.02,-0.10346662998199463,0.08946864306926727,-0.01659662276506424,-0.07186835259199142,0.0045494139194488525,-0.9974037408828735,-0.6637924909591675,0.838921308517456,-0.06351065635681152,0.08013807237148285,0.11230257153511047,0.05152404308319092,-0.03952103853225708,-0.05549311637878418,-0.012553572654724121,-0.18288400769233704,-0.006131112575531006,-0.02831900119781494,0.23122458159923553,-0.045481860637664795,0.12733477354049683,0.0,0.0,0.0,0.0,-0.04892123118042946,0.033594999462366104,0.0165709238499403,0.06408043950796127,-0.007030881941318512,-0.11600647121667862,0.009672878310084343,0.031976114958524704,0.003987499512732029,0.029117995873093605,-0.08868386596441269,0.20917515456676483,0.11579819768667221,1.1098289489746094,0.4995175302028656,0.1427977830171585,-1.3877424001693726,0.04480576515197754,0.2752203643321991,0.18376848101615906,0.03503922373056412,-0.18519534170627594,1.855353832244873,-0.1589277982711792,0.6534557342529297,-0.002056860364973545,-1.0993337631225586,0.7812135219573975,0.43921107053756714,2.8393936157226562,2.1871232986450195,0.46300870180130005
1760498219.3792253,0.02,0.0010342840105295181,0.2029971331357956,-0.017126040533185005,-0.05830254405736923,0.00409794133156538,-0.9982905387878418,-0.6637924909591675,0.838921308517456,-0.06270718574523926,0.04966113343834877,0.12986469268798828,0.053250908851623535,-0.0054831737652421,-0.034596145153045654,-0.04800683259963989,-0.14786316454410553,0.015493512153625488,-0.03317534923553467,0.23128058016300201,-0.06581056118011475,0.18110424280166626,0.0,0.0,0.0,0.0,-0.10333683341741562,0.04253581166267395,0.0022811396047472954,0.08055755496025085,0.06999578326940536,-0.07814545184373856,0.0864480584859848,0.0384904183447361,0.032952990382909775,-0.028522849082946777,-0.036796990782022476,0.09905899316072464,0.040114812552928925,0.5042755007743835,0.2996739149093628,0.0964687392115593,-1.1174246072769165,-0.34336188435554504,0.25146567821502686,0.2670375108718872,0.513563871383667,-0.6424251794815063,3.2039575576782227,0.041569389402866364,0.6656897068023682,-0.6193094253540039,-0.5141323208808899,0.7175759673118591,0.1360885500907898,2.288395404815674,2.097151041030884,0.3116489052772522
1760498219.4315448,0.02,0.12816473841667175,0.19792038202285767,-0.016283342614769936,-0.0426475964486599,-0.005063168238848448,-0.999077320098877,-0.6637924909591675,0.838921308517456,-0.062050819396972656,0.012711526826024055,0.1514139175415039,0.03132641315460205,0.035501569509506226,-0.008340001106262207,-0.06351596117019653,-0.1032966822385788,0.025616466999053955,-0.019362807273864746,0.21532244980335236,-0.06523120403289795,0.1820874810218811,0.0,0.0,0.0,0.0,-0.09240736812353134,0.047920774668455124,-0.05683243274688721,0.10509669780731201,0.06637701392173767,-0.038909632712602615,0.11367654800415039,0.01467414665967226,0.04482438787817955,-0.055566538125276566,0.008168667554855347,-0.01530561875551939,-0.005935791414231062,0.38064688444137573,0.3453236520290375,0.13507035374641418,-0.3718944787979126,-0.04377153515815735,0.021883279085159302,-0.13112378120422363,0.33978402614593506,-0.686002254486084,2.869136333465576,0.13223537802696228,0.4832828938961029,-1.0026836395263672,-0.1282270848751068,0.5139589309692383,-0.03280986100435257,1.6979936361312866,2.1234819889068604,0.5208442807197571
1760498219.4898596,0.02,0.05073770880699158,0.20133908092975616,-0.029645586386322975,-0.026760829612612724,-0.009697417728602886,-0.9995948076248169,-0.6637924909591675,0.838921308517456,-0.06111013889312744,-0.031664129346609116,0.16573792695999146,0.011778473854064941,0.0718502625823021,0.023928701877593994,-0.08272457122802734,-0.06334192305803299,0.03205668926239014,-0.005602836608886719,0.1833760291337967,-0.05246537923812866,0.1630399227142334,0.0,0.0,0.0,0.0,-0.1112118512392044,0.026290446519851685,-0.03928088769316673,0.08948344737291336,0.08164196461439133,-0.04546407237648964,0.09901264309883118,0.013663172721862793,0.03656764701008797,-0.08542478084564209,0.03915218263864517,-0.050817012786865234,-0.05065903067588806,0.32869717478752136,0.39091700315475464,0.2385406792163849,-0.540921151638031,0.12182670831680298,-0.014035671949386597,-0.15551364421844482,0.3725600838661194,-0.7192164063453674,2.712175130844116,0.12191876024007797,0.40030136704444885,-1.3348119258880615,0.15377044677734375,0.4337337017059326,-0.2008143961429596,1.4025472402572632,1.8823707103729248,0.8014015555381775
1760498219.5413976,0.02,0.00967368297278881,0.20545870065689087,-0.031915560364723206,-0.010551176965236664,-0.00956881046295166,-0.9998985528945923,-0.6637924909591675,0.838921308517456,-0.05997145175933838,-0.08040376007556915,0.17319977283477783,-0.004055440425872803,0.10367947816848755,0.05952179431915283,-0.10359400510787964,-0.028070548549294472,0.039753496646881104,0.006523787975311279,0.13873635232448578,-0.03168445825576782,0.13596904277801514,0.0,0.0,0.0,0.0,-0.11587122827768326,0.011309693567454815,-0.03329391032457352,0.08235474675893784,0.08710353076457977,-0.04668941721320152,0.09093741327524185,0.019805364310741425,0.03184991702437401,-0.11265852302312851,0.05662016198039055,-0.06749501079320908,-0.08254050463438034,0.30954572558403015,0.38907262682914734,0.3447171151638031,-0.8171355128288269,0.20407509803771973,-0.07230551540851593,-0.07946452498435974,0.4152719974517822,-0.7952743768692017,2.5815317630767822,0.13047707080841064,0.4189876616001129,-1.5687179565429688,0.3254914879798889,0.2948187291622162,-0.33038800954818726,1.2389966249465942,1.727090835571289,1.2746849060058594
1760498219.5946662,0.02,-0.0177171528339386,0.2066027671098709,-0.028842851519584656,0.005809855181723833,-0.006974579766392708,-0.9999588131904602,-0.6637924909591675,0.838921308517456,-0.05885004997253418,-0.12766510248184204,0.17726969718933105,-0.022669434547424316,0.13371674716472626,0.0966641902923584,-0.12402999401092529,0.004812038503587246,0.05082601308822632,0.017083704471588135,0.08616703748703003,-0.0063132643699646,0.1067361831665039,0.0,0.0,0.0,0.0,-0.10782428085803986,0.0046767559833824635,-0.04247075691819191,0.0790417417883873,0.09026491641998291,-0.045715875923633575,0.08531978726387024,0.029864972457289696,0.02691507898271084,-0.1303517371416092,0.06563843786716461,-0.07029268890619278,-0.123576320707798,0.28271743655204773,0.36320289969444275,0.4139725863933563,-1.0052095651626587,0.28687456250190735,-0.17658835649490356,-0.030597034841775894,0.5387616157531738,-0.8281917572021484,2.2823691368103027,0.153764009475708,0.4270513653755188,-1.5983614921569824,0.43470489978790283,0.15326008200645447,-0.4918114244937897,1.109675407409668,1.5141445398330688,1.5843428373336792
1760498219.6483293,0.02,0.011587903834879398,0.2164487987756729,0.003653348423540592,0.022395724430680275,-0.00736577482894063,-0.9997220635414124,-0.6637924909591675,0.838921308517456,-0.05856120586395264,-0.1572420448064804,0.18341127038002014,-0.05338829755783081,0.16801105439662933,0.13213780522346497,-0.1394466757774353,0.039903052151203156,0.07210969924926758,0.013014078140258789,0.037908416241407394,0.01974165439605713,0.08218014240264893,0.0,0.0,0.0,0.0,-0.053311217576265335,0.012051875703036785,-0.07019486278295517,0.09023734927177429,0.08663766831159592,-0.03473643213510513,0.08792132139205933,0.057767488062381744,-0.008908853866159916,-0.11685600131750107,0.062654048204422,-0.050311144441366196,-0.14541733264923096,0.2589925229549408,0.36544927954673767,0.4098966717720032,-0.5726969838142395,0.3790796101093292,-0.40594691038131714,-0.11412814259529114,0.6185303330421448,-0.78009033203125,1.3916178941726685,0.3136845529079437,0.3519110083580017,-1.2731648683547974,0.39055436849594116,0.12578198313713074,-0.5685924887657166,1.005141258239746,1.489877700805664,1.553729772567749
1760498219.7061276,0.02,0.007628489751368761,0.10342425853013992,0.03292587399482727,0.035245440900325775,-0.005178459454327822,-0.9993652701377869,-0.6637924909591675,0.838921308517456,-0.059800028800964355,-0.15205195546150208,0.18583625555038452,-0.08278316259384155,0.19261786341667175,0.15663686394691467,-0.1451283097267151,0.06410486251115799,0.09388041496276855,0.0007709860801696777,0.002564792288467288,0.04065406322479248,0.0652775764465332,0.0,0.0,0.0,0.0,0.1276986449956894,-0.1297231763601303,0.2857092022895813,0.05395594984292984,0.046826183795928955,-0.012233066372573376,0.05981751158833504,0.0477396659553051,-0.04675902798771858,-0.03917474299669266,0.05791326239705086,-0.0714258924126625,0.19784288108348846,0.2671835422515869,0.40205317735671997,0.43732309341430664,0.6069835424423218,0.41315677762031555,-0.7484880685806274,-0.6442050337791443,0.6348854899406433,-0.6972671151161194,-0.2664244472980499,0.4360232353210449,0.11120112240314484,-0.26228219270706177,0.25694605708122253,0.2506135404109955,-0.0557977631688118,1.0163580179214478,1.6713746786117554,1.1689949035644531
1760498219.758712,0.02,-0.08283189684152603,-0.15635867416858673,0.031681355088949203,0.030186278745532036,0.0015144096687436104,-0.9995431303977966,-0.6637924909591675,0.838921308517456,-0.06090283393859863,-0.12489587813615799,0.15025529265403748,-0.018835484981536865,0.18041878938674927,0.15164479613304138,-0.1374596357345581,0.06092587113380432,0.10692888498306274,-0.035553812980651855,0.006192473694682121,0.04415994882583618,0.058039724826812744,0.0,0.0,0.0,0.0,0.06936212629079819,-0.06981365382671356,0.10163207352161407,-0.06017662212252617,-0.041180383414030075,0.028356118127703667,-0.036180976778268814,0.014020049944519997,-0.08650654554367065,0.05240721255540848,-0.005635980982333422,-0.023106848821043968,0.3040744960308075,0.27037081122398376,0.4748438894748688,0.30264410376548767,1.3632162809371948,0.36164963245391846,-0.8369882106781006,-0.9032284021377563,0.2503885328769684,-0.6886113882064819,-1.5449659824371338,0.6811832189559937,-0.2673044502735138,0.8393539190292358,-0.20860470831394196,0.617560863494873,0.7006356120109558,1.1054717302322388,1.9246119260787964,1.0596423149108887
1760498219.8120353,0.02,-0.031512901186943054,-0.2413059026002884,0.04557326063513756,0.013129308819770813,0.005349323153495789,-0.9998995065689087,-0.6637924909591675,0.838921308517456,-0.06254541873931885,-0.09450076520442963,0.13161906599998474,0.006865024566650391,0.14267262816429138,0.11973834037780762,-0.10277402400970459,0.035077888518571854,0.10478401184082031,-0.06554627418518066,0.03282768279314041,0.041581571102142334,0.038044869899749756,0.0,0.0,0.0,0.0,0.08027604967355728,-0.0324215292930603,0.039944782853126526,-0.10358120501041412,-0.08644778281450272,0.0880388468503952,-0.079020656645298,-0.015739761292934418,-0.06557425856590271,0.0695432648062706,-0.0054553779773414135,-0.06215709447860718,0.20761393010616302,0.4060885012149811,0.40609732270240784,0.35683438181877136,1.3759255409240723,0.3614750802516937,-0.6557031869888306,-0.47593292593955994,0.28537750244140625,-0.4163864552974701,-1.5489749908447266,0.47914376854896545,-0.41656795144081116,1.0923786163330078,-0.3593422770500183,1.0134327411651611,0.5280183553695679,0.8958101868629456,1.6252806186676025,1.3714677095413208
1760498219.874132,0.02,-0.007971406914293766,-0.2626068890094757,0.036001600325107574,-0.006984116975218058,0.006401679012924433,-0.9999551177024841,-0.6637924909591675,0.838921308517456,-0.06417405605316162,-0.06128627434372902,0.12398853898048401,0.015673160552978516,0.09659771621227264,0.08314275741577148,-0.06363701820373535,-0.004381783306598663,0.08978646993637085,-0.07884812355041504,0.06259990483522415,0.03739333152770996,0.013278722763061523,0.0,0.0,0.0,0.0,0.08455773442983627,-0.011261067353188992,0.008255110122263432,-0.11092083901166916,-0.08318068087100983,0.07069742679595947,-0.10804414004087448,-0.047488391399383545,-0.021955136209726334,0.07726021856069565,-0.01386177260428667,-0.06007179617881775,0.1574247181415558,0.6923779249191284,0.3416537344455719,0.37922924757003784,1.0515451431274414,0.266169935464859,-0.6400659084320068,0.0029465816915035248,0.18057090044021606,-0.2586444318294525,-1.7143930196762085,0.2817288637161255,-0.44908055663108826,1.23733389377594,-0.3063626289367676,1.3478598594665527,0.4857689142227173,1.044041633605957,1.3712449073791504,1.7341067790985107
1760498219.928087,0.02,-0.015222377143800259,-0.24563434720039368,0.02503792569041252,-0.026614749804139137,0.006810832303017378,-0.9996225833892822,-0.6637924909591675,0.838921308517456,-0.06527411937713623,-0.027560992166399956,0.12188121676445007,0.0161745548248291,0.05109346657991409,0.05004161596298218,-0.03682976961135864,-0.050598543137311935,0.07106912136077881,-0.08758676052093506,0.09457632899284363,0.028973102569580078,-0.0002110004425048828,0.0,0.0,0.0,0.0,0.08302430063486099,-0.001239041448570788,-0.007129398174583912,-0.10151389986276627,-0.07581233978271484,0.025192899629473686,-0.12290170043706894,-0.05374625325202942,-0.008581210859119892,0.07944988459348679,-0.027117600664496422,-0.0215507373213768,0.15572233498096466,1.2562658786773682,0.3486272990703583,0.34080833196640015,0.8530172109603882,0.25948020815849304,-0.6286724805831909,0.10291382670402527,-0.017584167420864105,-0.17189417779445648,-1.871441125869751,0.1262126863002777,-0.3944774568080902,1.2386901378631592,-0.30930405855178833,1.4904913902282715,0.6445591449737549,1.5217393636703491,1.355462670326233,1.6208089590072632
1760498219.9825928,0.02,-0.024926096200942993,-0.23772674798965454,-0.005927244666963816,-0.044853575527668,0.007110636681318283,-0.998968243598938,-0.6637924909591675,0.838921308517456,-0.06559419631958008,0.0060036261565983295,0.11791428923606873,0.019040465354919434,0.010190803557634354,0.01655346155166626,-0.018796801567077637,-0.10012412071228027,0.04498791694641113,-0.08102262020111084,0.12861193716526031,0.018121957778930664,0.0011450648307800293,0.0,0.0,0.0,0.0,0.07902272045612335,-0.01927095837891102,0.01934955269098282,-0.10391440242528915,-0.06419552862644196,-0.03963613137602806,-0.12884403765201569,-0.07184708118438721,0.022500813007354736,0.08294236660003662,-0.02975456975400448,0.012536734342575073,0.15919186174869537,1.867091178894043,0.3663245141506195,0.2579997479915619,0.8709723353385925,0.2071484625339508,-0.581857442855835,-0.008254919201135635,-0.1448850929737091,-0.035770706832408905,-1.9625217914581299,0.07858244329690933,-0.33593907952308655,1.2483495473861694,-0.5577235221862793,1.4251211881637573,0.8587900400161743,2.4709534645080566,1.4431713819503784,1.0860322713851929
1760498220.0425217,0.02,0.026688681915402412,-0.20486068725585938,-0.023900525644421577,-0.06098882108926773,0.0014678547158837318,-0.998137354850769,-0.6637924909591675,0.838921308517456,-0.0647510290145874,0.044376734644174576,0.11112061142921448,0.028065204620361328,-0.025386976078152657,-0.020041048526763916,0.009224176406860352,-0.1415528506040573,0.01481473445892334,-0.061003684997558594,0.1703183799982071,0.007515013217926025,0.013989388942718506,0.0,0.0,0.0,0.0,0.08767152577638626,-0.01626693084836006,0.01848859153687954,-0.09349821507930756,-0.0693712830543518,-0.014373977668583393,-0.10924698412418365,-0.07550877332687378,0.053658466786146164,0.09467652440071106,-0.030799491330981255,0.041669417172670364,0.17012804746627808,1.8543752431869507,0.437946617603302,0.19982361793518066,1.0667002201080322,0.2468666434288025,-0.47807052731513977,-0.2423814833164215,-0.2192072868347168,0.13858921825885773,-1.8301115036010742,0.06877902895212173,-0.1168200671672821,0.8471958637237549,-0.9490982294082642,1.1244992017745972,0.8600459098815918,3.177065372467041,1.6955478191375732,0.6556397676467896
1760498220.0976682,0.02,-0.06659961491823196,-0.1409239023923874,-0.007865870371460915,-0.07276315987110138,0.0002543199807405472,-0.997349202632904,-0.6637924909591675,0.838921308517456,-0.06382548809051514,0.07892027497291565,0.10674843192100525,0.04205608367919922,-0.050437282770872116,-0.04773831367492676,0.016326308250427246,-0.17621499300003052,-0.00863558053970337,-0.03729069232940674,0.2075810581445694,-0.01295691728591919,0.05100893974304199,0.0,0.0,0.0,0.0,0.07412893325090408,-0.009196234866976738,0.037091828882694244,-0.0396018885076046,-0.06866508722305298,-0.041709739714860916,-0.09013742953538895,-0.04687349125742912,0.04954630509018898,0.07604672759771347,-0.06921371072530746,0.11846239864826202,0.14538387954235077,1.6563059091567993,0.5219176411628723,0.2164023220539093,0.4179700016975403,0.3217776417732239,-0.21642956137657166,-0.23926007747650146,-0.2085953950881958,0.07244674116373062,-0.888185977935791,-0.122328020632267,0.20963843166828156,0.4472825527191162,-1.3700461387634277,0.8448297381401062,0.7566412091255188,2.974282741546631,1.9161261320114136,0.5916623473167419
1760498220.1511397,0.02,-0.09814657270908356,0.09215901792049408,-0.01718813180923462,-0.07161091268062592,0.004748299717903137,-0.9974213242530823,-0.6637924909591675,0.838921308517456,-0.06286442279815674,0.0795912966132164,0.11462095379829407,0.051700472831726074,-0.03940130025148392,-0.055973172187805176,-0.01205211877822876,-0.18267722427845,-0.006117761135101318,-0.029471158981323242,0.23150572180747986,-0.04609322547912598,0.12870478630065918,0.0,0.0,0.0,0.0,-0.047616537660360336,0.03266734257340431,0.018020929768681526,0.06412016600370407,-0.007435448467731476,-0.11256211996078491,0.010950865224003792,0.03190871700644493,0.005217645317316055,0.029382795095443726,-0.08757945895195007,0.207985520362854,0.11623513698577881,1.159300684928894,0.4982677400112152,0.14101625978946686,-1.3845610618591309,0.036699503660202026,0.2745259702205658,0.16236668825149536,0.04008396714925766,-0.17360056936740875,1.8617959022521973,-0.17021143436431885,0.6548111438751221,-0.006808900274336338,-1.0913307666778564,0.7798110842704773,0.440284788608551,2.8511767387390137,2.1821959018707275,0.45544785261154175
1760498220.2133512,0.02,-0.005193609744310379,0.20434775948524475,-0.01603076234459877,-0.057887330651283264,0.004657255485653877,-0.99831223487854,-0.6637924909591675,0.838921308517456,-0.06208348274230957,0.049032509326934814,0.13153213262557983,0.054320454597473145,-0.005712349899113178,-0.03537172079086304,-0.04791516065597534,-0.1479676067829132,0.015484273433685303,-0.033864617347717285,0.23075373470783234,-0.06622278690338135,0.1820579171180725,0.0,0.0,0.0,0.0,-0.103675976395607,0.04072253033518791,0.004362899344414473,0.07940686494112015,0.06918884813785553,-0.08062590658664703,0.08464062958955765,0.03760839253664017,0.036461178213357925,-0.030884576961398125,-0.0363890640437603,0.09761299937963486,0.043005816638469696,0.5183091163635254,0.30154308676719666,0.09636524319648743,-1.116284966468811,-0.3471887409687042,0.25894343852996826,0.25997495651245117,0.5180809497833252,-0.642937958240509,3.1841018199920654,0.023021794855594635,0.6671887040138245,-0.6239041090011597,-0.5161150097846985,0.7119706273078918,0.14712953567504883,2.3397464752197266,2.0704100131988525,0.3099755048751831
