vaithak/rl_training/csvs/data_obs_m20_6_env_0.csv
timestamp,dt,base_ang_vel_0,base_ang_vel_1,base_ang_vel_2,projected_gravity_0,projected_gravity_1,projected_gravity_2,velocity_commands_0,velocity_commands_1,velocity_commands_2,joint_pos_0,joint_pos_1,joint_pos_2,joint_pos_3,joint_pos_4,joint_pos_5,joint_pos_6,joint_pos_7,joint_pos_8,joint_pos_9,joint_pos_10,joint_pos_11,joint_pos_12,joint_pos_13,joint_pos_14,joint_pos_15,joint_vel_0,joint_vel_1,joint_vel_2,joint_vel_3,joint_vel_4,joint_vel_5,joint_vel_6,joint_vel_7,joint_vel_8,joint_vel_9,joint_vel_10,joint_vel_11,joint_vel_12,joint_vel_13,joint_vel_14,joint_vel_15,actions_0,actions_1,actions_2,actions_3,actions_4,actions_5,actions_6,actions_7,actions_8,actions_9,actions_10,actions_11,actions_12,actions_13,actions_14,actions_15
1760498404.316296,0.02,0.04525633156299591,-0.01723683625459671,-0.15882259607315063,-0.047913193702697754,-0.029727671295404434,-0.9984090328216553,0.6143532991409302,-0.5200525522232056,-0.7032092809677124,-0.10362899303436279,-0.020303666591644287,0.08494484424591064,0.22821849584579468,0.051587462425231934,0.0056915283203125,-0.2969928979873657,0.008456289768218994,0.23503106832504272,0.29259032011032104,-0.06256282329559326,-0.120139479637146,0.0,0.0,0.0,0.0,-0.01993574947118759,-0.03937983512878418,-0.046018701046705246,-0.03594713658094406,-0.023254292085766792,0.1267252117395401,-0.01477446872740984,-0.04040248319506645,-0.05115959793329239,0.002570962766185403,-0.047764718532562256,-0.06780990213155746,-0.061944928020238876,-0.3814093768596649,-0.16710393130779266,0.436229944229126,0.8035205602645874,-0.6477456092834473,-0.06722739338874817,-1.9645609855651855,0.5274308323860168,-0.07040437310934067,1.5234794616699219,-3.684875249862671,0.13067111372947693,-0.7690650224685669,-0.6467769742012024,-0.3672797679901123,-1.117310643196106,-1.4331350326538086,-2.134694814682007,0.8153950572013855
1760498404.3673818,0.02,0.0745229572057724,-0.05838155373930931,-0.14905951917171478,-0.05074543505907059,-0.036487530916929245,-0.9980448484420776,0.6143532991409302,-0.5200525522232056,-0.6969631314277649,-0.11411729454994202,-0.02541452646255493,0.050847530364990234,0.21593979001045227,0.0471949577331543,0.044698476791381836,-0.30249741673469543,-0.017000198364257812,0.22868096828460693,0.29603537917137146,-0.08243626356124878,-0.14523375034332275,0.0,0.0,0.0,0.0,-0.023644108325242996,-0.002655198099091649,-0.10605034977197647,-0.03205561637878418,-0.004461449105292559,0.0783669501543045,-0.01708957925438881,-0.07187380641698837,-0.00828335527330637,0.008426542393863201,-0.0527012012898922,-0.05986706539988518,-0.09544535726308823,-0.39526817202568054,-0.15560266375541687,0.3632696866989136,0.8878054618835449,-0.6422979831695557,-0.07745766639709473,-1.7582569122314453,0.3560839891433716,-0.0387624129652977,0.9733582735061646,-3.2407162189483643,0.3370806872844696,-0.5296212434768677,-0.5679219961166382,-0.26111775636672974,-0.9779435992240906,-1.4759174585342407,-2.1446876525878906,0.5797891020774841
1760498404.417474,0.02,0.048752039670944214,-0.08840660750865936,-0.14573276042938232,-0.05651484429836273,-0.04214588925242424,-0.9975118041038513,0.6143532991409302,-0.5200525522232056,-0.6909067630767822,-0.12106037884950638,-0.024636030197143555,0.010056018829345703,0.20266065001487732,0.04966825246810913,0.06629014015197754,-0.31082072854042053,-0.048280417919158936,0.22971922159194946,0.29932528734207153,-0.0996088981628418,-0.16745233535766602,0.0,0.0,0.0,0.0,-0.011939533054828644,0.001495947944931686,-0.10086508840322495,-0.03597478196024895,0.01058910321444273,0.04266025125980377,-0.022325584664940834,-0.07618442922830582,-0.004616267513483763,0.006701388396322727,-0.03929036483168602,-0.05276639014482498,-0.1966114342212677,-0.4051363468170166,-0.23790805041790009,0.21779529750347137,0.8402326703071594,-0.5918952226638794,-0.1493639349937439,-1.8089723587036133,0.3125430643558502,-0.018144093453884125,0.617713212966919,-2.5934231281280518,0.5247346758842468,-0.21392618119716644,-0.39555609226226807,-0.14375634491443634,-1.143538236618042,-1.5027059316635132,-2.22011661529541,0.1844492405653
1760498404.4781504,0.02,0.03525947406888008,-0.07516312599182129,-0.1356770098209381,-0.062359437346458435,-0.04685866832733154,-0.9969531297683716,0.6143532991409302,-0.5200525522232056,-0.6851478815078735,-0.12276870012283325,-0.023202240467071533,-0.024135351181030273,0.18940411508083344,0.05598640441894531,0.07943189144134521,-0.31735914945602417,-0.07685446739196777,0.23214000463485718,0.30224719643592834,-0.11022600531578064,-0.18460142612457275,0.0,0.0,0.0,0.0,-0.00033492708462290466,0.0019775100518018007,-0.0797596424818039,-0.03555384278297424,0.017946435138583183,0.028644338250160217,-0.018599988892674446,-0.06839074194431305,0.015505708754062653,0.004380537196993828,-0.02186095528304577,-0.03707542642951012,-0.2985801696777344,-0.3959498405456543,-0.24067862331867218,0.06983818113803864,0.8606096506118774,-0.5397089719772339,-0.2544674873352051,-2.198828935623169,0.28300923109054565,0.008178391493856907,0.48912563920021057,-1.9983032941818237,0.8118610382080078,0.09901400655508041,-0.2965172529220581,-0.054296448826789856,-1.4650368690490723,-1.4396032094955444,-2.154675245285034,-0.1523715704679489
1760498404.5331693,0.02,0.028200168162584305,-0.06020071357488632,-0.12687194347381592,-0.06702889502048492,-0.050734058022499084,-0.9964603185653687,0.6143532991409302,-0.5200525522232056,-0.6797780990600586,-0.1190623939037323,-0.024019598960876465,-0.04566735029220581,0.1765974909067154,0.06416517496109009,0.08853483200073242,-0.32215064764022827,-0.10057699680328369,0.24166429042816162,0.3044509291648865,-0.11493203043937683,-0.19653284549713135,0.0,0.0,0.0,0.0,0.014190939255058765,-0.004618674051016569,-0.047970738261938095,-0.03321201726794243,0.021180039271712303,0.01905648224055767,-0.010469110682606697,-0.05043068155646324,0.01654714345932007,0.003233104944229126,-0.007854561321437359,-0.025671450421214104,-0.39636310935020447,-0.3663669526576996,-0.35694554448127747,-0.03597912937402725,1.0256967544555664,-0.52467942237854,-0.3222411572933197,-2.842931032180786,0.2985319197177887,0.021768011152744293,0.3805766999721527,-1.8093023300170898,0.9700530767440796,0.4706803858280182,-0.25529831647872925,-0.04662938416004181,-1.854194164276123,-1.3553166389465332,-2.288485288619995,-0.31391698122024536
1760498404.5898042,0.02,0.03760561719536781,-0.046040426939725876,-0.1205502301454544,-0.0704120472073555,-0.055119555443525314,-0.995993971824646,0.6143532991409302,-0.5200525522232056,-0.6747585535049438,-0.1083255186676979,-0.0297202467918396,-0.05316579341888428,0.16538006067276,0.0718832015991211,0.09663903713226318,-0.323996901512146,-0.1200200617313385,0.2554970979690552,0.3071790635585785,-0.1164940893650055,-0.2047290802001953,0.0,0.0,0.0,0.0,0.03263438120484352,-0.018255220726132393,-0.013691874220967293,-0.02927720546722412,0.019428005442023277,0.018287023529410362,-0.005266064777970314,-0.04362299665808678,0.03409728780388832,0.00524564366787672,-0.0026794930454343557,-0.017820432782173157,-0.4629814326763153,-0.34741517901420593,-0.367562472820282,-0.08593019843101501,1.3186253309249878,-0.5677196979522705,-0.34121716022491455,-3.591984272003174,0.3268952965736389,0.06885150820016861,0.2268780767917633,-1.8731499910354614,1.0783555507659912,0.8853198289871216,-0.28183236718177795,-0.11523105204105377,-2.0529143810272217,-1.2043991088867188,-2.353609323501587,-0.36960846185684204
1760498404.643271,0.02,0.03851400688290596,-0.050477683544158936,-0.12211490422487259,-0.07356340438127518,-0.05963437259197235,-0.9955059885978699,0.6143532991409302,-0.5200525522232056,-0.6698122620582581,-0.0904434397816658,-0.04311650991439819,-0.04716604948043823,0.15469104051589966,0.0784875750541687,0.10410797595977783,-0.32528215646743774,-0.1371878981590271,0.27181631326675415,0.31041082739830017,-0.11663872003555298,-0.2123563289642334,0.0,0.0,0.0,0.0,0.0482373908162117,-0.03828848525881767,0.018731987103819847,-0.02881734073162079,0.016180871054530144,0.01609721966087818,-0.004877353552728891,-0.03962384909391403,0.03511270135641098,0.006977492477744818,0.0003121914342045784,-0.019711297005414963,-0.494870662689209,-0.3317549526691437,-0.41917768120765686,-0.10548137873411179,1.6009643077850342,-0.6250295639038086,-0.3004254400730133,-4.230056285858154,0.34397318959236145,0.10234103351831436,0.08478900790214539,-2.0474112033843994,1.1109596490859985,1.2405612468719482,-0.3122406601905823,-0.2482277899980545,-2.0892913341522217,-1.1314682960510254,-2.5132596492767334,-0.43936842679977417
1760498404.7026284,0.02,0.03382818400859833,-0.058077067136764526,-0.12739479541778564,-0.0772211104631424,-0.06379668414592743,-0.9949707984924316,0.6143532991409302,-0.5200525522232056,-0.6646831035614014,-0.06891737878322601,-0.0620959997177124,-0.03574925661087036,0.14335888624191284,0.08323436975479126,0.11106181144714355,-0.3273867666721344,-0.15356925129890442,0.2868264317512512,0.3138314485549927,-0.11662361025810242,-0.2213045358657837,0.0,0.0,0.0,0.0,0.053310759365558624,-0.049079813063144684,0.025378957390785217,-0.03083724156022072,0.010856939479708672,0.015850195661187172,-0.007473520468920469,-0.03947237506508827,0.031654633581638336,0.007421606220304966,-0.0002883069682866335,-0.023646274581551552,-0.4705970287322998,-0.31441858410835266,-0.45275750756263733,-0.10054750740528107,1.7434642314910889,-0.6229780912399292,-0.24560752511024475,-4.50341272354126,0.3219485580921173,0.14001943171024323,0.00350835919380188,-2.184077262878418,1.1507807970046997,1.4054782390594482,-0.36413681507110596,-0.34531062841415405,-1.923224925994873,-1.0771311521530151,-2.583340883255005,-0.45337504148483276
1760498404.7559383,0.02,0.012583589181303978,-0.056361258029937744,-0.1352604180574417,-0.08100655674934387,-0.06617993116378784,-0.9945140480995178,0.6143532991409302,-0.5200525522232056,-0.6592459082603455,-0.051444005221128464,-0.08095645904541016,-0.028423666954040527,0.12943005561828613,0.08578580617904663,0.1184842586517334,-0.3317185640335083,-0.16942963004112244,0.2996448874473572,0.3156815469264984,-0.117576003074646,-0.23040127754211426,0.0,0.0,0.0,0.0,0.03905511647462845,-0.043773964047431946,0.010285081341862679,-0.037007883191108704,0.004937977530062199,0.019264930859208107,-0.01199382171034813,-0.03797666355967522,0.02755485288798809,0.003656195942312479,-0.0032637373078614473,-0.022552160546183586,-0.4251802861690521,-0.29444947838783264,-0.46506190299987793,-0.08691813796758652,1.6444038152694702,-0.537947416305542,-0.2089935839176178,-4.34485387802124,0.27106973528862,0.1729678362607956,0.010125488042831421,-2.187697410583496,1.1921273469924927,1.3457436561584473,-0.39547163248062134,-0.3543594479560852,-1.7621678113937378,-1.024580955505371,-2.626495122909546,-0.4072641134262085
1760498404.809446,0.02,-0.020137973129749298,-0.04336276277899742,-0.14206324517726898,-0.08408532291650772,-0.06573585420846939,-0.99428790807724,0.6143532991409302,-0.5200525522232056,-0.6535072326660156,-0.04445540904998779,-0.09312522411346436,-0.02962726354598999,0.11179128289222717,0.08629673719406128,0.12740767002105713,-0.33830884099006653,-0.18278658390045166,0.3101755380630493,0.3145712912082672,-0.11996859312057495,-0.23726427555084229,0.0,0.0,0.0,0.0,0.012582572177052498,-0.021778030321002007,-0.011365711688995361,-0.045037027448415756,-9.751886682352051e-05,0.02446770668029785,-0.015786413103342056,-0.02963917888700962,0.024207329377532005,-0.0031504679936915636,-0.006992110516875982,-0.015077980235219002,-0.39292988181114197,-0.27166321873664856,-0.44910749793052673,-0.07602181285619736,1.3829165697097778,-0.4086437523365021,-0.21200120449066162,-3.8786563873291016,0.2119998037815094,0.1911018043756485,0.053855329751968384,-2.0478434562683105,1.2257274389266968,1.090267300605774,-0.3903769850730896,-0.27810078859329224,-1.7892041206359863,-0.9550476670265198,-2.652509927749634,-0.31605374813079834
1760498404.8627572,0.02,-0.04700163006782532,-0.023854101076722145,-0.1475553661584854,-0.08591765910387039,-0.062447577714920044,-0.9943432211875916,0.6143532991409302,-0.5200525522232056,-0.6475141644477844,-0.04945679008960724,-0.09357225894927979,-0.037218689918518066,0.0907348096370697,0.08549880981445312,0.13803529739379883,-0.346248596906662,-0.19088762998580933,0.32000523805618286,0.3105129897594452,-0.12324279546737671,-0.24022698402404785,0.0,0.0,0.0,0.0,-0.0158038679510355,0.011699787341058254,-0.027183253318071365,-0.05105319246649742,-0.002803113078698516,0.029657650738954544,-0.015321898274123669,-0.00851514469832182,0.01647399179637432,-0.008666585199534893,-0.00836669560521841,-0.004041227977722883,-0.3998842239379883,-0.25247007608413696,-0.37059199810028076,-0.07958020269870758,1.0504939556121826,-0.3075813055038452,-0.26398634910583496,-3.287259340286255,0.15076008439064026,0.20204506814479828,0.0637613832950592,-1.8374295234680176,1.2397643327713013,0.7689954042434692,-0.3492918014526367,-0.14466412365436554,-1.9845385551452637,-0.9040355682373047,-2.673212766647339,-0.2542899250984192
1760498404.9221892,0.02,-0.06775863468647003,-0.01745506003499031,-0.16496019065380096,-0.08670983463525772,-0.05758299678564072,-0.9945680499076843,0.6143532991409302,-0.5200525522232056,-0.6410160660743713,-0.06748092174530029,-0.07898801565170288,-0.05551177263259888,0.06724230945110321,0.0859254002571106,0.15006327629089355,-0.35474511981010437,-0.19414356350898743,0.3314467668533325,0.30546092987060547,-0.12565681338310242,-0.23990190029144287,0.0,0.0,0.0,0.0,-0.04821329563856125,0.04775267466902733,-0.0517720989882946,-0.0569341778755188,-0.0013395457062870264,0.03203655034303665,-0.017853833734989166,6.4710526203271e-05,0.018123788759112358,-0.00974569283425808,-0.004888910334557295,0.00175494235008955,-0.4206230640411377,-0.25659307837486267,-0.44560179114341736,-0.09727984666824341,0.6574482917785645,-0.2834036648273468,-0.3937554955482483,-2.6696629524230957,0.06786126643419266,0.2345208376646042,-0.020446091890335083,-1.6804572343826294,1.2449554204940796,0.4197090268135071,-0.28874945640563965,-0.003189757466316223,-2.2431328296661377,-0.9061738848686218,-2.682882070541382,-0.2643101215362549
1760498404.9755542,0.02,-0.09750092029571533,-0.030171141028404236,-0.17338241636753082,-0.08809332549571991,-0.05136821046471596,-0.9947868585586548,0.6143532991409302,-0.5200525522232056,-0.6340059638023376,-0.08881931006908417,-0.05790776014328003,-0.07670426368713379,0.04237215220928192,0.08040010929107666,0.1644754409790039,-0.3636645972728729,-0.1933068335056305,0.33542925119400024,0.3006267249584198,-0.1290251910686493,-0.23785948753356934,0.0,0.0,0.0,0.0,-0.05311158299446106,0.05564337968826294,-0.055002279579639435,-0.06596671789884567,-0.021429384127259254,0.04815440624952316,-0.022196780890226364,0.00628154119476676,0.0019539487548172474,-0.011712201870977879,-0.010475740768015385,0.006744684185832739,-0.48847779631614685,-0.13261379301548004,-0.46094632148742676,-0.096368707716465,0.37462639808654785,-0.2642648220062256,-0.5349032878875732,-1.898113489151001,-0.036941103637218475,0.2847744822502136,-0.16750231385231018,-1.388354778289795,1.2635289430618286,-0.16841761767864227,-0.2764135003089905,0.16772036254405975,-2.3121249675750732,-0.7914770245552063,-2.3756659030914307,-0.17185787856578827
1760498405.0332437,0.02,-0.15839746594429016,-0.03274510055780411,-0.1788323074579239,-0.09009876102209091,-0.04039761424064636,-0.9951131939888,0.6143532991409302,-0.5200525522232056,-0.6267771124839783,-0.1141507551074028,-0.035543203353881836,-0.0982370376586914,0.013465081341564655,0.067501962184906,0.1783003807067871,-0.37667301297187805,-0.18925872445106506,0.33123672008514404,0.2921837866306305,-0.1347612738609314,-0.23166871070861816,0.0,0.0,0.0,0.0,-0.06276955455541611,0.057103242725133896,-0.054223742336034775,-0.07340353727340698,-0.04254266992211342,0.036561232060194016,-0.032402973622083664,0.011565983295440674,-0.013012364506721497,-0.02050110511481762,-0.01659383997321129,0.020634735003113747,-0.5185046792030334,-0.07186160236597061,-0.4595857560634613,-0.116317979991436,-0.11515873670578003,-0.1597587764263153,-0.6693432331085205,-0.7807839512825012,-0.1084478422999382,0.38888904452323914,-0.2708546221256256,-1.098745346069336,1.2388534545898438,-1.1264289617538452,-0.21343617141246796,0.37767452001571655,-2.378885507583618,-0.42469552159309387,-2.161999464035034,-0.08251552283763885
1760498405.0852885,0.02,-0.20469394326210022,-0.01185658574104309,-0.20204679667949677,-0.09135688841342926,-0.02503291331231594,-0.9955035448074341,0.6143532991409302,-0.5200525522232056,-0.6188873648643494,-0.14421342313289642,-0.013260424137115479,-0.12124961614608765,-0.02026105299592018,0.047321200370788574,0.1918036937713623,-0.3904787600040436,-0.17890983819961548,0.3120737075805664,0.2801729142665863,-0.14011019468307495,-0.21821057796478271,0.0,0.0,0.0,0.0,-0.07392558455467224,0.05590495467185974,-0.056856777518987656,-0.08496956527233124,-0.053369130939245224,0.04028564319014549,-0.03049546293914318,0.026286378502845764,-0.045904334634542465,-0.02606189250946045,-0.01357188355177641,0.04540349543094635,-0.5000817179679871,0.027590645477175713,-0.4219965934753418,-0.18084405362606049,-0.9212177395820618,0.09126439690589905,-0.865088701248169,0.7877265810966492,-0.16606807708740234,0.5896613597869873,-0.3193211853504181,-0.6210686564445496,1.1458269357681274,-2.4528658390045166,-0.07519502937793732,0.6240033507347107,-2.180199384689331,0.01748787984251976,-1.7597291469573975,-0.040079161524772644
1760498405.1420975,0.02,-0.22147652506828308,0.013494446873664856,-0.21596139669418335,-0.09103929996490479,-0.007878623902797699,-0.9958161115646362,0.6143532991409302,-0.5200525522232056,-0.6102973818778992,-0.1771739423274994,0.010129988193511963,-0.15022879838943481,-0.05215178057551384,0.028434157371520996,0.1990199089050293,-0.40015190839767456,-0.1605149507522583,0.2810051441192627,0.26606184244155884,-0.1416354477405548,-0.19687998294830322,0.0,0.0,0.0,0.0,-0.08000927418470383,0.05962240323424339,-0.07377531379461288,-0.06838588416576385,-0.04310383275151253,0.010269525460898876,-0.01736466772854328,0.04847564920783043,-0.07088634371757507,-0.02968192659318447,-0.0035849527921527624,0.06916686147451401,-0.4462033212184906,0.0985158160328865,-0.36524444818496704,-0.2750072777271271,-1.276194453239441,0.4601428210735321,-1.0477200746536255,1.8274524211883545,-0.19902348518371582,0.7008476853370667,-0.32252004742622375,-0.1046433225274086,1.0284463167190552,-3.895866870880127,0.021802231669425964,0.748159646987915,-1.7650485038757324,0.37363722920417786,-1.4520829916000366,-0.2554472088813782
1760498405.196512,0.02,-0.21875426173210144,0.04782824218273163,-0.2117324024438858,-0.08852164447307587,0.009331244975328445,-0.9960305690765381,0.6143532991409302,-0.5200525522232056,-0.601601243019104,-0.2112957388162613,0.03558844327926636,-0.18515145778656006,-0.07413822412490845,0.015176236629486084,0.19516515731811523,-0.40366604924201965,-0.13447856903076172,0.24615353345870972,0.24999846518039703,-0.13874933123588562,-0.16902756690979004,0.0,0.0,0.0,0.0,-0.08274320513010025,0.06568723171949387,-0.08819448202848434,-0.04018641263246536,-0.028779754415154457,-0.016582796350121498,-0.0015446030301973224,0.06796641647815704,-0.07741700112819672,-0.03429825231432915,0.005926013924181461,0.08625146001577377,-0.38724076747894287,0.11068656295537949,-0.3431119918823242,-0.3512509763240814,-1.2261813879013062,0.7156277894973755,-1.1661561727523804,2.1287124156951904,-0.16768306493759155,0.7599465847015381,-0.26166343688964844,0.14748415350914001,0.8790622353553772,-4.948670864105225,0.004132390022277832,0.7359738945960999,-1.3815817832946777,0.4781228005886078,-1.2965378761291504,-0.5436305403709412
1760498405.2513433,0.02,-0.20195099711418152,0.09068912267684937,-0.19356782734394073,-0.08301505446434021,0.025125369429588318,-0.9962314963340759,0.6143532991409302,-0.5200525522232056,-0.5934226512908936,-0.24498501420021057,0.06189221143722534,-0.22022539377212524,-0.08310824632644653,0.007493555545806885,0.1846383810043335,-0.4020427465438843,-0.10507380962371826,0.21882480382919312,0.23229096829891205,-0.13362878561019897,-0.1377049684524536,0.0,0.0,0.0,0.0,-0.08263267576694489,0.06419595330953598,-0.0792577937245369,-0.009139606729149818,-0.01652267575263977,-0.024592015892267227,0.008588693104684353,0.0744544044137001,-0.056225378066301346,-0.04324088618159294,0.012331987731158733,0.0836585983633995,-0.3510690927505493,0.1015666052699089,-0.35301706194877625,-0.32870304584503174,-1.1670085191726685,0.7983102798461914,-1.2516354322433472,2.087817430496216,-0.06725727766752243,0.7961556315422058,-0.3300885856151581,0.15969425439834595,0.794933557510376,-5.343172550201416,-0.06991618871688843,0.651668131351471,-1.1695880889892578,0.4099287688732147,-1.298614263534546,-0.5558367371559143
1760498405.3054984,0.02,-0.15824684500694275,0.12098836898803711,-0.1748342514038086,-0.07486234605312347,0.037852682173252106,-0.9964751601219177,0.6143532991409302,-0.5200525522232056,-0.5859102606773376,-0.2766088843345642,0.08821552991867065,-0.2531224489212036,-0.07893964648246765,0.004209935665130615,0.17425894737243652,-0.39486438035964966,-0.07356768846511841,0.19777286052703857,0.21459701657295227,-0.12781736254692078,-0.10799908638000488,0.0,0.0,0.0,0.0,-0.07691898196935654,0.0635216161608696,-0.07306049019098282,0.02164718136191368,-0.006271020509302616,-0.019993571564555168,0.021833283826708794,0.07907578349113464,-0.04440983757376671,-0.04146226495504379,0.010320108383893967,0.08322666585445404,-0.32411709427833557,0.08617492020130157,-0.37156936526298523,-0.2875944972038269,-1.1261519193649292,0.8051537275314331,-1.3598889112472534,1.9851267337799072,0.02261943370103836,0.7853951454162598,-0.3143542408943176,0.17609229683876038,0.7100148797035217,-5.378503322601318,-0.15717346966266632,0.5985106825828552,-1.1313259601593018,0.2999691665172577,-1.3785921335220337,-0.48390787839889526
1760498405.3600695,0.02,-0.10065601021051407,0.1278250813484192,-0.1658485382795334,-0.06565211713314056,0.04643827676773071,-0.9967613816261292,0.6143532991409302,-0.5200525522232056,-0.5788295269012451,-0.30521249771118164,0.11619704961776733,-0.2890927791595459,-0.06336386501789093,0.007220745086669922,0.1606684923171997,-0.3818485736846924,-0.040915489196777344,0.17818862199783325,0.19908037781715393,-0.12191572785377502,-0.08375966548919678,0.0,0.0,0.0,0.0,-0.06858494132757187,0.06868913769721985,-0.08439154177904129,0.04774203523993492,0.010287380777299404,-0.030182382091879845,0.03593936190009117,0.08059491962194443,-0.04404771327972412,-0.03190956637263298,0.009783774614334106,0.06681276112794876,-0.3005438446998596,0.06821685284376144,-0.3819137513637543,-0.25346168875694275,-1.1045212745666504,0.8205137252807617,-1.5122653245925903,1.886376976966858,0.10880512744188309,0.7330325841903687,-0.2259412705898285,0.21128860116004944,0.6130067110061646,-5.262773036956787,-0.2128986418247223,0.5688312649726868,-1.1802523136138916,0.229959636926651,-1.427405834197998,-0.4040711522102356
1760498405.4113426,0.02,-0.05311650410294533,0.1356443613767624,-0.1582999974489212,-0.056032560765743256,0.051320262253284454,-0.9971091151237488,0.6143532991409302,-0.5200525522232056,-0.5720397233963013,-0.3312760293483734,0.14699184894561768,-0.32999569177627563,-0.039416082203388214,0.017972886562347412,0.13998448848724365,-0.36410173773765564,-0.007938623428344727,0.1580633521080017,0.18575485050678253,-0.11556380987167358,-0.06672275066375732,0.0,0.0,0.0,0.0,-0.06220371276140213,0.07527816295623779,-0.0940144807100296,0.06606543809175491,0.02824701927602291,-0.04426785558462143,0.04733993113040924,0.08088123053312302,-0.0454738512635231,-0.026909708976745605,0.012341211549937725,0.04713667556643486,-0.29706257581710815,0.056461215019226074,-0.3887544870376587,-0.19822627305984497,-1.043173909187317,0.8699833154678345,-1.6428840160369873,1.808034896850586,0.17628324031829834,0.6359071731567383,-0.06989660859107971,0.28356102108955383,0.5147716999053955,-5.125256061553955,-0.2685924470424652,0.5551454424858093,-1.2476447820663452,0.25323745608329773,-1.4583733081817627,-0.38681626319885254
1760498405.4660952,0.02,-0.03349868953227997,0.1458652913570404,-0.14362573623657227,-0.04556254670023918,0.0537206307053566,-0.9975159764289856,0.6143532991409302,-0.5200525522232056,-0.5656667947769165,-0.35565173625946045,0.17964547872543335,-0.37079185247421265,-0.01121435221284628,0.03363513946533203,0.11746764183044434,-0.34262987971305847,0.025855720043182373,0.1354694366455078,0.17359262704849243,-0.10857248306274414,-0.0558469295501709,0.0,0.0,0.0,0.0,-0.06029282882809639,0.07986543327569962,-0.09271424263715744,0.06757216900587082,0.027426499873399734,-0.019568659365177155,0.05380549654364586,0.08311636745929718,-0.05300610885024071,-0.027979044243693352,0.014095814898610115,0.03016362152993679,-0.32141485810279846,0.09605575352907181,-0.40239086747169495,-0.15461286902427673,-0.9306044578552246,0.9061095714569092,-1.749487280845642,1.688873529434204,0.23725277185440063,0.4872514307498932,0.11924085021018982,0.36248549818992615,0.3887573778629303,-4.906651496887207,-0.3357503414154053,0.549091100692749,-1.4207202196121216,0.31762245297431946,-1.5264922380447388,-0.4488399624824524
1760498405.5211751,0.02,-0.029561005532741547,0.1383911669254303,-0.11937176436185837,-0.03534067049622536,0.05577508732676506,-0.9978176951408386,0.6143532991409302,-0.5200525522232056,-0.5600810050964355,-0.37924376130104065,0.2143249213695526,-0.4117457866668701,0.013559839688241482,0.04664057493209839,0.10930681228637695,-0.31938883662223816,0.06063127517700195,0.1072121262550354,0.1608305275440216,-0.10182583332061768,-0.05046689510345459,0.0,0.0,0.0,0.0,-0.05782926082611084,0.08743137866258621,-0.09725343436002731,0.060463327914476395,0.03336341306567192,-0.016215264797210693,0.057903338223695755,0.08514992147684097,-0.06736775487661362,-0.030873874202370644,0.014176959171891212,0.014822299592196941,-0.3454098701477051,0.08522570878267288,-0.4403737187385559,-0.12534154951572418,-0.8156993389129639,0.9357086420059204,-1.8592787981033325,1.426675796508789,0.3681448698043823,0.3386094272136688,0.3127589821815491,0.38862454891204834,0.21279321610927582,-4.529483795166016,-0.35826948285102844,0.5367811918258667,-1.640907883644104,0.4354206621646881,-1.7106201648712158,-0.5184376835823059
1760498405.5707994,0.02,0.0008341670036315918,0.11351348459720612,-0.07813846319913864,-0.02621813304722309,0.05556986480951309,-0.9981105327606201,0.6143532991409302,-0.5200525522232056,-0.5559089183807373,-0.3973125219345093,0.24840199947357178,-0.44717860221862793,0.03437911719083786,0.05895441770553589,0.10667788982391357,-0.29389241337776184,0.0935903787612915,0.0784001350402832,0.1499572992324829,-0.09451937675476074,-0.05137944221496582,0.0,0.0,0.0,0.0,-0.036795876920223236,0.0815877839922905,-0.08152803033590317,0.045478831976652145,0.026579195633530617,0.0007165108108893037,0.061961036175489426,0.07872097939252853,-0.06740542501211166,-0.026631373912096024,0.016529610380530357,-0.004153565037995577,-0.415922611951828,0.004609377589076757,-0.519568681716919,-0.11822819709777832,-0.439378023147583,0.8744741678237915,-1.9136682748794556,0.3660282790660858,0.5267852544784546,0.15741680562496185,0.5189089775085449,0.2781841456890106,0.072752445936203,-3.6203677654266357,-0.2502400875091553,0.5341339707374573,-1.807706594467163,0.2659381330013275,-2.119295120239258,-0.4840991497039795
1760498405.6260338,0.02,0.07520202547311783,-0.02573232352733612,-0.043248288333415985,-0.02434990555047989,0.04896727204322815,-0.9985035061836243,0.6143532991409302,-0.5200525522232056,-0.5535506010055542,-0.3888729512691498,0.25617554783821106,-0.4356846213340759,0.04063303396105766,0.061349451541900635,0.11336719989776611,-0.26762890815734863,0.11676621437072754,0.054682374000549316,0.146568164229393,-0.08886820077896118,-0.06729543209075928,0.0,0.0,0.0,0.0,0.032597754150629044,0.00020594355009961873,0.04826056584715843,-0.009373584762215614,-0.003104047616943717,0.03352847695350647,0.05567255616188049,0.04694106802344322,-0.05526315048336983,-0.008772593922913074,0.009415416978299618,-0.05226028710603714,-0.488025426864624,0.07004427909851074,-0.5850831270217896,-0.0841832086443901,0.6047204732894897,0.5020362138748169,-1.8279298543930054,-2.427550792694092,0.7725568413734436,-0.12981072068214417,0.626265287399292,-0.19278642535209656,-0.015987027436494827,-1.6794319152832031,-0.05414825677871704,0.42665988206863403,-2.052361488342285,-0.009402547962963581,-2.714036703109741,-0.013293251395225525
1760498405.6828587,0.02,0.26302146911621094,-0.22193816304206848,0.004983504302799702,-0.03533289581537247,0.028092123568058014,-0.998980700969696,0.6143532991409302,-0.5200525522232056,-0.5533381700515747,-0.3166986405849457,0.19582179188728333,-0.29650747776031494,0.051086414605379105,0.06461083889007568,0.09855794906616211,-0.24936974048614502,0.11082494258880615,0.07108813524246216,0.15930016338825226,-0.08340460062026978,-0.1082543134689331,0.0,0.0,0.0,0.0,0.2360066920518875,-0.16273783147335052,0.33207476139068604,0.03253380209207535,-0.02120596542954445,0.0020927400328218937,0.03338094428181648,-0.025630032643675804,0.04206937178969383,0.034404207020998,0.008809412829577923,-0.12152917683124542,-0.4742772579193115,-0.3253820240497589,-0.4152052104473114,-0.02252563089132309,1.9645887613296509,-0.42501023411750793,-1.2071826457977295,-6.4966936111450195,1.257647156715393,-0.2275441735982895,0.4301728308200836,-1.6850868463516235,0.25688427686691284,0.9433181285858154,0.11868584156036377,-0.18353886902332306,-2.0547842979431152,-0.040026817470788956,-2.9380698204040527,0.525029718875885
1760498405.735294,0.02,0.23467984795570374,-0.161344975233078,-0.04305937886238098,-0.04924093559384346,0.007859330624341965,-0.9987559914588928,0.6143532991409302,-0.5200525522232056,-0.5526076555252075,-0.206503763794899,0.10028484463691711,-0.100669264793396,0.05133741721510887,0.07782721519470215,0.0840613842010498,-0.23708616197109222,0.09751838445663452,0.0893372893333435,0.17222552001476288,-0.0744025707244873,-0.1514037847518921,0.0,0.0,0.0,0.0,0.288105845451355,-0.21466262638568878,0.41041117906570435,-0.01390331145375967,0.047200269997119904,-0.022028334438800812,0.02779821865260601,-0.03274686262011528,0.03703244775533676,0.02864133194088936,0.027737697586417198,-0.09275583177804947,-0.3419261574745178,-0.36272934079170227,-0.33577078580856323,0.023212021216750145,0.9447829723358154,-1.0173784494400024,-0.5156698226928711,-7.507118225097656,1.046873688697815,0.26029813289642334,1.079908847808838,-2.5758955478668213,0.5113764405250549,2.0402896404266357,0.08709336817264557,-0.4612405300140381,-1.555097222328186,-1.1655865907669067,-2.008542776107788,0.5226090550422668
1760498405.7910311,0.02,0.14565664529800415,-0.12669403851032257,-0.1025175005197525,-0.06001977622509003,-0.0072181932628154755,-0.9981710910797119,0.6143532991409302,-0.5200525522232056,-0.549451470375061,-0.09162697196006775,0.02760714292526245,0.01585996150970459,0.029177311807870865,0.09597039222717285,0.08801460266113281,-0.230355903506279,0.07959187030792236,0.10215657949447632,0.18134386837482452,-0.07359111309051514,-0.18162357807159424,0.0,0.0,0.0,0.0,0.27794381976127625,-0.14414097368717194,0.17387263476848602,-0.08080141991376877,0.04685858637094498,0.01818753033876419,0.009179606102406979,-0.046850450336933136,0.02099808119237423,0.015197302214801311,-0.011071676388382912,-0.06494716554880142,-0.23748603463172913,-0.42491546273231506,-0.22843416035175323,-0.008955511264503002,0.7128255367279053,-1.0105549097061157,-0.1487581729888916,-6.245886325836182,0.5462040305137634,0.2500501275062561,0.7837376594543457,-3.3224968910217285,0.3654353618621826,2.4088141918182373,-0.33391350507736206,-0.42241281270980835,-1.0982985496520996,-1.624945044517517,-1.9390963315963745,0.4744223952293396
1760498405.8449483,0.02,0.019464246928691864,-0.10786769539117813,-0.1537109613418579,-0.068939208984375,-0.011914730072021484,-0.9975497126579285,0.6143532991409302,-0.5200525522232056,-0.5441142320632935,2.7495181711856276e-05,-0.025960266590118408,0.06704127788543701,-0.004022191744297743,0.11609074473381042,0.08839309215545654,-0.23833386600017548,0.05319410562515259,0.1151990294456482,0.18070735037326813,-0.08380699157714844,-0.1986449956893921,0.0,0.0,0.0,0.0,0.1896233856678009,-0.12596620619297028,0.09905719757080078,-0.07731328904628754,0.048591747879981995,-0.0017798896878957748,-0.02985636703670025,-0.0744151920080185,0.03051873855292797,-0.008388119749724865,-0.029511703178286552,-0.03859957680106163,-0.17532408237457275,-0.43251967430114746,-0.30516132712364197,0.03209952637553215,0.6857064962387085,-0.8468719720840454,0.13671839237213135,-4.04232931137085,0.26228615641593933,0.04107791930437088,-0.12685459852218628,-3.5706191062927246,0.16347000002861023,2.4269793033599854,-0.4472115635871887,-0.2849110960960388,-0.8071417808532715,-1.7557333707809448,-2.5740721225738525,-0.12726567685604095
1760498405.904293,0.02,0.06242195516824722,-0.08655998110771179,-0.20342615246772766,-0.07614948600530624,-0.01614789478480816,-0.9969656467437744,0.6143532991409302,-0.5200525522232056,-0.5366343259811401,0.038994014263153076,-0.06133127212524414,0.07246780395507812,-0.030800797045230865,0.1239556074142456,0.09014773368835449,-0.24963876605033875,0.017152726650238037,0.13552385568618774,0.18065369129180908,-0.09815257787704468,-0.2079174518585205,0.0,0.0,0.0,0.0,0.06053139641880989,-0.0637316033244133,-0.047864269465208054,-0.057969432324171066,0.004092832561582327,0.00775103410705924,-0.022891780361533165,-0.09632398933172226,0.05164141207933426,0.0033916370011866093,-0.035719968378543854,-0.025839030742645264,-0.17713701725006104,-0.35112807154655457,-0.3819558620452881,0.03386351838707924,0.32673245668411255,-0.6301782131195068,0.043321654200553894,-1.6425504684448242,-0.20810061693191528,0.08619914203882217,-0.3195420801639557,-2.743483781814575,0.3657463490962982,1.2636137008666992,-0.5846816897392273,-0.10955671966075897,-0.8588685989379883,-1.4459583759307861,-2.6669437885284424,-0.5843915343284607
1760498405.9602606,0.02,0.04334302246570587,-0.006265796720981598,-0.20655407011508942,-0.07860851287841797,-0.019829273223876953,-0.996708333492279,0.6143532991409302,-0.5200525522232056,-0.5281956195831299,0.0247633196413517,-0.06223636865615845,0.019288301467895508,-0.0569901168346405,0.10664254426956177,0.11442887783050537,-0.2592943608760834,-0.018603801727294922,0.16386419534683228,0.17905746400356293,-0.10880902409553528,-0.20991218090057373,0.0,0.0,0.0,0.0,-0.04768770560622215,0.019814977422356606,-0.1412939876317978,-0.05766100436449051,-0.062173016369342804,0.07232077419757843,-0.015454180538654327,-0.08151121437549591,0.07140341401100159,-0.0022054892033338547,-0.021040046587586403,0.0002007123111980036,-0.037246085703372955,-0.2896886467933655,-0.3952285051345825,-0.06455054879188538,-0.2863255441188812,-0.32738110423088074,-0.22991907596588135,0.6625401377677917,-0.4049498438835144,0.3487924039363861,-0.5574023723602295,-1.1564233303070068,0.8702022433280945,-0.7703191637992859,-0.48561590909957886,0.06330214440822601,-0.9729347229003906,-0.9223370552062988,-2.117464780807495,-0.9437630772590637
1760498406.0183303,0.02,-0.0628829151391983,0.009533777832984924,-0.1847415566444397,-0.07804238796234131,-0.017758972942829132,-0.9967918395996094,0.6143532991409302,-0.5200525522232056,-0.5204375982284546,-0.0013743696035817266,-0.05430018901824951,-0.02423936128616333,-0.07966312021017075,0.07598930597305298,0.13586771488189697,-0.2695109248161316,-0.04471790790557861,0.18899619579315186,0.170197993516922,-0.11304914951324463,-0.20638608932495117,0.0,0.0,0.0,0.0,-0.06813176721334457,0.020838916301727295,-0.09949494898319244,-0.0483035184442997,-0.08198276162147522,0.04001215472817421,-0.026393894106149673,-0.05781322717666626,0.05931098014116287,-0.027782175689935684,-0.00506007531657815,0.010882259346544743,-0.1627662181854248,-0.23932300508022308,-0.3644257187843323,-0.1953342705965042,-0.37349939346313477,0.03470626473426819,-0.5800987482070923,1.8927850723266602,-0.30272358655929565,0.5086939930915833,-0.6646789312362671,-0.23966965079307556,0.9521200656890869,-2.9434988498687744,-0.3338870108127594,0.31839239597320557,-0.7440873980522156,-0.7186301350593567,-1.6340583562850952,-1.3157802820205688
1760498406.073854,0.02,-0.15662826597690582,0.025783538818359375,-0.1704072803258896,-0.07676498591899872,-0.007007017731666565,-0.9970245957374573,0.6143532991409302,-0.5200525522232056,-0.5133273601531982,-0.035387374460697174,-0.04178732633590698,-0.06323564052581787,-0.09743760526180267,0.04706078767776489,0.1352912187576294,-0.280362069606781,-0.05644017457962036,0.19487500190734863,0.1513342410326004,-0.11041748523712158,-0.19725501537322998,0.0,0.0,0.0,0.0,-0.08594118803739548,0.03660626336932182,-0.0948949083685875,-0.033098239451646805,-0.07062184065580368,-0.008004268631339073,-0.021158119663596153,-0.01854461431503296,0.007100302260369062,-0.05039110779762268,0.012794909067451954,0.028677767142653465,-0.24342277646064758,-0.20019030570983887,-0.32071858644485474,-0.3400111496448517,-0.4629828929901123,0.3747669756412506,-0.7813963890075684,2.028095006942749,-0.1343613862991333,0.5712321400642395,-0.2994510233402252,0.0946458950638771,0.8665027022361755,-4.41342306137085,-0.1601245105266571,0.5020755529403687,-1.0393259525299072,-0.5268314480781555,-1.3607008457183838,-1.5345447063446045
1760498406.1355507,0.02,-0.17623275518417358,0.05864466726779938,-0.15534216165542603,-0.07348842918872833,0.0065883733332157135,-0.9972742795944214,0.6143532991409302,-0.5200525522232056,-0.5067729949951172,-0.07183098793029785,-0.023670732975006104,-0.10082745552062988,-0.10524535924196243,0.02284795045852661,0.12499582767486572,-0.2851516604423523,-0.05621570348739624,0.1871761679649353,0.1281587779521942,-0.10386720299720764,-0.18105554580688477,0.0,0.0,0.0,0.0,-0.08940691500902176,0.048949819058179855,-0.0887456089258194,-0.00724077969789505,-0.05867433547973633,-0.019155634567141533,-0.004323003813624382,0.007255546282976866,-0.020080145448446274,-0.057982832193374634,0.017658978700637817,0.04865551367402077,-0.29259559512138367,-0.16325198113918304,-0.2950051724910736,-0.40645381808280945,-0.4771495461463928,0.44557490944862366,-0.897680401802063,1.879565954208374,-0.040952734649181366,0.5821225643157959,-0.15811818838119507,0.10659050196409225,0.7422279715538025,-4.837348461151123,-0.14691203832626343,0.5713821649551392,-1.2303197383880615,-0.3799353837966919,-1.1552655696868896,-1.4948372840881348
1760498406.1905692,0.02,-0.1493729054927826,0.09708979725837708,-0.14381228387355804,-0.06739780306816101,0.018677938729524612,-0.9975513219833374,0.6143532991409302,-0.5200525522232056,-0.5007145404815674,-0.10654006898403168,-0.002382338047027588,-0.1356770396232605,-0.10054555535316467,0.00498354434967041,0.11308562755584717,-0.2810682952404022,-0.04835355281829834,0.17301154136657715,0.10519104450941086,-0.09730547666549683,-0.15894722938537598,0.0,0.0,0.0,0.0,-0.084120973944664,0.053668003529310226,-0.07864901423454285,0.023071028292179108,-0.040401339530944824,-0.02080581709742546,0.017450697720050812,0.023669756948947906,-0.03339974954724312,-0.05591315031051636,0.015244187787175179,0.06182970479130745,-0.3075304925441742,-0.1339319795370102,-0.28908249735832214,-0.4011976718902588,-0.4936906099319458,0.4513916075229645,-0.9708274602890015,1.7381505966186523,0.038742609322071075,0.5573322772979736,-0.17638567090034485,0.12509837746620178,0.6351966261863708,-4.624276161193848,-0.15401312708854675,0.588409423828125,-1.2701188325881958,-0.30519893765449524,-1.0800166130065918,-1.2653056383132935
1760498406.2491944,0.02,-0.10321296751499176,0.13614191114902496,-0.1376177966594696,-0.05825795978307724,0.027342135086655617,-0.9979270696640015,0.6143532991409302,-0.5200525522232056,-0.494917631149292,-0.1378413736820221,0.01926964521408081,-0.1650789976119995,-0.08347661793231964,-0.00498586893081665,0.10132622718811035,-0.2674599885940552,-0.034878551959991455,0.15462279319763184,0.08492890745401382,-0.09199017286300659,-0.13324463367462158,0.0,0.0,0.0,0.0,-0.07550548017024994,0.05182896926999092,-0.061643581837415695,0.05219317227602005,-0.019829249009490013,-0.021063951775431633,0.04017902910709381,0.03634297102689743,-0.0429309606552124,-0.04856271296739578,0.011883185245096684,0.06831005960702896,-0.31218263506889343,-0.11438055336475372,-0.2887896001338959,-0.36661943793296814,-0.5268240571022034,0.49826177954673767,-1.0162160396575928,1.6959751844406128,0.05843491107225418,0.5059657692909241,-0.19253811240196228,0.197569340467453,0.5238991975784302,-4.194151401519775,-0.1729811728000641,0.6046759486198425,-1.2445483207702637,-0.28839126229286194,-1.0648837089538574,-1.0840123891830444
1760498406.3051713,0.02,-0.0495467409491539,0.16467341780662537,-0.13519728183746338,-0.04658426716923714,0.03192347660660744,-0.9984041452407837,0.6143532991409302,-0.5200525522232056,-0.4892144203186035,-0.16524991393089294,0.039934396743774414,-0.18814271688461304,-0.055433157831430435,-0.006188809871673584,0.08639037609100342,-0.24483591318130493,-0.017089128494262695,0.13264507055282593,0.06848151981830597,-0.08788281679153442,-0.107086181640625,0.0,0.0,0.0,0.0,-0.06577418744564056,0.04839946702122688,-0.045604314655065536,0.07746022194623947,0.0013664194848388433,-0.03146590292453766,0.06159226968884468,0.045766379684209824,-0.051308274269104004,-0.038687992841005325,0.00933427270501852,0.06602609157562256,-0.3198959529399872,-0.10867245495319366,-0.2890463173389435,-0.3150614798069,-0.5474222302436829,0.5828570127487183,-1.0632729530334473,1.731438159942627,0.04983637481927872,0.4231376647949219,-0.2010309398174286,0.30673280358314514,0.40180203318595886,-3.705082416534424,-0.23514172434806824,0.5963889956474304,-1.263063907623291,-0.3367047607898712,-1.0702288150787354,-1.0152548551559448
1760498406.36504,0.02,0.009107425808906555,0.1786474734544754,-0.13433705270290375,-0.03342518210411072,0.03206270560622215,-0.9989268183708191,0.6143532991409302,-0.5200525522232056,-0.48355531692504883,-0.18843969702720642,0.06005823612213135,-0.20653164386749268,-0.018456095829606056,0.0018164515495300293,0.06213223934173584,-0.21463653445243835,0.0030219554901123047,0.1092756986618042,0.05636138841509819,-0.08413869142532349,-0.08405649662017822,0.0,0.0,0.0,0.0,-0.0549580454826355,0.04749169573187828,-0.03505653142929077,0.09705516695976257,0.02201872691512108,-0.05492381379008293,0.0791098102927208,0.04995746910572052,-0.05322319269180298,-0.027643907815217972,0.009695016779005527,0.054774630814790726,-0.3411341905593872,-0.11568408459424973,-0.2887353003025055,-0.2625638246536255,-0.5212882161140442,0.6922519207000732,-1.1130034923553467,1.7687702178955078,0.05459073930978775,0.2947649359703064,-0.17081600427627563,0.42711174488067627,0.3013294041156769,-3.2355427742004395,-0.30868151783943176,0.553598165512085,-1.3553645610809326,-0.40444567799568176,-1.0744249820709229,-1.0541393756866455
1760498406.4183197,0.02,0.06624448299407959,0.18477800488471985,-0.13313424587249756,-0.019564948976039886,0.02792118862271309,-0.9994186162948608,0.6143532991409302,-0.5200525522232056,-0.4779778718948364,-0.20766904950141907,0.08003658056259155,-0.22188591957092285,0.024110250174999237,0.017799198627471924,0.02655959129333496,-0.17923690378665924,0.023491084575653076,0.08769440650939941,0.04830702021718025,-0.079831063747406,-0.06679511070251465,0.0,0.0,0.0,0.0,-0.04508260264992714,0.04703142121434212,-0.028689146041870117,0.10790512710809708,0.03798079118132591,-0.07764660567045212,0.09082325547933578,0.04972464218735695,-0.0469866506755352,-0.01741291955113411,0.01183770876377821,0.03791196271777153,-0.3629284203052521,-0.12923835217952728,-0.27593204379081726,-0.21696077287197113,-0.43476831912994385,0.7883903980255127,-1.1523898839950562,1.716827154159546,0.1034725084900856,0.13083462417125702,-0.07015013694763184,0.5498174428939819,0.2411673218011856,-2.839571714401245,-0.38121604919433594,0.4935832619667053,-1.4320553541183472,-0.4555239975452423,-1.0220036506652832,-1.1354353427886963
1760498406.480406,0.02,0.10033635795116425,0.1816965937614441,-0.1297142505645752,-0.0052460236474871635,0.01940956525504589,-0.9997978806495667,0.6143532991409302,-0.5200525522232056,-0.4724949598312378,-0.22308024764060974,0.09986591339111328,-0.23547476530075073,0.0678459107875824,0.03656625747680664,-0.011087954044342041,-0.14077481627464294,0.042447686195373535,0.07124865055084229,0.044211119413375854,-0.07442045211791992,-0.05656003952026367,0.0,0.0,0.0,0.0,-0.03990563377737999,0.04690564051270485,-0.028486261144280434,0.09187429398298264,0.0017717228038236499,0.012884062714874744,0.09148778766393661,0.045139629393815994,-0.03593556582927704,-0.01239029597491026,0.013144931755959988,0.01994815655052662,-0.37660834193229675,-0.20777972042560577,-0.24721305072307587,-0.17799867689609528,-0.25996822118759155,0.8709441423416138,-1.1857603788375854,1.4598487615585327,0.18339091539382935,-0.045924656093120575,0.02415481209754944,0.6248557567596436,0.21853946149349213,-2.4112398624420166,-0.42219942808151245,0.451744019985199,-1.4981422424316406,-0.46364882588386536,-0.9041829705238342,-1.160719394683838
1760498406.535309,0.02,0.09391893446445465,0.1143876165151596,-0.1059485599398613,0.0054434482008218765,0.011141657829284668,-0.9999231100082397,0.6143532991409302,-0.5200525522232056,-0.4677313566207886,-0.23786579072475433,0.12388017773628235,-0.26273250579833984,0.09625592827796936,0.035190045833587646,-0.006938934326171875,-0.10828320682048798,0.056816041469573975,0.059366822242736816,0.039008207619190216,-0.07044166326522827,-0.055436134338378906,0.0,0.0,0.0,0.0,-0.03711077943444252,0.06555037945508957,-0.0820988342165947,0.05746107175946236,-0.00782374944537878,0.012641078792512417,0.07284405082464218,0.03154569864273071,-0.025231948122382164,-0.01593189127743244,0.008210518397390842,-0.005109517835080624,-0.36242446303367615,-0.21264266967773438,-0.2623596787452698,-0.15545128285884857,0.07929104566574097,0.8584365844726562,-1.2571035623550415,0.653407096862793,0.31716641783714294,-0.22596605122089386,-0.006469070911407471,0.5753524303436279,0.252834290266037,-1.6977365016937256,-0.3870525360107422,0.38364124298095703,-1.6040195226669312,-0.7333663702011108,-0.9321468472480774,-1.1155658960342407
1760498406.5935242,0.02,0.12103684991598129,0.010429561138153076,-0.048720624297857285,0.009242435917258263,0.001142249908298254,-0.9999566078186035,0.6143532991409302,-0.5200525522232056,-0.46484673023223877,-0.2410830557346344,0.1460776925086975,-0.29398220777511597,0.10624361038208008,0.023236751556396484,0.007237553596496582,-0.08654897660017014,0.062088072299957275,0.056803882122039795,0.0348559133708477,-0.06815332174301147,-0.06895864009857178,0.0,0.0,0.0,0.0,0.008449960500001907,0.045358095318078995,-0.06427543610334396,0.0059277513064444065,-0.03818882629275322,0.036797914654016495,0.040847938507795334,0.005777745041996241,-0.0011327023385092616,-0.011640170589089394,0.003273146925494075,-0.047658827155828476,-0.3558407127857208,-0.2559747099876404,-0.3328129053115845,-0.13140510022640228,0.7769874334335327,0.5219169855117798,-1.219046711921692,-1.5607224702835083,0.48725593090057373,-0.41598573327064514,-0.24462616443634033,0.2166089117527008,0.3569386601448059,-0.025233663618564606,-0.26720672845840454,0.16241656243801117,-1.4844074249267578,-0.9028721451759338,-1.3127002716064453,-0.8857609629631042
1760498406.648556,0.02,0.18444420397281647,-0.10444247722625732,-0.017321370542049408,0.004481243435293436,-0.014573752880096436,-0.999883770942688,0.6143532991409302,-0.5200525522232056,-0.4637678861618042,-0.20390567183494568,0.12871283292770386,-0.253523051738739,0.10616365820169449,0.0058956146240234375,0.02889430522918701,-0.07854138314723969,0.05485647916793823,0.06411761045455933,0.03898771107196808,-0.0629880428314209,-0.1034708023071289,0.0,0.0,0.0,0.0,0.11613696813583374,-0.07168402522802353,0.1379450410604477,5.826139749842696e-05,-0.032568857073783875,0.028711950406432152,0.003557989140972495,-0.02459218166768551,0.012939894571900368,0.008332914672791958,0.01671154797077179,-0.10533104091882706,-0.4636973440647125,-0.3238232135772705,-0.3294949531555176,-0.13444660604000092,1.34844172000885,-0.1878128945827484,-1.0099232196807861,-4.51186466217041,0.8346326947212219,-0.2647354006767273,-0.4521341621875763,-0.5257632732391357,0.4683723747730255,1.5040091276168823,0.053390949964523315,-0.3090636134147644,-1.504833459854126,-1.007928490638733,-1.4452121257781982,-0.4122939109802246
1760498406.7110271,0.02,0.07767738401889801,-0.1058397963643074,-0.04932526499032974,-0.0034549562260508537,-0.02482457086443901,-0.9996858239173889,0.6143532991409302,-0.5200525522232056,-0.4622434377670288,-0.14963267743587494,0.08315783739089966,-0.16649794578552246,0.10140629857778549,-0.00019884109497070312,0.04457855224609375,-0.08060932159423828,0.048366010189056396,0.061481356620788574,0.04305506870150566,-0.05303168296813965,-0.139884352684021,0.0,0.0,0.0,0.0,0.1278047412633896,-0.1129843220114708,0.1966826319694519,-0.023610882461071014,-0.005968117620795965,0.03387163206934929,-0.013534891419112682,-0.01222421508282423,-0.01719002239406109,0.005784624721854925,0.027322594076395035,-0.08169340342283249,-0.503970742225647,-0.4622601568698883,-0.2971871495246887,-0.12890583276748657,0.8651262521743774,-0.43975672125816345,-0.7384825944900513,-6.439502716064453,0.8538599610328674,0.015340515412390232,-0.13243445754051208,-0.8610770106315613,0.647160530090332,2.2872817516326904,0.12973932921886444,-0.48868125677108765,-1.6157358884811401,-1.3357877731323242,-1.4367748498916626,-0.27744370698928833
1760498406.7657788,0.02,-0.003514789044857025,-0.07731650769710541,-0.09336495399475098,-0.009819324128329754,-0.026676757261157036,-0.9995958805084229,0.6143532991409302,-0.5200525522232056,-0.4591294527053833,-0.10516912490129471,0.036675989627838135,-0.09346890449523926,0.08571608364582062,0.0015012621879577637,0.06313908100128174,-0.09036784619092941,0.04404526948928833,0.057097554206848145,0.04515697434544563,-0.04421210289001465,-0.1613633632659912,0.0,0.0,0.0,0.0,0.09420546144247055,-0.10401487350463867,0.13691581785678864,-0.047836873680353165,0.009522936306893826,0.04618269205093384,-0.029044106602668762,-0.011562244035303593,-0.008894807659089565,0.006260482128709555,0.01825670525431633,-0.039722345769405365,-0.39959976077079773,-0.5338785648345947,-0.32396015524864197,-0.132634699344635,0.8381571769714355,-0.5043821334838867,-0.5002972483634949,-7.561800956726074,0.6159318685531616,0.10938689857721329,-0.32458922266960144,-1.091376543045044,0.7724929451942444,2.6987476348876953,-0.015914231538772583,-0.5922956466674805,-1.4330437183380127,-1.7139415740966797,-1.57535719871521,-0.26757681369781494
1760498406.825199,0.02,-0.04762197285890579,-0.07750879228115082,-0.11472449451684952,-0.015499129891395569,-0.02400103025138378,-0.9995917677879333,0.6143532991409302,-0.5200525522232056,-0.4548267126083374,-0.07053245604038239,-0.005304574966430664,-0.045233845710754395,0.06297017633914948,0.007952511310577393,0.07851028442382812,-0.1045239046216011,0.03861856460571289,0.055758655071258545,0.04958488047122955,-0.04319751262664795,-0.16860640048980713,0.0,0.0,0.0,0.0,0.07754627615213394,-0.09654980152845383,0.0887054055929184,-0.061559196561574936,0.02068568952381611,0.03047822415828705,-0.03780701383948326,-0.015437818132340908,-0.0016169719165191054,0.015187621116638184,-0.005991111975163221,-0.007509277202188969,-0.31525832414627075,-0.5371143221855164,-0.3442506194114685,-0.10494963079690933,1.0785239934921265,-0.5277712345123291,-0.2686704695224762,-7.796982288360596,0.4796964228153229,0.04703807085752487,-0.6843054294586182,-1.2294265031814575,0.8018272519111633,2.8512799739837646,-0.14139024913311005,-0.6681185960769653,-1.1483595371246338,-1.8549941778182983,-1.7052010297775269,-0.1895451694726944
1760498406.8776047,0.02,-0.06295577436685562,-0.09480634331703186,-0.11806631833314896,-0.022219466045498848,-0.01968165673315525,-0.9995593428611755,0.6143532991409302,-0.5200525522232056,-0.45012593269348145,-0.03745314106345177,-0.04345577955245972,-0.014112353324890137,0.03732835501432419,0.018153250217437744,0.08462703227996826,-0.12060482800006866,0.03125178813934326,0.056484878063201904,0.05883438140153885,-0.05200308561325073,-0.1661694049835205,0.0,0.0,0.0,0.0,0.08045502007007599,-0.08895731717348099,0.05790352448821068,-0.0664791688323021,0.02943406067788601,0.004691708367317915,-0.041732218116521835,-0.019804999232292175,0.0017582591390237212,0.027435703203082085,-0.029914697632193565,0.012853440828621387,-0.25569912791252136,-0.5232331156730652,-0.3551883101463318,-0.07242660969495773,1.2510652542114258,-0.520323634147644,-0.08853745460510254,-7.3800482749938965,0.387938916683197,-0.0344771072268486,-0.8536360263824463,-1.2895126342773438,0.7903607487678528,2.8470284938812256,-0.19723893702030182,-0.6553601622581482,-0.9300243854522705,-1.8936758041381836,-1.7675979137420654,-0.11339695751667023
1760498406.9320273,0.02,-0.04378913342952728,-0.11412665247917175,-0.11050891131162643,-0.030531642958521843,-0.016562053933739662,-0.999396562576294,0.6143532991409302,-0.5200525522232056,-0.44546401500701904,-0.0014925268478691578,-0.07608890533447266,0.002929091453552246,0.012449081055819988,0.029540657997131348,0.08350563049316406,-0.1358746439218521,0.022309422492980957,0.05902808904647827,0.07400946319103241,-0.06791961193084717,-0.1588073968887329,0.0,0.0,0.0,0.0,0.08970361202955246,-0.0746486559510231,0.02815190516412258,-0.06242002919316292,0.022787002846598625,0.006831289269030094,-0.038678526878356934,-0.021196620538830757,0.0033973820973187685,0.04076337441802025,-0.04460547864437103,0.02138829044997692,-0.23646628856658936,-0.5222447514533997,-0.37222620844841003,-0.0573648177087307,1.3751220703125,-0.5024882555007935,0.010490089654922485,-6.6009955406188965,0.3418773412704468,-0.0777829959988594,-0.8371131420135498,-1.2995526790618896,0.752357542514801,2.7802207469940186,-0.22378060221672058,-0.5836099982261658,-0.8523926734924316,-1.8222724199295044,-1.8719524145126343,-0.08592520654201508
1760498406.9878178,0.02,-0.0008113235235214233,-0.13321848213672638,-0.09881037473678589,-0.04046810045838356,-0.0160229355096817,-0.9990523457527161,0.6143532991409302,-0.5200525522232056,-0.4413052797317505,0.03352328762412071,-0.10280144214630127,0.009659647941589355,-0.00937472190707922,0.03728824853897095,0.08122646808624268,-0.14913411438465118,0.012283265590667725,0.06460815668106079,0.09336002916097641,-0.08721399307250977,-0.1509174108505249,0.0,0.0,0.0,0.0,0.07990936189889908,-0.061546918004751205,0.008921653032302856,-0.052469562739133835,0.019231628626585007,-0.011389350518584251,-0.03131323307752609,-0.02391602098941803,0.012265250086784363,0.0507034957408905,-0.04875142499804497,0.018398351967334747,-0.2472221404314041,-0.4636317193508148,-0.3956720530986786,-0.07716377079486847,1.4865909814834595,-0.4832431375980377,0.05051782727241516,-5.627383232116699,0.3568476438522339,-0.0904737338423729,-0.715643048286438,-1.3098458051681519,0.700772225856781,2.7067549228668213,-0.23078148066997528,-0.44581472873687744,-0.8333059549331665,-1.6126700639724731,-2.0138583183288574,-0.13192741572856903
1760498407.047109,0.02,0.053867071866989136,-0.12641657888889313,-0.09492519497871399,-0.05061286687850952,-0.02030174806714058,-0.9985119700431824,0.6143532991409302,-0.5200525522232056,-0.4373728036880493,0.06448235362768173,-0.12022840976715088,0.0028611421585083008,-0.026251118630170822,0.04303133487701416,0.07652091979980469,-0.1578756421804428,0.0003190040588378906,0.07799535989761353,0.11392120271921158,-0.10419702529907227,-0.14743375778198242,0.0,0.0,0.0,0.0,0.07350119948387146,-0.0350705049932003,-0.026915594935417175,-0.04115349426865578,0.013427975587546825,-0.0118138138204813,-0.020410016179084778,-0.028576990589499474,0.03449659049510956,0.04667111486196518,-0.037959083914756775,0.0027908373158425093,-0.2390037328004837,-0.4166061580181122,-0.43038368225097656,-0.14468692243099213,1.5738226175308228,-0.42911645770072937,0.029609084129333496,-4.5336384773254395,0.3194792568683624,-0.07513011246919632,-0.625959038734436,-1.3492801189422607,0.6808334589004517,2.5064475536346436,-0.2052638828754425,-0.21386589109897614,-0.84071946144104,-1.4146404266357422,-2.2060084342956543,-0.30567288398742676
1760498407.0992184,0.02,0.03814280033111572,-0.03208334743976593,-0.11883054673671722,-0.05555688589811325,-0.023759599775075912,-0.9981727600097656,0.6143532991409302,-0.5200525522232056,-0.4329792261123657,0.07892437279224396,-0.1266612410545349,-0.010462820529937744,-0.04544490948319435,0.04234427213668823,0.08537161350250244,-0.16757091879844666,-0.013534247875213623,0.10690265893936157,0.11735820025205612,-0.10924956202507019,-0.1537456512451172,0.0,0.0,0.0,0.0,0.021059587597846985,-0.006733240094035864,-0.034497953951358795,-0.049634624272584915,-0.008608372882008553,0.04236279055476189,-0.022055162116885185,-0.03509082645177841,0.08289794623851776,-0.010889478959143162,0.003995563369244337,-0.030838966369628906,-0.291083425283432,-0.3537604808807373,-0.47584864497184753,-0.14472824335098267,1.1072453260421753,-0.2997882664203644,-0.04044875502586365,-2.95827579498291,0.18321415781974792,0.1522880643606186,-0.5343320369720459,-1.2437868118286133,0.7147967219352722,1.6168712377548218,-0.17595429718494415,0.09297318756580353,-1.1009782552719116,-1.1326537132263184,-2.3671762943267822,-0.5274015665054321
1760498407.1518955,0.02,0.03663362190127373,0.04696567356586456,-0.1540246158838272,-0.05317656695842743,-0.026323216035962105,-0.9982381463050842,0.6143532991409302,-0.5200525522232056,-0.4272400140762329,0.06214386597275734,-0.11571866273880005,-0.03281456232070923,-0.06936292350292206,0.03233456611633301,0.12165951728820801,-0.17756664752960205,-0.027201294898986816,0.14656054973602295,0.10885721445083618,-0.10245153307914734,-0.16480231285095215,0.0,0.0,0.0,0.0,-0.04917730391025543,0.033494286239147186,-0.04505017399787903,-0.05807774141430855,-0.03607037290930748,0.1108095794916153,-0.020982958376407623,-0.031677618622779846,0.09823443740606308,-0.017357653006911278,0.021072503179311752,-0.026685217395424843,-0.3243647515773773,-0.32852551341056824,-0.49518057703971863,-0.1733512431383133,0.17458367347717285,-0.013739258050918579,-0.27496469020843506,-0.8078227639198303,-0.04993193596601486,0.4783181846141815,-0.652554988861084,-0.6849961280822754,0.7850042581558228,0.037749551236629486,-0.23044461011886597,0.1867799609899521,-1.4594709873199463,-0.9731937050819397,-2.3162405490875244,-0.5824041962623596
1760498407.2074194,0.02,-0.07147648930549622,0.04015699028968811,-0.16542865335941315,-0.04972207546234131,-0.022825967520475388,-0.9985021948814392,0.6143532991409302,-0.5200525522232056,-0.4207378625869751,0.034913014620542526,-0.104358971118927,-0.04999631643295288,-0.09381103515625,0.016824960708618164,0.15509605407714844,-0.18680019676685333,-0.030480265617370605,0.16027343273162842,0.09517182409763336,-0.09585696458816528,-0.17388367652893066,0.0,0.0,0.0,0.0,-0.07215528190135956,0.027082711458206177,-0.04166344180703163,-0.05513652786612511,-0.03966366872191429,0.07159630209207535,-0.020716508850455284,-7.137458305805922e-05,0.014556849375367165,-0.03784768655896187,0.014204384759068489,-0.020490413531661034,-0.33192968368530273,-0.2579449415206909,-0.40253329277038574,-0.16897135972976685,-0.5031775236129761,0.19346049427986145,-0.5855811834335327,1.7518658638000488,-0.30560415983200073,0.6271320581436157,-0.7581186294555664,0.08092711120843887,0.6606519818305969,-2.1768946647644043,-0.3590448498725891,0.39156538248062134,-1.4822672605514526,-0.8426439166069031,-1.7104976177215576,-0.9839341044425964
1760498407.2607524,0.02,-0.14603960514068604,0.021591559052467346,-0.14625424146652222,-0.04750795662403107,-0.011538185179233551,-0.9988042116165161,0.6143532991409302,-0.5200525522232056,-0.4145054817199707,-0.00015371863264590502,-0.09216421842575073,-0.06738293170928955,-0.11505177617073059,0.004099845886230469,0.16641545295715332,-0.19721950590610504,-0.025866150856018066,0.15424686670303345,0.07284106314182281,-0.08812683820724487,-0.1784348487854004,0.0,0.0,0.0,0.0,-0.08652179688215256,0.030813058838248253,-0.04022916033864021,-0.03981965780258179,-0.028096092864871025,0.007682985160499811,-0.02095143310725689,0.01339010614901781,-0.017251871526241302,-0.05684242770075798,0.021649643778800964,-0.007963021285831928,-0.3777989149093628,-0.22130513191223145,-0.3108980357646942,-0.2864217460155487,-0.5066742300987244,0.5672332048416138,-0.6930850744247437,2.345371723175049,-0.271793007850647,0.5800226330757141,-0.44866278767585754,0.18373438715934753,0.577812671661377,-3.883533239364624,-0.15554504096508026,0.5036569833755493,-1.5747711658477783,-0.8615789413452148,-1.2396944761276245,-1.4941061735153198
1760498407.3175042,0.02,-0.14559116959571838,0.03688041865825653,-0.1257469803094864,-0.045323628932237625,0.00034143589437007904,-0.9989722967147827,0.6143532991409302,-0.5200525522232056,-0.40913522243499756,-0.035321664065122604,-0.07629954814910889,-0.08976107835769653,-0.12200836092233658,-0.0017486214637756348,0.1567302942276001,-0.2027273029088974,-0.019760489463806152,0.14526385068893433,0.048386577516794205,-0.07912701368331909,-0.17670702934265137,0.0,0.0,0.0,0.0,-0.08578778058290482,0.04425463825464249,-0.05932150036096573,-0.0006598927429877222,-0.008921332657337189,-0.03465136140584946,-0.007438168860971928,0.015057086944580078,-0.0190794188529253,-0.061103638261556625,0.023054247722029686,0.011466543190181255,-0.36432167887687683,-0.21739411354064941,-0.2533878982067108,-0.3571546673774719,-0.5989977717399597,0.5930272340774536,-0.8120245933532715,2.4409117698669434,-0.12537133693695068,0.6725029945373535,-0.23916268348693848,0.11109936982393265,0.5154911279678345,-4.677504539489746,-0.12511712312698364,0.5680922865867615,-1.5973360538482666,-0.8408108949661255,-0.9395049214363098,-1.5436668395996094
1760498407.3712041,0.02,-0.11837594211101532,0.06968052685260773,-0.11454679071903229,-0.041154902428388596,0.010297124274075031,-0.9990997314453125,0.6143532991409302,-0.5200525522232056,-0.4043234586715698,-0.06835144758224487,-0.05651295185089111,-0.11581265926361084,-0.11289311200380325,-0.0005714893341064453,0.13641762733459473,-0.20003294944763184,-0.012169063091278076,0.1339472532272339,0.024706903845071793,-0.07065397500991821,-0.16780519485473633,0.0,0.0,0.0,0.0,-0.08031877875328064,0.05082809925079346,-0.060891635715961456,0.0354880653321743,0.0036835339851677418,-0.04245625436306,0.013767950236797333,0.01957530900835991,-0.026515526697039604,-0.058264683932065964,0.02036622352898121,0.0295974463224411,-0.36119315028190613,-0.221274733543396,-0.22821591794490814,-0.3775009214878082,-0.5617337822914124,0.5764473676681519,-0.8616198301315308,2.2366795539855957,-0.03797297924757004,0.6221760511398315,-0.13760852813720703,0.12289071828126907,0.4298597574234009,-4.58088493347168,-0.1129477322101593,0.5993383526802063,-1.5595824718475342,-0.8271462917327881,-0.8282677531242371,-1.4255574941635132
1760498407.4416158,0.02,-0.07398208975791931,0.10857002437114716,-0.11000970751047134,-0.03409499675035477,0.016847623512148857,-0.9992765784263611,0.6143532991409302,-0.5200525522232056,-0.3997546434402466,-0.09796388447284698,-0.035139262676239014,-0.13979190587997437,-0.08997859060764313,0.005103409290313721,0.11546063423156738,-0.1870376318693161,-0.0020108819007873535,0.11877638101577759,0.0038965395651757717,-0.06370526552200317,-0.1529635190963745,0.0,0.0,0.0,0.0,-0.071762315928936,0.052424635738134384,-0.050921570509672165,0.066961869597435,0.014402312226593494,-0.04180226847529411,0.03954153507947922,0.026551825925707817,-0.03651867061853409,-0.050410088151693344,0.015958227217197418,0.043247073888778687,-0.36801156401634216,-0.22491958737373352,-0.20886412262916565,-0.3633357286453247,-0.5375232696533203,0.640074610710144,-0.8835666179656982,2.111689567565918,0.004003174602985382,0.5274845361709595,-0.056397080421447754,0.22259747982025146,0.33194637298583984,-4.136016368865967,-0.12352971732616425,0.6187236309051514,-1.5050370693206787,-0.8457948565483093,-0.7612003684043884,-1.2959955930709839
1760498407.495271,0.02,-0.022461459040641785,0.14450204372406006,-0.1084563210606575,-0.024080242961645126,0.01946902647614479,-0.9995204210281372,0.6143532991409302,-0.5200525522232056,-0.39526259899139404,-0.12376563251018524,-0.0135878324508667,-0.15812474489212036,-0.05553952232003212,0.015585064888000488,0.09202015399932861,-0.1636245995759964,0.010956287384033203,0.1003827452659607,-0.013134543783962727,-0.05822986364364624,-0.13439249992370605,0.0,0.0,0.0,0.0,-0.062115516513586044,0.05148056894540787,-0.03437421843409538,0.0932672843337059,0.025841370224952698,-0.049678754061460495,0.06500711292028427,0.03332998976111412,-0.04337074235081673,-0.04041852429509163,0.012764038518071175,0.05003400519490242,-0.38914045691490173,-0.23229144513607025,-0.1882854849100113,-0.33510780334472656,-0.5264917612075806,0.7482336759567261,-0.8940936326980591,2.0876171588897705,0.024513550102710724,0.40579476952552795,0.020436733961105347,0.36053869128227234,0.2350635975599289,-3.580967903137207,-0.16149082779884338,0.6024216413497925,-1.511354923248291,-0.8893540501594543,-0.6946285367012024,-1.2618666887283325
1760498407.549596,0.02,0.029381245374679565,0.17635378241539001,-0.11703192442655563,-0.011448310688138008,0.018097758293151855,-0.9997707009315491,0.6143532991409302,-0.5200525522232056,-0.3906475305557251,-0.1458885371685028,0.007223367691040039,-0.16986536979675293,-0.012513114139437675,0.03155142068862915,0.06160712242126465,-0.13168330490589142,0.025302886962890625,0.0826038122177124,-0.02595878392457962,-0.05256837606430054,-0.1173776388168335,0.0,0.0,0.0,0.0,-0.05301005765795708,0.048968613147735596,-0.018598828464746475,0.11140608042478561,0.03838879615068436,-0.06592808663845062,0.08519012480974197,0.035599250346422195,-0.0392988882958889,-0.028680017217993736,0.016403106972575188,0.039000652730464935,-0.4099544584751129,-0.24053135514259338,-0.1551886945962906,-0.2858646810054779,-0.47640371322631836,0.8550428152084351,-0.8982061147689819,2.027318000793457,0.0676245167851448,0.2566632032394409,0.12260201573371887,0.4948523938655853,0.19780370593070984,-3.090186834335327,-0.20798394083976746,0.5513222217559814,-1.532235860824585,-0.8997246026992798,-0.5571731925010681,-1.2410879135131836
1760498407.603167,0.02,0.04466588795185089,0.1799185872077942,-0.11657258868217468,0.002720050048083067,0.014322761446237564,-0.9998937249183655,0.6143532991409302,-0.5200525522232056,-0.38581764698028564,-0.16584448516368866,0.02769780158996582,-0.17778927087783813,0.03179605305194855,0.04807770252227783,0.03024613857269287,-0.09567982703447342,0.03892463445663452,0.06920719146728516,-0.035890303552150726,-0.04813361167907715,-0.10203254222869873,0.0,0.0,0.0,0.0,-0.04919178783893585,0.049663763493299484,-0.015774190425872803,0.10000952333211899,0.01746910996735096,-0.026391152292490005,0.0887487456202507,0.03207087889313698,-0.02781291864812374,-0.025545388460159302,0.007798593491315842,0.038058169186115265,-0.4282059669494629,-0.1828075349330902,-0.09611980617046356,-0.23976588249206543,-0.2513071596622467,0.9601157903671265,-0.9027189016342163,1.8212099075317383,0.11486256867647171,0.038670457899570465,0.1787964403629303,0.622735857963562,0.21460601687431335,-2.71913743019104,-0.3055301904678345,0.478863000869751,-1.6154512166976929,-0.8102414608001709,-0.30921509861946106,-1.2502461671829224
1760498407.6585875,0.02,0.049778059124946594,0.13161900639533997,-0.1018635481595993,0.014219729229807854,0.010793296620249748,-0.9998406171798706,0.6143532991409302,-0.5200525522232056,-0.38139474391937256,-0.18509995937347412,0.05216038227081299,-0.19703328609466553,0.0655921995639801,0.0541878342628479,0.015225410461425781,-0.06283880770206451,0.04898715019226074,0.0607147216796875,-0.04624709486961365,-0.04814356565475464,-0.09037315845489502,0.0,0.0,0.0,0.0,-0.04540441557765007,0.0648251324892044,-0.05609641224145889,0.07788603752851486,0.013331802561879158,-0.04064545780420303,0.07909741252660751,0.02144644595682621,-0.014567047357559204,-0.025560958310961723,-0.003116179956123233,0.024249069392681122,-0.4290398061275482,-0.17770273983478546,-0.05139770731329918,-0.20403261482715607,-0.11044883728027344,0.9727518558502197,-0.9707810878753662,1.4390565156936646,0.24486786127090454,-0.14401139318943024,0.05992475152015686,0.662208080291748,0.2732383608818054,-2.1704599857330322,-0.3583168685436249,0.37539803981781006,-1.7136945724487305,-0.6562961339950562,-0.08619024604558945,-1.2681113481521606
1760498407.7079928,0.02,0.07122880220413208,0.07044966518878937,-0.06579349935054779,0.02120932936668396,0.005015265196561813,-0.9997624754905701,0.6143532991409302,-0.5200525522232056,-0.3780924081802368,-0.1994079351425171,0.08155494928359985,-0.23301762342453003,0.08794012665748596,0.05418384075164795,0.0028629302978515625,-0.03617415577173233,0.05246889591217041,0.06048542261123657,-0.05468044430017471,-0.0504605770111084,-0.08751320838928223,0.0,0.0,0.0,0.0,-0.033312857151031494,0.07845618575811386,-0.10247273743152618,0.041304752230644226,-0.009284578263759613,-0.020589681342244148,0.057402390986680984,0.004493895452469587,0.004822466056793928,-0.021946413442492485,-0.006880912464112043,-0.00020833090820815414,-0.40717989206314087,-0.19843198359012604,-0.08945051580667496,-0.17822717130184174,0.2559145390987396,0.7837194204330444,-0.9741662740707397,0.0052247606217861176,0.3563443124294281,-0.3692117929458618,-0.2046317756175995,0.49793651700019836,0.4018794298171997,-0.7653040289878845,-0.27381810545921326,0.2470812052488327,-1.5428826808929443,-0.722841203212738,-0.14820310473442078,-1.1331381797790527
1760498407.766537,0.02,0.15996471047401428,-0.05445031821727753,-0.02405281364917755,0.02053295075893402,-0.006521605886518955,-0.9997678995132446,0.6143532991409302,-0.5200525522232056,-0.3764350414276123,-0.18828940391540527,0.094143807888031,-0.24488312005996704,0.09129781275987625,0.037380218505859375,0.012813806533813477,-0.019052552059292793,0.048484861850738525,0.06055670976638794,-0.0568029023706913,-0.0493699312210083,-0.10731828212738037,0.0,0.0,0.0,0.0,0.05755962058901787,0.008421177975833416,0.006615139544010162,-0.009011798538267612,-0.05177580192685127,0.0348295122385025,0.028821563348174095,-0.017317499965429306,-0.0026669043581932783,-0.004806033335626125,0.007730611599981785,-0.0778532400727272,-0.3642154932022095,-0.19677631556987762,-0.18786583840847015,-0.16483256220817566,0.8435651063919067,0.1658654510974884,-0.9401206970214844,-2.564363956451416,0.5178974270820618,-0.4501635432243347,-0.5750311613082886,0.07573386281728745,0.4702547490596771,1.0383943319320679,0.0014032870531082153,-0.2312861829996109,-1.321831464767456,-0.7223368287086487,-0.5376850366592407,-0.7150222659111023
1760498407.818476,0.02,0.12693320214748383,-0.12070906162261963,-0.021529369056224823,0.013163270428776741,-0.018443908542394638,-0.9997432231903076,0.6143532991409302,-0.5200525522232056,-0.37554287910461426,-0.14797747135162354,0.07224106788635254,-0.18980300426483154,0.08868476748466492,0.024019598960876465,0.02390754222869873,-0.018435867503285408,0.03963512182235718,0.056820571422576904,-0.05003621429204941,-0.041745781898498535,-0.13979625701904297,0.0,0.0,0.0,0.0,0.11882412433624268,-0.06383448839187622,0.14673374593257904,-0.009436748921871185,-0.02378205955028534,0.013837910257279873,-0.0044753472320735455,-0.018018070608377457,-0.029491981491446495,0.026393741369247437,0.02119450829923153,-0.0729345828294754,-0.33283787965774536,-0.3388739824295044,-0.24278287589550018,-0.14416392147541046,0.7080694437026978,-0.18481948971748352,-0.7301874160766602,-4.694234371185303,0.7411423921585083,-0.29004529118537903,-0.40149351954460144,-0.3179478049278259,0.5901477932929993,1.8987493515014648,0.23788714408874512,-0.49439293146133423,-1.3671852350234985,-1.1100997924804688,-0.9164323210716248,-0.5190749764442444
1760498407.8846738,0.02,0.01500130444765091,-0.0921337902545929,-0.06862639635801315,0.005501405335962772,-0.02234094962477684,-0.9997352957725525,0.6143532991409302,-0.5200525522232056,-0.3734954595565796,-0.10914807766675949,0.04600322246551514,-0.13403546810150146,0.07724745571613312,0.02045518159866333,0.03748464584350586,-0.0258038230240345,0.03697860240936279,0.043727874755859375,-0.03897356986999512,-0.032039523124694824,-0.15868151187896729,0.0,0.0,0.0,0.0,0.06993338465690613,-0.05866929888725281,0.10293816775083542,-0.0385807529091835,-0.0036059271078556776,0.03867435082793236,-0.0243690125644207,-0.0029692696407437325,-0.034669991582632065,0.030945423990488052,0.024302955716848373,-0.032265182584524155,-0.3914363980293274,-0.4730917513370514,-0.2936844229698181,-0.13288311660289764,0.2613809108734131,-0.26888734102249146,-0.634436845779419,-6.0470476150512695,0.5709339380264282,-0.032739050686359406,-0.2128869593143463,-0.634154200553894,0.7082280516624451,2.226123809814453,0.13914892077445984,-0.5790478587150574,-1.4259229898452759,-1.5874767303466797,-1.4305803775787354,-0.33788466453552246
1760498407.939187,0.02,-0.0325080007314682,-0.06647244840860367,-0.08991961181163788,1.010950654745102e-05,-0.021124131977558136,-0.9997768402099609,0.6143532991409302,-0.5200525522232056,-0.3701707124710083,-0.0851120799779892,0.02060157060623169,-0.09326958656311035,0.05851967632770538,0.02102142572402954,0.055838823318481445,-0.037876419723033905,0.03658628463745117,0.03457379341125488,-0.023197026923298836,-0.02690953016281128,-0.15870988368988037,0.0,0.0,0.0,0.0,0.04810898005962372,-0.058536358177661896,0.07824573665857315,-0.052373845130205154,0.004467204678803682,0.04445178434252739,-0.033609647303819656,-0.0003184353990945965,-0.020150301977992058,0.04436175152659416,0.006071516778320074,0.01649833284318447,-0.3928104639053345,-0.5017213225364685,-0.3455827236175537,-0.09579744189977646,0.600531816482544,-0.30808669328689575,-0.4436491131782532,-6.885255336761475,0.4733487367630005,-0.008975706063210964,-0.4836196005344391,-0.84598308801651,0.7928844094276428,2.3141531944274902,-0.00784224271774292,-0.6412053108215332,-1.3943434953689575,-1.746522068977356,-1.6715890169143677,-0.23234562575817108
1760498407.9972224,0.02,-0.07172456383705139,-0.0698736384510994,-0.09085337817668915,-0.005033185239881277,-0.016392871737480164,-0.9998529553413391,0.6143532991409302,-0.5200525522232056,-0.3665226697921753,-0.06392264366149902,-0.006719470024108887,-0.05815166234970093,0.035283058881759644,0.02445530891418457,0.07003724575042725,-0.05366414785385132,0.03588283061981201,0.02826833724975586,-0.003061569994315505,-0.03151130676269531,-0.14242637157440186,0.0,0.0,0.0,0.0,0.0498039647936821,-0.0669531524181366,0.07410645484924316,-0.0615132637321949,0.011826748959720135,0.027332741767168045,-0.042483773082494736,-0.002730035223066807,-0.015181325376033783,0.054522544145584106,-0.020408870652318,0.05323350429534912,-0.3422867953777313,-0.49552851915359497,-0.3587876260280609,-0.028662577271461487,0.9162482023239136,-0.38214966654777527,-0.26430806517601013,-7.03854513168335,0.44106799364089966,-0.04323913902044296,-0.5830955505371094,-1.0013529062271118,0.7508531212806702,2.301908493041992,-0.10920822620391846,-0.6031057238578796,-1.1876187324523926,-1.769748568534851,-1.7544128894805908,-0.03729470074176788
1760498408.0503154,0.02,-0.07517118006944656,-0.08624985069036484,-0.08588001877069473,-0.01125030405819416,-0.010834528133273125,-0.9998779892921448,0.6143532991409302,-0.5200525522232056,-0.3630121946334839,-0.038642093539237976,-0.03577381372451782,-0.027200818061828613,0.01096272747963667,0.029983222484588623,0.07661032676696777,-0.07080037146806717,0.03409397602081299,0.02215629816055298,0.02119125798344612,-0.044258296489715576,-0.120902419090271,0.0,0.0,0.0,0.0,0.06301095336675644,-0.07017620652914047,0.06459861993789673,-0.0623994842171669,0.016269054263830185,0.008527995087206364,-0.044536661356687546,-0.005752005148679018,-0.015270392410457134,0.0586886964738369,-0.03284020349383354,0.036183297634124756,-0.3048589527606964,-0.4840620160102844,-0.3591119349002838,0.004784092772752047,1.113134741783142,-0.4388415515422821,-0.12119907140731812,-6.7439494132995605,0.43908438086509705,-0.05271843820810318,-0.49006474018096924,-1.0893638134002686,0.6546755433082581,2.3039472103118896,-0.18544232845306396,-0.5223516225814819,-1.0570564270019531,-1.7144578695297241,-1.8342630863189697,0.15682794153690338
1760498408.1034288,0.02,-0.05630169063806534,-0.11570002138614655,-0.06451931595802307,-0.019426632672548294,-0.00678658951073885,-0.999788224697113,0.6143532991409302,-0.5200525522232056,-0.36012279987335205,-0.007276187650859356,-0.0632125735282898,-0.004992961883544922,-0.011152582243084908,0.03344482183456421,0.0817408561706543,-0.0871373787522316,0.0314561128616333,0.016554296016693115,0.0482548363506794,-0.061678290367126465,-0.10550856590270996,0.0,0.0,0.0,0.0,0.0785592570900917,-0.06438349187374115,0.04126511886715889,-0.05548388510942459,0.010575891472399235,0.0017501177499070764,-0.04248612001538277,-0.0058356039226055145,-0.016580795869231224,0.06908271461725235,-0.048947524279356,0.041206683963537216,-0.2897637188434601,-0.47134929895401,-0.3721506595611572,0.03586789593100548,1.2996572256088257,-0.46811386942863464,-0.024237602949142456,-6.233637809753418,0.4471709728240967,-0.05901167541742325,-0.3986060321331024,-1.1129013299942017,0.562987744808197,2.370784044265747,-0.22258979082107544,-0.4381480813026428,-1.0155785083770752,-1.6341696977615356,-1.9856932163238525,0.21620561182498932
1760498408.1594849,0.02,0.0005144625902175903,-0.13759702444076538,-0.06294579803943634,-0.029683679342269897,-0.005901968106627464,-0.9995419383049011,0.6143532991409302,-0.5200525522232056,-0.35758042335510254,0.023120317608118057,-0.08762264251708984,0.005899310111999512,-0.02974555268883705,0.037256836891174316,0.07992267608642578,-0.10089190304279327,0.0286257266998291,0.011361956596374512,0.0799948126077652,-0.08192294836044312,-0.0897359848022461,0.0,0.0,0.0,0.0,0.06848037987947464,-0.056883424520492554,0.014111888594925404,-0.04413484409451485,0.00981331616640091,-0.008194592781364918,-0.03148118034005165,-0.006939706392586231,-0.013081423006951809,0.08266150951385498,-0.05048803240060806,0.03929564729332924,-0.2897302210330963,-0.45312580466270447,-0.39108043909072876,0.03672761842608452,1.4172260761260986,-0.5066485404968262,0.006545901298522949,-5.645974159240723,0.5144708752632141,-0.02698977291584015,-0.14938436448574066,-1.1596839427947998,0.4586007297039032,2.4064505100250244,-0.22015380859375,-0.2987232804298401,-1.016418695449829,-1.4632774591445923,-2.1528587341308594,0.23799525201320648
1760498408.2126951,0.02,0.0390491783618927,-0.13962605595588684,-0.05752681568264961,-0.04073549062013626,-0.008887801319360733,-0.9991304278373718,0.6143532991409302,-0.5200525522232056,-0.3551737070083618,0.0503091961145401,-0.10577225685119629,0.0031561851501464844,-0.04454658553004265,0.0410800576210022,0.0749746561050415,-0.11124579608440399,0.024774014949798584,0.010847985744476318,0.11252424865961075,-0.1009567379951477,-0.07651269435882568,0.0,0.0,0.0,0.0,0.06563685834407806,-0.03939157351851463,-0.01630932092666626,-0.03615907207131386,0.010149682871997356,-0.01412745751440525,-0.024824490770697594,-0.010028551332652569,0.002612036420032382,0.07742941379547119,-0.045085206627845764,0.03009072318673134,-0.274685800075531,-0.4319336414337158,-0.41946321725845337,-0.02150404453277588,1.5080113410949707,-0.4852425754070282,0.01822143793106079,-4.8195929527282715,0.48988214135169983,-0.048311926424503326,-0.062137529253959656,-1.2726843357086182,0.41558608412742615,2.3179190158843994,-0.22499948740005493,-0.07434691488742828,-0.9891481995582581,-1.3729475736618042,-2.302098512649536,0.1636914163827896
1760498408.2639441,0.02,0.03769325464963913,-0.09097135812044144,-0.0629076436161995,-0.04924720525741577,-0.012243272736668587,-0.9987115859985352,0.6143532991409302,-0.5200525522232056,-0.3527296781539917,0.07060913741588593,-0.11696970462799072,-0.004604637622833252,-0.05961840599775314,0.04267174005508423,0.0751502513885498,-0.12171132117509842,0.019516170024871826,0.020496726036071777,0.13529552519321442,-0.11470967531204224,-0.0688486099243164,0.0,0.0,0.0,0.0,0.04361002892255783,-0.022336749359965324,-0.019795021042227745,-0.038757503032684326,0.001211810391396284,0.009576980955898762,-0.026332110166549683,-0.014166015200316906,0.03259573504328728,0.04563004896044731,-0.02726008929312229,0.01100100763142109,-0.30584773421287537,-0.39720410108566284,-0.4451940953731537,-0.12103747576475143,1.2917689085006714,-0.4220980107784271,-0.0004321634769439697,-3.635667324066162,0.3810808062553406,0.029762856662273407,-0.19286583364009857,-1.3437292575836182,0.4052332043647766,1.99931001663208,-0.19939208030700684,0.1975506842136383,-1.1395705938339233,-1.2388712167739868,-2.4143035411834717,-0.02993433177471161
1760498408.328103,0.02,0.03254382684826851,0.0180660430341959,-0.09247837215662003,-0.050651706755161285,-0.014965411275625229,-0.9986042380332947,0.6143532991409302,-0.5200525522232056,-0.34946465492248535,0.06897252053022385,-0.11562961339950562,-0.0161246657371521,-0.07793470472097397,0.03584522008895874,0.09716629981994629,-0.13279971480369568,0.012170672416687012,0.04638606309890747,0.1378696709871292,-0.11475610733032227,-0.07556891441345215,0.0,0.0,0.0,0.0,-0.022921506315469742,0.017121462151408195,-0.0328422486782074,-0.04783826693892479,-0.025472506880760193,0.07974102348089218,-0.028039321303367615,-0.021549424156546593,0.08048204332590103,-0.015437913127243519,0.01745573990046978,-0.03933168202638626,-0.3250778615474701,-0.3441244661808014,-0.48463359475135803,-0.1426350325345993,0.6291334629058838,-0.295388400554657,-0.13248199224472046,-1.9799294471740723,0.15407776832580566,0.29528310894966125,-0.44488459825515747,-1.1467673778533936,0.4519772529602051,1.2464896440505981,-0.18245521187782288,0.4066811203956604,-1.5448037385940552,-1.0742905139923096,-2.4167520999908447,-0.23500601947307587
1760498408.3800817,0.02,0.08283431082963943,0.033194802701473236,-0.14184117317199707,-0.047791510820388794,-0.021853242069482803,-0.9986182451248169,0.6143532991409302,-0.5200525522232056,-0.34448063373565674,0.053865741938352585,-0.10258322954177856,-0.037056148052215576,-0.09448665380477905,0.01682180166244507,0.14727497100830078,-0.1387719213962555,0.0013827085494995117,0.07868170738220215,0.13338695466518402,-0.10549741983413696,-0.09493529796600342,0.0,0.0,0.0,0.0,-0.03891168162226677,0.03403838351368904,-0.05201286822557449,-0.03944787010550499,-0.0456005223095417,0.11512105911970139,-0.013254026882350445,-0.027755936607718468,0.07409374415874481,-0.008967694826424122,0.022639568895101547,-0.048996519297361374,-0.3275773227214813,-0.28859686851501465,-0.4454777240753174,-0.1388845145702362,-0.3230239748954773,-0.05999019742012024,-0.5727496147155762,0.46918702125549316,-0.1843779981136322,0.6628242135047913,-0.8730041980743408,-0.40996164083480835,0.4934117794036865,-0.2321328967809677,-0.271242618560791,0.5042508244514465,-1.7346196174621582,-1.010189414024353,-2.0083224773406982,-0.35054945945739746
1760498408.4324405,0.02,-0.051026418805122375,0.004219535738229752,-0.15604671835899353,-0.04683509096503258,-0.019893702119588852,-0.9987044930458069,0.6143532991409302,-0.5200525522232056,-0.3383859395980835,0.028295645490288734,-0.08885633945465088,-0.06440109014511108,-0.11172707378864288,0.005666971206665039,0.16326236724853516,-0.15178178250789642,-0.007193207740783691,0.09550917148590088,0.12061537802219391,-0.09716445207595825,-0.11208486557006836,0.0,0.0,0.0,0.0,-0.06821205466985703,0.035404007881879807,-0.07331474125385284,-0.03426632657647133,-0.022837232798337936,0.013549412600696087,-0.034036990255117416,-0.01985652558505535,0.03385160118341446,-0.035700973123311996,0.020762423053383827,-0.04099142178893089,-0.3123645484447479,-0.26489031314849854,-0.3601934611797333,-0.18704712390899658,-0.560479998588562,0.20522603392601013,-0.7322812080383301,2.0903286933898926,-0.30506420135498047,0.6502053737640381,-0.9545609951019287,0.10234508663415909,0.4917580783367157,-2.1548125743865967,-0.31980472803115845,0.5470595955848694,-1.5554840564727783,-0.893502414226532,-1.4226348400115967,-1.0499564409255981
1760498408.4891999,0.02,-0.13630253076553345,0.018072694540023804,-0.13040310144424438,-0.04576100781559944,-0.009945761412382126,-0.9989029169082642,0.6143532991409302,-0.5200525522232056,-0.33270442485809326,-0.005215520039200783,-0.07805198431015015,-0.08448648452758789,-0.1230008602142334,-0.001241445541381836,0.15885508060455322,-0.16991470754146576,-0.012579619884490967,0.10440397262573242,0.09863392263650894,-0.0884784460067749,-0.12349939346313477,0.0,0.0,0.0,0.0,-0.08386009186506271,0.023459643125534058,-0.03986291214823723,-0.01731708273291588,-0.02193603478372097,-0.004967960994690657,-0.04283343255519867,-0.011309907771646976,0.021476956084370613,-0.057825297117233276,0.022274622693657875,-0.024151986464858055,-0.3476146161556244,-0.2234140932559967,-0.2751329839229584,-0.26021987199783325,-0.3129827380180359,0.41261276602745056,-0.7226052284240723,2.3022851943969727,-0.2147045135498047,0.6350365281105042,-0.6762800216674805,0.13581201434135437,0.5073448419570923,-3.8526782989501953,-0.24278947710990906,0.5426097512245178,-1.4380707740783691,-0.9199637770652771,-1.0331425666809082,-1.2966536283493042
1760498408.5404186,0.02,-0.16262738406658173,0.04080340266227722,-0.10327108204364777,-0.04344414919614792,0.0031977202743291855,-0.9990507364273071,0.6143532991409302,-0.5200525522232056,-0.3281470537185669,-0.04119700938463211,-0.06749957799911499,-0.10088902711868286,-0.12329301238059998,-0.004999518394470215,0.14757883548736572,-0.18631725013256073,-0.014697372913360596,0.10894232988357544,0.07162164896726608,-0.08099156618118286,-0.12852907180786133,0.0,0.0,0.0,0.0,-0.0880359411239624,0.028255227953195572,-0.038775015622377396,0.014443794265389442,-0.005609347950667143,-0.031078925356268883,-0.034548453986644745,-0.0029443821404129267,0.010827706195414066,-0.06807470321655273,0.017577512189745903,-0.006930086296051741,-0.34492722153663635,-0.22497200965881348,-0.22865799069404602,-0.2869794964790344,-0.3428311347961426,0.486465185880661,-0.8095839023590088,2.277672052383423,-0.08577322214841843,0.6599751710891724,-0.36702781915664673,0.09249014407396317,0.4738617241382599,-4.812622547149658,-0.23618769645690918,0.5528051257133484,-1.478434443473816,-0.8919976353645325,-0.8368128538131714,-1.2419923543930054
1760498408.5933363,0.02,-0.12977701425552368,0.06652851402759552,-0.08945995569229126,-0.039280250668525696,0.014543543569743633,-0.9991223812103271,0.6143532991409302,-0.5200525522232056,-0.32431066036224365,-0.07509742677211761,-0.05383187532424927,-0.1183006763458252,-0.10894346982240677,-0.0016543269157409668,0.12798082828521729,-0.1940595507621765,-0.01325756311416626,0.1081588864326477,0.04509127140045166,-0.07496696710586548,-0.1282740831375122,0.0,0.0,0.0,0.0,-0.08158107101917267,0.036083485931158066,-0.04040573537349701,0.04806942492723465,0.010067107155919075,-0.04202746972441673,-0.010447208769619465,0.006063070613890886,-0.003826663363724947,-0.06449582427740097,0.014087828807532787,0.005684748291969299,-0.35142284631729126,-0.2317502796649933,-0.21299150586128235,-0.29147037863731384,-0.3894526958465576,0.542987585067749,-0.8693840503692627,2.065699577331543,0.007580108940601349,0.5969716906547546,-0.1280669867992401,0.11589515954256058,0.42071858048439026,-4.83839750289917,-0.20872952044010162,0.5626706480979919,-1.532167673110962,-0.8872562050819397,-0.7677656412124634,-1.1498175859451294
1760498408.652195,0.02,-0.0750436782836914,0.096758171916008,-0.08569986373186111,-0.032901015132665634,0.02171304263174534,-0.9992227554321289,0.6143532991409302,-0.5200525522232056,-0.320731520652771,-0.10495094954967499,-0.03704798221588135,-0.13573729991912842,-0.08189675956964493,0.007627546787261963,0.10505795478820801,-0.19001980125904083,-0.007915616035461426,0.10126906633377075,0.022053426131606102,-0.06994587182998657,-0.12375271320343018,0.0,0.0,0.0,0.0,-0.07148366421461105,0.04276305064558983,-0.03785153478384018,0.07619291543960571,0.023671874776482582,-0.04734275862574577,0.01916457712650299,0.01581411622464657,-0.018541062250733376,-0.05492730811238289,0.01192050613462925,0.016011672094464302,-0.3671793043613434,-0.2372235357761383,-0.2037658542394638,-0.2845586836338043,-0.43057698011398315,0.6271384954452515,-0.891692042350769,1.9119497537612915,0.04940057545900345,0.48914557695388794,0.053640127182006836,0.21707627177238464,0.3548705279827118,-4.4300150871276855,-0.20675092935562134,0.5749179720878601,-1.5506516695022583,-0.896170973777771,-0.727331280708313,-1.106271505355835
1760498408.7051017,0.02,-0.015763267874717712,0.12923093140125275,-0.08600529283285141,-0.02401382103562355,0.024167632684111595,-0.9994194507598877,0.6143532991409302,-0.5200525522232056,-0.31716465950012207,-0.1304275393486023,-0.018106460571289062,-0.15035223960876465,-0.0450139082968235,0.022029578685760498,0.07878327369689941,-0.17386531829833984,0.0015636086463928223,0.08910024166107178,0.003451642347499728,-0.06524372100830078,-0.11596322059631348,0.0,0.0,0.0,0.0,-0.06082633137702942,0.04672123119235039,-0.027817929163575172,0.09763865917921066,0.034751348197460175,-0.055060405284166336,0.04866378381848335,0.02602447010576725,-0.03008958138525486,-0.043633438646793365,0.011809391900897026,0.02304883860051632,-0.3951246440410614,-0.24479973316192627,-0.19005633890628815,-0.274103581905365,-0.43866217136383057,0.7484970092773438,-0.8863444328308105,1.8488857746124268,0.06451386958360672,0.35172709822654724,0.17860326170921326,0.35976627469062805,0.27355197072029114,-3.864766836166382,-0.22184038162231445,0.5683332085609436,-1.5720255374908447,-0.9300347566604614,-0.6811189651489258,-1.1310793161392212
1760498408.7660284,0.02,0.04483380913734436,0.16170819103717804,-0.08626578748226166,-0.01250617764890194,0.021854817867279053,-0.9996829032897949,0.6143532991409302,-0.5200525522232056,-0.3135765790939331,-0.15158289670944214,0.0015289783477783203,-0.15977990627288818,-0.0010746077168732882,0.04048585891723633,0.04781818389892578,-0.14698724448680878,0.014380872249603271,0.07500338554382324,-0.010562513954937458,-0.06010991334915161,-0.10639333724975586,0.0,0.0,0.0,0.0,-0.050188977271318436,0.04693831130862236,-0.013159751892089844,0.11254384368658066,0.04269438982009888,-0.0655510351061821,0.07393530756235123,0.0335301011800766,-0.03191844001412392,-0.03210965916514397,0.013596146367490292,0.025805208832025528,-0.4190159738063812,-0.25448235869407654,-0.15616701543331146,-0.26128295063972473,-0.37046897411346436,0.8552606105804443,-0.8675441741943359,1.8119927644729614,0.0930228903889656,0.19619370996952057,0.2651326656341553,0.5007472038269043,0.2125706672668457,-3.3089802265167236,-0.23706549406051636,0.5472428798675537,-1.5687211751937866,-0.9660837054252625,-0.5496304631233215,-1.1717324256896973
1760498408.8224592,0.02,0.06668272614479065,0.168005108833313,-0.08787985146045685,0.0006093038246035576,0.016115084290504456,-0.9998699426651001,0.6143532991409302,-0.5200525522232056,-0.3099919557571411,-0.1697019636631012,0.021440982818603516,-0.16676563024520874,0.04302535578608513,0.055385708808898926,0.02375960350036621,-0.11349928379058838,0.028334617614746094,0.06231522560119629,-0.021384527906775475,-0.05460166931152344,-0.09887814521789551,0.0,0.0,0.0,0.0,-0.04630187898874283,0.04928543046116829,-0.016486821696162224,0.09905826300382614,0.01636824570596218,-0.01637592911720276,0.08370966464281082,0.0346221849322319,-0.029671141877770424,-0.028059545904397964,0.016020936891436577,0.008500583469867706,-0.42951855063438416,-0.2004791796207428,-0.09487178921699524,-0.2167140543460846,-0.2274227738380432,0.9406265020370483,-0.8742034435272217,1.6768416166305542,0.13947898149490356,0.012611963786184788,0.3156299889087677,0.5946994423866272,0.19272732734680176,-2.817467451095581,-0.27251332998275757,0.5169921517372131,-1.5863088369369507,-0.8976425528526306,-0.29897698760032654,-1.1803404092788696
1760498408.8732653,0.02,0.06132364273071289,0.129393070936203,-0.08186127990484238,0.011693098582327366,0.011101609095931053,-0.9998700022697449,0.6143532991409302,-0.5200525522232056,-0.3065001964569092,-0.187912717461586,0.04552727937698364,-0.1853906512260437,0.07603413611650467,0.06044769287109375,0.01366889476776123,-0.08128096163272858,0.03985559940338135,0.05228376388549805,-0.03273002803325653,-0.05081069469451904,-0.09598159790039062,0.0,0.0,0.0,0.0,-0.04468768462538719,0.06457947194576263,-0.05575347691774368,0.07406868785619736,0.009909017942845821,-0.02723512426018715,0.07829991728067398,0.0255111251026392,-0.01935851387679577,-0.02872668206691742,0.006535266991704702,0.0066736252047121525,-0.4248707890510559,-0.201137974858284,-0.04779781028628349,-0.206307053565979,-0.11613571643829346,0.9543325901031494,-0.9372234344482422,1.436349630355835,0.24481666088104248,-0.15286974608898163,0.21351075172424316,0.6335462927818298,0.22672563791275024,-2.280484437942505,-0.32071155309677124,0.44847702980041504,-1.682277798652649,-0.7436545491218567,-0.06650420278310776,-1.2791565656661987
1760498408.927267,0.02,0.07113546133041382,0.08105183392763138,-0.05154974386096001,0.019216354936361313,0.005097211804240942,-0.9998023509979248,0.6143532991409302,-0.5200525522232056,-0.3038750886917114,-0.2027057558298111,0.07478761672973633,-0.2197151780128479,0.09785787016153336,0.059878647327423096,0.004899740219116211,-0.05355919897556305,0.0456615686416626,0.05021244287490845,-0.04301432892680168,-0.04991871118545532,-0.096474289894104,0.0,0.0,0.0,0.0,-0.035067182034254074,0.07660552114248276,-0.09384047985076904,0.041757721453905106,-0.009239450097084045,-0.014523230493068695,0.06237164884805679,0.010708482936024666,0.0010458400938659906,-0.026788771152496338,0.00032040916266851127,-0.004810690879821777,-0.39916571974754333,-0.2156248539686203,-0.06586884707212448,-0.20062874257564545,0.15680012106895447,0.8237049579620361,-0.9444502592086792,0.39936044812202454,0.3525388538837433,-0.3320901393890381,-0.02499602735042572,0.5407835245132446,0.3360615372657776,-1.1523866653442383,-0.2704709768295288,0.32344579696655273,-1.5287867784500122,-0.7678289413452148,-0.06971188634634018,-1.23214590549469
1760498408.9852676,0.02,0.11780411005020142,-0.04101455211639404,-0.00579272722825408,0.019679946824908257,-0.005152381025254726,-0.9997930526733398,0.6143532991409302,-0.5200525522232056,-0.3029356002807617,-0.1963586062192917,0.0922844409942627,-0.23841816186904907,0.10186277329921722,0.04451209306716919,0.012559771537780762,-0.034542713314294815,0.043703675270080566,0.05119413137435913,-0.04905615746974945,-0.04762691259384155,-0.11454582214355469,0.0,0.0,0.0,0.0,0.03875317424535751,0.024829324334859848,-0.01801842264831066,-0.026948442682623863,-0.05922597646713257,0.050451066344976425,0.030178412795066833,-0.011701407842338085,-0.0021632902789860964,-0.017664581537246704,0.006622242275625467,-0.06539299339056015,-0.354490727186203,-0.17687343060970306,-0.16618479788303375,-0.19062215089797974,0.7319240570068359,0.30089178681373596,-0.9144341945648193,-2.0365474224090576,0.4940313696861267,-0.49099817872047424,-0.533549427986145,0.17806720733642578,0.44456353783607483,0.8425794839859009,-0.02583611011505127,-0.1272619217634201,-1.331864833831787,-0.7709016799926758,-0.40544530749320984,-0.8866918683052063
1760498409.0363002,0.02,0.1437000036239624,-0.12537120282649994,0.0051511479541659355,0.01257167849689722,-0.01795416884124279,-0.9997597932815552,0.6143532991409302,-0.5200525522232056,-0.3030076026916504,-0.15696141123771667,0.07470130920410156,-0.19012659788131714,0.10030896961688995,0.0311012864112854,0.021407008171081543,-0.032178252935409546,0.033581316471099854,0.05276000499725342,-0.042441241443157196,-0.039862871170043945,-0.1455897092819214,0.0,0.0,0.0,0.0,0.12029766291379929,-0.05852537974715233,0.13790231943130493,-0.00505422567948699,-0.024101678282022476,0.004905072506517172,-0.005637753289192915,-0.025938544422388077,-0.012345250695943832,0.027936354279518127,0.02153652161359787,-0.07393023371696472,-0.33086565136909485,-0.33021947741508484,-0.24687035381793976,-0.17539238929748535,0.711584210395813,-0.20925742387771606,-0.7264289855957031,-4.291814804077148,0.7553145289421082,-0.3456515073776245,-0.5592166781425476,-0.30496299266815186,0.5936313271522522,1.988282322883606,0.24556922912597656,-0.5181795954704285,-1.3535001277923584,-1.097468614578247,-0.8153772950172424,-0.6528126001358032
1760498409.0900936,0.02,0.03525356203317642,-0.10136956721544266,-0.04224339500069618,0.004224255681037903,-0.023984208703041077,-0.9997034072875977,0.6143532991409302,-0.5200525522232056,-0.3020150661468506,-0.11477086693048477,0.049376726150512695,-0.13634425401687622,0.09154178202152252,0.027617454528808594,0.03233635425567627,-0.03902563080191612,0.0282745361328125,0.04434686899185181,-0.028850408270955086,-0.029060423374176025,-0.16419708728790283,0.0,0.0,0.0,0.0,0.07833071798086166,-0.059491463005542755,0.1033487543463707,-0.033164169639348984,-0.003237336641177535,0.03280715271830559,-0.02421261928975582,-0.008312132209539413,-0.026569614186882973,0.03631851077079773,0.029047569260001183,-0.033897992223501205,-0.3903901278972626,-0.4812746047973633,-0.28968411684036255,-0.1619543433189392,0.18449819087982178,-0.3034304082393646,-0.6387403011322021,-5.79102087020874,0.5594652891159058,-0.06681180745363235,-0.28660884499549866,-0.6065565347671509,0.7458463311195374,2.3671774864196777,0.18638116121292114,-0.6033801436424255,-1.3874646425247192,-1.6526075601577759,-1.388781189918518,-0.4861186742782593
1760498409.1468163,0.02,-0.018798187375068665,-0.07022948563098907,-0.06673439592123032,-0.001741013489663601,-0.024037733674049377,-0.9997095465660095,0.6143532991409302,-0.5200525522232056,-0.29965996742248535,-0.08911648392677307,0.023971080780029297,-0.09676676988601685,0.0743819922208786,0.02787536382675171,0.05001068115234375,-0.05147332698106766,0.02580195665359497,0.03833913803100586,-0.011498614214360714,-0.022011935710906982,-0.16456234455108643,0.0,0.0,0.0,0.0,0.0501827597618103,-0.05837707594037056,0.074027881026268,-0.049076925963163376,0.002995300805196166,0.04492993280291557,-0.03508404642343521,-0.006026699673384428,-0.01127213891595602,0.04776928573846817,0.010745787993073463,0.016026882454752922,-0.39595553278923035,-0.5135489702224731,-0.3380299508571625,-0.13448981940746307,0.5156868696212769,-0.32606232166290283,-0.46900227665901184,-6.764988899230957,0.45744025707244873,-0.016161181032657623,-0.5149394273757935,-0.8363744020462036,0.8572669625282288,2.440908908843994,0.004884906113147736,-0.6677462458610535,-1.427581548690796,-1.802627682685852,-1.5972493886947632,-0.3842650055885315
