vaithak/rl_training/csvs/data_obs_m20_keyboard_env_0.csv
timestamp,dt,base_ang_vel_0,base_ang_vel_1,base_ang_vel_2,projected_gravity_0,projected_gravity_1,projected_gravity_2,velocity_commands_0,velocity_commands_1,velocity_commands_2,joint_pos_0,joint_pos_1,joint_pos_2,joint_pos_3,joint_pos_4,joint_pos_5,joint_pos_6,joint_pos_7,joint_pos_8,joint_pos_9,joint_pos_10,joint_pos_11,joint_pos_12,joint_pos_13,joint_pos_14,joint_pos_15,joint_vel_0,joint_vel_1,joint_vel_2,joint_vel_3,joint_vel_4,joint_vel_5,joint_vel_6,joint_vel_7,joint_vel_8,joint_vel_9,joint_vel_10,joint_vel_11,joint_vel_12,joint_vel_13,joint_vel_14,joint_vel_15,actions_0,actions_1,actions_2,actions_3,actions_4,actions_5,actions_6,actions_7,actions_8,actions_9,actions_10,actions_11,actions_12,actions_13,actions_14,actions_15
1760539538.4305284,0.02,-0.000266830378677696,0.00034382674493826926,-0.0012782557168975472,-0.005176597274839878,0.02824919857084751,-0.9995875358581543,0.0,0.0,0.0,-0.02598603442311287,-0.02315741777420044,0.04388606548309326,-0.009580868296325207,0.0010989904403686523,-0.014325201511383057,-0.09558025747537613,-0.018060684204101562,0.015056192874908447,0.026240749284625053,-0.0189552903175354,0.033432602882385254,0.0,0.0,0.0,0.0,-0.0007689350168220699,0.00018426263704895973,-0.0009141700575128198,-0.0012742717517539859,-0.0008314306032843888,0.0015745675191283226,-9.463758033234626e-06,0.0002827606804203242,-0.00036605121567845345,-0.0004928333219140768,0.0002532972430344671,0.00012233360030222684,0.0004096979391761124,0.001293811248615384,0.0005583777092397213,-0.0025160021614283323,-0.011225108057260513,0.0019274652004241943,-0.2880752682685852,-0.0511191226541996,0.028017140924930573,-0.36708199977874756,0.4734809696674347,-0.16218122839927673,0.30024078488349915,-0.06486927717924118,-0.07299800962209702,0.2772759199142456,0.08084917813539505,-0.04751262441277504,-0.18883535265922546,0.014835461974143982
1760539538.4889598,0.02,-0.000264905858784914,0.00034382822923362255,-0.0012817273382097483,-0.005156666971743107,0.02825782634317875,-0.99958735704422,0.0,0.0,0.0,-0.026232752948999405,-0.023094534873962402,0.043523311614990234,-0.009824175387620926,0.0008408427238464355,-0.014068782329559326,-0.09576897323131561,-0.018124401569366455,0.015413165092468262,0.026050979271531105,-0.018801093101501465,0.0332828164100647,0.0,0.0,0.0,0.0,-0.0006646203109994531,1.2842751857533585e-05,-0.0006878967396914959,-0.001167279900982976,-0.0008261799812316895,0.001430393080227077,8.207801874959841e-05,0.00043146926327608526,-0.00046347230090759695,-0.00039355200715363026,0.00017547498282510787,0.0002487481397110969,0.0005934680229984224,0.0017572392243891954,-3.335857763886452e-05,-0.002520947949960828,-0.008438501507043839,0.002867192029953003,-0.28924405574798584,-0.050945673137903214,0.028101809322834015,-0.3654074966907501,0.4689338505268097,-0.16169767081737518,0.2992856204509735,-0.06735614687204361,-0.07371534407138824,0.2780967354774475,0.0822065994143486,-0.04521289840340614,-0.19039371609687805,0.01433439552783966
1760539538.5480547,0.02,-0.00036514937528409064,0.00035577366361394525,-0.001248563639819622,-0.00513521209359169,0.028270456939935684,-0.9995871186256409,0.5,0.0,0.0,-0.02643745020031929,-0.023078978061676025,0.043232083320617676,-0.010026868432760239,0.000596463680267334,-0.013872683048248291,-0.09592000395059586,-0.018130242824554443,0.015719830989837646,0.025898678228259087,-0.018683671951293945,0.03319275379180908,0.0,0.0,0.0,0.0,-0.0005613691173493862,-0.00016769776993896812,-0.00035536475479602814,-0.0010652100900188088,-0.0007786282803863287,0.001270068110898137,0.00016402386245317757,0.000558383297175169,-0.0005823061219416559,-0.0003027413913514465,0.00014749991532880813,0.00023933355987537652,0.0005289994296617806,0.0020312797278165817,-0.0003629711573012173,-0.002307557500898838,-0.006404820829629898,0.0037039518356323242,-0.2903222441673279,-0.05092189088463783,0.028214342892169952,-0.36386188864707947,0.464969664812088,-0.1614457070827484,0.29848766326904297,-0.0695750042796135,-0.07443218678236008,0.27880847454071045,0.0826842412352562,-0.043656740337610245,-0.19141575694084167,0.013921454548835754
1760539538.6029942,0.02,0.05018558353185654,0.011112120002508163,0.01307237334549427,-0.003979213535785675,0.024728666990995407,-0.9996863007545471,0.5,0.0,0.0,-0.025674713775515556,-0.017969489097595215,0.04571950435638428,-0.0056187910959124565,0.0070378780364990234,-0.002109050750732422,-0.09276845306158066,-0.013453245162963867,0.01968449354171753,0.029050739482045174,-0.010804355144500732,0.032444119453430176,0.0,0.0,0.0,0.0,0.0003707922005560249,0.017519818618893623,0.0058124251663684845,0.010747128166258335,0.023078439757227898,0.037033360451459885,0.00834026001393795,0.016738073900341988,0.0092902397736907,0.008445309475064278,0.026235416531562805,-0.005910247564315796,-0.21319632232189178,-0.26455315947532654,-0.11259249597787857,-0.12990041077136993,-0.4362124800682068,-0.10351863503456116,-0.3097253441810608,0.5422684550285339,0.312644362449646,-0.24688412249088287,0.061483725905418396,-0.3174028694629669,0.26167184114456177,0.1855059564113617,-0.4795992076396942,0.04661820828914642,-1.2827876806259155,-1.224277377128601,-1.5381731986999512,-1.3235077857971191
1760539538.7069962,0.02,0.015672480687499046,-0.0010148042347282171,0.03056878037750721,-0.0035584894940257072,0.022363808006048203,-0.9997435808181763,0.5,0.0,0.0,-0.029084201902151108,-0.010202765464782715,0.04802107810974121,-0.0024468861520290375,0.02091681957244873,0.011678218841552734,-0.09162149578332901,-0.005885720252990723,0.020305156707763672,0.03035186231136322,0.0004088282585144043,0.027754783630371094,0.0,0.0,0.0,0.0,-0.012774385511875153,0.019865749403834343,0.0027231560088694096,0.005864297039806843,0.03848443552851677,0.02855529822409153,-0.0006815613014623523,0.019162757322192192,-0.0019609839655458927,-0.00020408890850376338,0.027498310431838036,-0.014461020939052105,-0.2983405888080597,-0.3608649671077728,-0.10538973659276962,-0.1451149880886078,-0.5456860065460205,-0.19166341423988342,-0.36144566535949707,0.5058634281158447,0.18374240398406982,-0.2495390623807907,0.0025021135807037354,-0.3996146023273468,0.2525929808616638,0.30190810561180115,-0.4676501452922821,0.05605274438858032,-1.4900662899017334,-1.5765583515167236,-1.4344569444656372,-1.2324349880218506
1760539538.7985258,0.02,-0.011161965318024158,0.0012305239215493202,0.03659547492861748,-0.0035093510523438454,0.022847365587949753,-0.9997327923774719,0.5,0.0,0.0,-0.036383893340826035,-0.003438711166381836,0.04851067066192627,-0.001372550381347537,0.0370294451713562,0.01983356475830078,-0.09362714737653732,-0.00018399953842163086,0.01822119951248169,0.02854495495557785,0.009013235569000244,0.023176252841949463,0.0,0.0,0.0,0.0,-0.019017253071069717,0.014589676633477211,0.0001699509157333523,0.002271147444844246,0.04100866988301277,0.016793835908174515,-0.005746911279857159,0.010933124460279942,-0.00517283845692873,-0.005257022101432085,0.018371202051639557,-0.00944694597274065,-0.32866209745407104,-0.35822010040283203,-0.06423958390951157,-0.1341196447610855,-0.5361613035202026,-0.23024693131446838,-0.4221641421318054,0.43171557784080505,0.10347212105989456,-0.22135834395885468,0.06270280480384827,-0.4273821711540222,0.2127380073070526,0.34636762738227844,-0.46555447578430176,0.12392938137054443,-1.5396158695220947,-1.546728491783142,-1.2278867959976196,-1.0687509775161743
1760539538.8620317,0.02,-0.004273099824786186,0.011082686483860016,0.03649057447910309,-0.002856931649148464,0.023451056331396103,-0.9997209310531616,0.5,0.0,0.0,-0.04274305701255798,0.0006054043769836426,0.04911327362060547,0.0003128136449959129,0.05202460289001465,0.02520608901977539,-0.09514383971691132,0.0019138455390930176,0.016862034797668457,0.02714109607040882,0.014149963855743408,0.021525025367736816,0.0,0.0,0.0,0.0,-0.013616621494293213,0.007324592676013708,0.002299774205312133,0.005538152996450663,0.03629816696047783,0.012132016010582447,-0.002337830374017358,0.0019477090099826455,-0.0016379643930122256,-0.0022271068301051855,0.009600494056940079,-0.0006432289374060929,-0.33015426993370056,-0.3280939757823944,-0.03890964016318321,-0.12878380715847015,-0.4684327244758606,-0.2376439869403839,-0.5032290816307068,0.40489521622657776,0.06959319859743118,-0.18499980866909027,0.05746060609817505,-0.39709940552711487,0.1910918653011322,0.3479757308959961,-0.4563556909561157,0.17023079097270966,-1.5504627227783203,-1.4090949296951294,-1.1016454696655273,-1.0043798685073853
1760539538.9211197,0.02,0.003617970272898674,0.017208967357873917,0.03168552368879318,-0.0015904810279607773,0.023344967514276505,-0.9997261762619019,0.5,0.0,0.0,-0.046578388661146164,0.0017563700675964355,0.05082416534423828,0.00336647080257535,0.06479883193969727,0.029221057891845703,-0.09504762291908264,0.0014427900314331055,0.01644134521484375,0.027265168726444244,0.01651012897491455,0.022599756717681885,0.0,0.0,0.0,0.0,-0.007728941738605499,0.0004886407405138016,0.005032488610595465,0.008506814949214458,0.030387435108423233,0.009279041551053524,0.0016547179548069835,-0.0031396986450999975,-0.0007314588874578476,0.0016448869137093425,0.0035040879156440496,0.005304406862705946,-0.3212170898914337,-0.29783543944358826,-0.03216046094894409,-0.12867829203605652,-0.42277422547340393,-0.2450442612171173,-0.5912941694259644,0.4183059632778168,0.050993211567401886,-0.15286748111248016,-0.0010223090648651123,-0.34344974160194397,0.18495500087738037,0.3215772807598114,-0.45142409205436707,0.1878642737865448,-1.5491541624069214,-1.2900171279907227,-1.0434094667434692,-1.0050972700119019
1760539538.9809685,0.02,0.01043380331248045,0.018251635134220123,0.028174029663205147,-0.00015481002628803253,0.022846098989248276,-0.9997389912605286,0.0,0.0,0.0,-0.048865001648664474,0.0010911226272583008,0.05310869216918945,0.007275452371686697,0.07532262802124023,0.032068848609924316,-0.09389819949865341,-0.0007215738296508789,0.015441179275512695,0.02861074171960354,0.01694411039352417,0.024802088737487793,0.0,0.0,0.0,0.0,-0.004195779096335173,-0.0023456267081201077,0.005820541176944971,0.011125410906970501,0.024527473375201225,0.006869205739349127,0.00819834228605032,-0.005631448235362768,-0.011249367147684097,0.005025406368076801,-0.0002917777746915817,0.005884098820388317,-0.3102892339229584,-0.27451786398887634,0.00027140602469444275,-0.12772701680660248,-0.38800743222236633,-0.24432536959648132,-0.6607016324996948,0.4507974684238434,0.0355214849114418,-0.13149453699588776,-0.07974378764629364,-0.2962401509284973,0.19070474803447723,0.2753375470638275,-0.45624881982803345,0.18796393275260925,-1.5470737218856812,-1.2080808877944946,-1.0173704624176025,-1.0269616842269897
1760539539.0602777,0.02,-0.0870225802063942,0.008999903686344624,0.022258242592215538,0.00014241132885217667,0.02885737642645836,-0.9995835423469543,0.0,0.0,0.0,-0.05111124739050865,-0.00860750675201416,0.05515849590301514,0.0051025100983679295,0.07349413633346558,0.02047717571258545,-0.09832745045423508,-0.008981049060821533,0.010458946228027344,0.024077948182821274,0.005125641822814941,0.031220078468322754,0.0,0.0,0.0,0.0,-0.007826190441846848,-0.024619994685053825,0.004790669307112694,-0.007701918017119169,-0.012442240491509438,-0.03259323164820671,-0.01191683392971754,-0.026107190176844597,-0.010301316156983376,-0.01287760864943266,-0.039295364171266556,0.022721873596310616,0.009883761405944824,0.04569684714078903,0.0759589821100235,0.008673137985169888,-0.012374136596918106,-0.17664530873298645,-0.6153626441955566,-0.01471075788140297,-0.23925268650054932,-0.25691404938697815,0.24053508043289185,-0.1485424041748047,0.2509118914604187,-0.04503241926431656,-0.15186160802841187,0.42076998949050903,-0.10818029195070267,0.13992109894752502,0.3697547912597656,0.27979642152786255
1760539539.1140764,0.02,-0.005858385004103184,0.0021221362985670567,0.01214509829878807,0.00045516155660152435,0.03144470974802971,-0.9995054006576538,0.5,0.0,0.0,-0.049656983464956284,-0.018602490425109863,0.052675604820251465,0.00650706747546792,0.06458228826522827,0.0075206756591796875,-0.09831571578979492,-0.018963277339935303,0.008460283279418945,0.023970913141965866,-0.010439634323120117,0.03786236047744751,0.0,0.0,0.0,0.0,0.008837777189910412,-0.024322718381881714,-0.01006446685642004,0.00864217709749937,-0.025196775794029236,-0.030673807486891747,0.006403555162250996,-0.0233572069555521,-0.004038622602820396,0.005934329237788916,-0.0375799722969532,0.013988121412694454,0.04687798395752907,0.11191015690565109,0.023623591288924217,0.02891291119158268,0.06024407967925072,-0.040525883436203,-0.5970927476882935,-0.02927372232079506,-0.058555565774440765,-0.2720448076725006,0.3260175883769989,-0.07265014946460724,0.25861620903015137,-0.1141122356057167,-0.04927479475736618,0.37291187047958374,0.20633193850517273,0.4221287667751312,-0.03469838947057724,0.2179153710603714
1760539539.1731308,0.02,0.06627950817346573,0.018321869894862175,0.013481290079653263,0.002042485401034355,0.027034131810069084,-0.9996324181556702,0.5,0.0,0.0,-0.04128729924559593,-0.022039055824279785,0.05588042736053467,0.015894103795289993,0.06013047695159912,0.005238056182861328,-0.09085901081562042,-0.02198845148086548,0.011828780174255371,0.031414568424224854,-0.016575336456298828,0.04367882013320923,0.0,0.0,0.0,0.0,0.024523457512259483,-0.0028769467025995255,0.015217432752251625,0.02326894737780094,-0.003906525205820799,0.002871203701943159,0.02058183215558529,-0.0002911253832280636,0.008409187197685242,0.02018102817237377,-0.004747146740555763,0.011961685493588448,-0.1432318538427353,-0.10648061335086823,-0.13102766871452332,-0.1349124014377594,-0.34497418999671936,-0.12642204761505127,-0.6018694639205933,0.526986837387085,0.27145931124687195,-0.15095220506191254,-0.0377337783575058,-0.2360917627811432,0.23748832941055298,0.10306902974843979,-0.39722222089767456,0.15425729751586914,-1.3059470653533936,-0.677590548992157,-1.5202021598815918,-1.3680487871170044
1760539539.2784944,0.02,0.03361892327666283,0.0038800006732344627,0.022340985015034676,0.0029701292514801025,0.02305504120886326,-0.9997298121452332,0.5,0.0,0.0,-0.03479954972863197,-0.02004915475845337,0.06351339817047119,0.023677818477153778,0.0635385513305664,0.008940935134887695,-0.08482513576745987,-0.01908057928085327,0.010817170143127441,0.03758934512734413,-0.01392585039138794,0.04428815841674805,0.0,0.0,0.0,0.0,0.010576295666396618,0.007756642531603575,0.01859603449702263,0.015940671786665916,0.012169621884822845,0.00755400350317359,0.010821137577295303,0.01180002000182867,-0.008472143672406673,0.011095156893134117,0.0103532075881958,-0.0038620897103101015,-0.3046320378780365,-0.2443268746137619,-0.15852300822734833,-0.1944381594657898,-0.4324392080307007,-0.16598579287528992,-0.6085368394851685,0.5004563927650452,0.20171743631362915,-0.15678288042545319,-0.16588690876960754,-0.2752159535884857,0.25367140769958496,0.20240816473960876,-0.4060012698173523,0.11951862275600433,-1.5541768074035645,-1.0774024724960327,-1.5269129276275635,-1.396626591682434
1760539539.3805785,0.02,-0.013527466915547848,-0.004241442307829857,0.031831733882427216,0.0028485911898314953,0.022922413423657417,-0.9997332096099854,0.5,0.0,0.0,-0.03349998965859413,-0.01661372184753418,0.07175850868225098,0.02733919769525528,0.06983226537704468,0.010264396667480469,-0.08381479978561401,-0.013731658458709717,0.004668891429901123,0.038812994956970215,-0.010954678058624268,0.04024016857147217,0.0,0.0,0.0,0.0,0.0004317301500122994,0.008639547973871231,0.021721016615629196,0.005940545350313187,0.01667545549571514,0.0009321125107817352,-0.0014764253282919526,0.013229066506028175,-0.0167898740619421,-0.0008996581891551614,0.005550099536776543,-0.011459401808679104,-0.3264131247997284,-0.27689358592033386,-0.15570677816867828,-0.1681452989578247,-0.46114975214004517,-0.20686176419258118,-0.5920320749282837,0.4431261122226715,0.13466545939445496,-0.1823149174451828,-0.09063068777322769,-0.28120356798171997,0.25990527868270874,0.27049246430397034,-0.39277100563049316,0.15760841965675354,-1.551616907119751,-1.2028298377990723,-1.2523821592330933,-1.096885323524475
1760539539.4395113,0.02,-0.026412973180413246,0.0018714186735451221,0.034886036068201065,0.002821738366037607,0.024716490879654884,-0.9996905326843262,0.5,0.0,0.0,-0.03322049602866173,-0.01365041732788086,0.08123314380645752,0.02883334457874298,0.07621538639068604,0.009965300559997559,-0.08545847237110138,-0.010140478610992432,-0.0009931325912475586,0.03735596314072609,-0.010628700256347656,0.03628945350646973,0.0,0.0,0.0,0.0,-0.0003608024853747338,0.006695528980344534,0.025053933262825012,0.0026639301795512438,0.015405768528580666,-0.0007847257074899971,-0.00526067428290844,0.006093140691518784,-0.011107179336249828,-0.004912219010293484,-0.0017076466465368867,-0.007889914326369762,-0.3096292316913605,-0.27636954188346863,-0.14353464543819427,-0.15067464113235474,-0.4691423773765564,-0.2291787564754486,-0.6069135665893555,0.41825398802757263,0.1200493648648262,-0.18857695162296295,0.019841492176055908,-0.2962245047092438,0.26239728927612305,0.30461177229881287,-0.3671403229236603,0.18990254402160645,-1.4923888444900513,-1.1814957857131958,-1.1440784931182861,-0.9572862982749939
1760539539.4974046,0.02,-0.016490377485752106,0.007465337868779898,0.03231215476989746,0.0033018426038324833,0.026158250868320465,-0.9996523857116699,0.5,1.0,0.0,-0.03184864670038223,-0.010558724403381348,0.09081768989562988,0.030322741717100143,0.08149707317352295,0.00999748706817627,-0.08705013990402222,-0.009362936019897461,-0.003899812698364258,0.03589125722646713,-0.012228131294250488,0.033817291259765625,0.0,0.0,0.0,0.0,0.0032856434118002653,0.008511719293892384,0.022858215495944023,0.0035834703594446182,0.012149032205343246,0.0007224022992886603,-0.0037056913133710623,-0.0005502725252881646,-0.004769630264490843,-0.0035497990902513266,-0.005607829429209232,-0.004121852107346058,-0.29160910844802856,-0.2720056474208832,-0.1398310661315918,-0.15058138966560364,-0.45815980434417725,-0.2470552623271942,-0.6401075124740601,0.4231167733669281,0.1137038841843605,-0.1901237517595291,0.07999113202095032,-0.2897630035877228,0.2610650360584259,0.3178739845752716,-0.34073758125305176,0.19589315354824066,-1.439624309539795,-1.1603798866271973,-1.149644374847412,-0.9396526217460632
1760539539.556535,0.02,-0.14669491350650787,0.024046991020441055,-0.016399914398789406,0.00502431858330965,0.03683876246213913,-0.9993085861206055,0.5,1.0,0.0,-0.03812379017472267,-0.007862329483032227,0.10192537307739258,0.024160876870155334,0.0948646068572998,-0.0024074316024780273,-0.08050869405269623,0.0065804123878479,-0.028478145599365234,0.02967248298227787,-0.016823232173919678,0.05932420492172241,0.0,0.0,0.0,0.0,-0.014918491244316101,0.005477158818393946,0.02504013478755951,-0.019213274121284485,0.037095118314027786,-0.0343950055539608,0.03594406321644783,0.04860060289502144,-0.061454594135284424,-0.012326213531196117,-0.015453523956239223,0.08700701594352722,-0.4592891335487366,-0.2523978054523468,-0.22754152119159698,-0.3645331561565399,-0.661094069480896,-0.22120890021324158,0.21374264359474182,1.0756491422653198,0.20880445837974548,-0.7829911112785339,0.6292128562927246,0.38688430190086365,-0.13825219869613647,1.6130573749542236,-0.049569904804229736,0.8010997176170349,-2.245898723602295,-1.1180973052978516,-0.8705675005912781,-1.2059465646743774
1760539539.6156096,0.02,-0.0948655903339386,-0.013510989025235176,-0.0010489134583622217,0.005147920921444893,0.048288457095623016,-0.9988201856613159,0.5,1.0,0.0,-0.04174886271357536,-0.004572868347167969,0.10615110397338867,0.021249309182167053,0.10993167757987976,-0.035964787006378174,-0.07366571575403214,0.019064247608184814,-0.033103346824645996,0.02717340551316738,-0.03127396106719971,0.0990525484085083,0.0,0.0,0.0,0.0,0.0029530704487115145,0.008906612172722816,-0.00020450330339372158,0.006294564343988895,0.037093766033649445,-0.09667191654443741,0.011099227704107761,0.027833959087729454,-0.006624761503189802,0.0061865309253335,-0.03945717215538025,0.09094216674566269,-0.5592864751815796,-0.07672003656625748,-0.3045656383037567,-0.28875356912612915,-0.8824508786201477,-0.17011424899101257,0.3323318660259247,1.2523137331008911,0.23803141713142395,-1.0193190574645996,1.3922250270843506,0.2676102817058563,0.1090335100889206,1.3428009748458862,-0.2601919174194336,0.73136967420578,-2.4315431118011475,-0.42918458580970764,-0.8297259211540222,-1.0239907503128052
1760539539.6703203,0.02,-0.03418121859431267,-0.015466525219380856,0.013673117384314537,0.004260361194610596,0.054459452629089355,-0.9985069036483765,0.5,1.0,0.0,-0.0448138527572155,-0.0017202496528625488,0.10376513004302979,0.026897363364696503,0.12371194362640381,-0.0794980525970459,-0.06805023550987244,0.027487516403198242,-0.031239032745361328,0.03216477483510971,-0.051727354526519775,0.13948601484298706,0.0,0.0,0.0,0.0,-0.006991465575993061,0.005175733473151922,-0.011331169866025448,0.02090553008019924,0.025201717391610146,-0.09766846150159836,0.0243519376963377,0.019363341853022575,0.003973818384110928,0.02473350800573826,-0.0529661662876606,0.0993877574801445,-0.6188744306564331,-0.032166849821805954,-0.3160404860973358,-0.1921796351671219,-1.5545158386230469,-0.18676111102104187,0.4838305413722992,1.3523032665252686,0.4509134292602539,-1.0561577081680298,2.818023443222046,0.07610107213258743,0.2939318120479584,0.5934087634086609,-0.050033777952194214,0.7415892481803894,-2.5327341556549072,-0.09869865328073502,-1.0567569732666016,-0.6712009310722351
1760539539.728153,0.02,-0.052946820855140686,0.013330762274563313,0.02296510525047779,0.004661200568079948,0.06059296056628227,-0.9981516599655151,0.5,1.0,0.0,-0.06491871923208237,-0.0037375688552856445,0.10728287696838379,0.03386860340833664,0.13686946034431458,-0.12283492088317871,-0.06197249889373779,0.034033894538879395,-0.028026700019836426,0.029026461765170097,-0.061741650104522705,0.16878032684326172,0.0,0.0,0.0,0.0,-0.06367707252502441,-0.009293871931731701,0.016667308285832405,0.020151052623987198,0.025699017569422722,-0.08869785070419312,0.02019733563065529,0.01432634424418211,0.011248667724430561,-0.016178717836737633,-0.0010510453721508384,0.04166964814066887,-0.6000189781188965,-0.029463602229952812,-0.2732941806316376,-0.05568861588835716,-2.3740432262420654,-0.21406733989715576,0.6240757703781128,1.358180046081543,0.6520807147026062,-1.1118812561035156,4.754080295562744,-0.09223069995641708,0.4035417139530182,-0.4076894223690033,0.23229584097862244,0.7367892265319824,-2.384521245956421,-0.047970447689294815,-1.0721980333328247,-0.2508607506752014
1760539539.7869408,0.02,-0.03095543384552002,0.05458524450659752,0.035789117217063904,0.007584214210510254,0.06417574733495712,-0.9979097843170166,0.5,1.0,0.0,-0.10244907438755035,-0.005335032939910889,0.11057519912719727,0.04353270307183266,0.14922493696212769,-0.15490031242370605,-0.05403604730963707,0.0401613712310791,-0.025486350059509277,0.006065197754651308,-0.03289979696273804,0.13849925994873047,0.0,0.0,0.0,0.0,-0.1065969467163086,-0.0013835987774655223,0.0076455953530967236,0.022897936403751373,0.024103544652462006,-0.05383822321891785,0.021291028708219528,0.010623223148286343,0.019022423774003983,-0.07681632786989212,0.09307403862476349,-0.08998509496450424,-0.5602136850357056,-0.0906277447938919,-0.22152113914489746,0.05418264493346214,-2.4829208850860596,-0.18231579661369324,0.5727945566177368,0.8874602913856506,0.8507751226425171,-1.1306010484695435,6.307765483856201,-0.1786416471004486,0.3801819682121277,-1.2938708066940308,0.4439373016357422,0.6193519234657288,-2.207707166671753,-0.16152158379554749,-1.0478346347808838,0.2529551386833191
1760539539.8459191,0.02,0.036580368876457214,0.09341537952423096,0.029835548251867294,0.013609032146632671,0.06273429840803146,-0.9979375004768372,0.5,1.0,0.0,-0.15036310255527496,0.0006541013717651367,0.10234427452087402,0.05815702676773071,0.15836229920387268,-0.16931593418121338,-0.041379984468221664,0.0435563325881958,-0.017913341522216797,-0.03776635602116585,0.02866452932357788,0.06930160522460938,0.0,0.0,0.0,0.0,-0.12582455575466156,0.020381441339850426,-0.026060674339532852,0.04051115736365318,0.018324030563235283,-0.017136413604021072,0.03395580127835274,0.002156585454940796,0.03231358155608177,-0.12610730528831482,0.15758833289146423,-0.14405690133571625,-0.5367193818092346,-0.11988933384418488,-0.17569968104362488,0.12567998468875885,-2.5311808586120605,-0.07700580358505249,0.4917062819004059,0.29655328392982483,1.132100224494934,-1.0624595880508423,7.222047328948975,-0.17759796977043152,0.3216090202331543,-1.7486058473587036,0.6389480233192444,0.36534935235977173,-2.1253130435943604,-0.19329038262367249,-0.9821361899375916,0.6040827035903931
1760539539.9044616,0.02,0.09389378875494003,0.11773903667926788,0.01754680648446083,0.02202991023659706,0.05628467723727226,-0.9981716871261597,0.5,0.0,0.0,-0.20270119607448578,0.016050517559051514,0.07906222343444824,0.07805129140615463,0.16388604044914246,-0.16550105810165405,-0.022903218865394592,0.04652106761932373,-0.00991964340209961,-0.099078468978405,0.10535311698913574,-0.005270719528198242,0.0,0.0,0.0,0.0,-0.13192985951900482,0.04279009997844696,-0.06304679811000824,0.05323251709342003,0.01042911782860756,0.02342299185693264,0.04756617173552513,0.0041444688104093075,0.0279818307608366,-0.16620799899101257,0.18159200251102448,-0.1416066735982895,-0.5405790209770203,-0.17166760563850403,-0.14368580281734467,0.16141243278980255,-2.6651546955108643,0.046012356877326965,0.3635515570640564,-0.13152581453323364,1.3987572193145752,-0.9418865442276001,7.137092113494873,-0.08795055001974106,0.30675897002220154,-1.9188307523727417,0.6846716403961182,0.006331220269203186,-2.1570346355438232,-0.2949608862400055,-0.8935757875442505,0.7486347556114197
1760539539.9605398,0.02,0.5125247836112976,0.10712781548500061,-0.003074357518926263,0.031196381896734238,0.021631579846143723,-0.9992791414260864,0.5,0.0,0.0,-0.21336275339126587,0.045501530170440674,0.012326717376708984,0.12064631283283234,0.15171945095062256,-0.11588865518569946,0.02623125910758972,0.03974539041519165,-0.0027855634689331055,-0.1209864690899849,0.13481873273849487,0.008619129657745361,0.0,0.0,0.0,0.0,0.010767723433673382,0.07509573549032211,-0.18913432955741882,0.12520186603069305,-0.03643851354718208,0.13385938107967377,0.14209720492362976,-0.021375907585024834,0.0008905643480829895,-0.015887733548879623,0.015393598936498165,0.11524597555398941,-0.45561620593070984,-0.3200928270816803,0.06003720313310623,0.17173099517822266,-0.7775934338569641,0.14243178069591522,-0.4638361632823944,-1.194171667098999,0.6420793533325195,-0.4857049882411957,2.399017810821533,-0.4370248019695282,0.06932345032691956,0.10125524550676346,-0.21318599581718445,-0.05553637444972992,-1.7430737018585205,-1.3196882009506226,-0.8881499171257019,0.7093985676765442
1760539540.0172174,0.02,0.16395078599452972,0.14330404996871948,-0.017851680517196655,0.04135003685951233,-0.004065534099936485,-0.9991364479064941,0.5,1.0,0.0,-0.20578321814537048,0.07416379451751709,-0.06093710660934448,0.15889392793178558,0.15046116709709167,-0.081714928150177,0.06892992556095123,0.036831676959991455,0.0021650195121765137,-0.08773314207792282,0.1325100064277649,0.024007976055145264,0.0,0.0,0.0,0.0,0.013557910919189453,0.0625971183180809,-0.1616450399160385,0.07035844027996063,0.0212986059486866,0.03351641446352005,0.07795172929763794,0.00437739584594965,0.00950011145323515,0.07590675354003906,-0.04293154552578926,0.05860025808215141,-0.5071555376052856,-0.34950414299964905,-0.1196395754814148,-0.009835347533226013,0.03610759600996971,0.30517739057540894,-0.5294817090034485,-1.5513873100280762,0.5734299421310425,-0.5596210956573486,0.29881492257118225,-0.1576744019985199,0.2030210793018341,0.6223883628845215,-0.13204896450042725,0.1454302817583084,-2.0328292846679688,-1.5302871465682983,-1.7404606342315674,0.4005877375602722
1760539540.0726175,0.02,0.012100717052817345,0.08851891756057739,0.025964679196476936,0.04889559745788574,-0.010789179243147373,-0.9987456202507019,0.5,1.0,0.0,-0.1694730520248413,0.0862586498260498,-0.10252112150192261,0.18602582812309265,0.15924400091171265,-0.08635663986206055,0.09168709069490433,0.06868410110473633,-0.05380260944366455,-0.06183185800909996,0.11232399940490723,0.04059523344039917,0.0,0.0,0.0,0.0,0.12471594661474228,0.016419989988207817,-0.07677394896745682,0.05890507251024246,0.03165222704410553,-0.03975880891084671,0.03469453006982803,0.09194023162126541,-0.13928410410881042,0.051793601363897324,-0.05769629403948784,0.0477919839322567,-0.5803031921386719,-0.17556162178516388,-0.15533415973186493,0.0531611442565918,1.8796826601028442,0.2672414481639862,-0.6251219511032104,-0.7219514846801758,0.7790777087211609,-0.7247612476348877,-1.169863224029541,0.8003427982330322,-0.3485066294670105,0.7284823060035706,0.024516552686691284,0.44582515954971313,-2.372821807861328,-0.7471209764480591,-0.5494269728660583,0.24495293200016022
1760539540.1297324,0.02,0.015341050922870636,0.08369266241788864,-0.011480586603283882,0.05654144287109375,-0.01037933025509119,-0.9983463287353516,0.5,1.0,0.0,-0.1251356452703476,0.05217951536178589,-0.03297489881515503,0.20753872394561768,0.1758996844291687,-0.11557537317276001,0.09977628290653229,0.08804589509963989,-0.07040929794311523,-0.039570484310388565,0.08309435844421387,0.08814632892608643,0.0,0.0,0.0,0.0,0.11787458509206772,-0.10989122837781906,0.22594714164733887,0.0607299879193306,0.0513109527528286,-0.10024163872003555,0.017743399366736412,0.03293997794389725,-0.015675410628318787,0.06306099891662598,-0.0769125446677208,0.13172277808189392,-0.6276184320449829,-0.07582825422286987,-0.06289412826299667,-0.14944712817668915,2.9915201663970947,0.03258705139160156,-0.7358020544052124,-1.0592811107635498,0.47741878032684326,-0.7983921766281128,-1.204421043395996,0.4742062985897064,-0.35341569781303406,0.8714030981063843,-0.3691239655017853,0.7244802117347717,-2.495728015899658,-0.5207758545875549,-0.22725889086723328,-0.8901903033256531
1760539540.1870646,0.02,0.10013622790575027,-0.01812313124537468,-0.0005567193729802966,0.05834096670150757,-0.01717885583639145,-0.9981489181518555,0.5,1.0,0.0,-0.06913886219263077,0.022593259811401367,0.03492379188537598,0.22878149151802063,0.1882576048374176,-0.15496575832366943,0.10426323115825653,0.09565383195877075,-0.07076656818389893,-0.0087314173579216,0.053695857524871826,0.13442564010620117,0.0,0.0,0.0,0.0,0.14687716960906982,-0.05220125988125801,0.1359989494085312,0.03832371160387993,0.015435173176229,-0.09324513375759125,0.0008050344185903668,0.01376217883080244,-0.0002981318102683872,0.07907909899950027,-0.06980236619710922,0.09769576042890549,-0.5932071805000305,-0.11017445474863052,0.0025961340870708227,-0.1796625256538391,3.9501395225524902,0.4280673563480377,-0.7812484502792358,-1.283639669418335,0.16822907328605652,-0.8417567610740662,-1.3848671913146973,0.5622241497039795,-0.29663121700286865,0.3101041615009308,-0.40766021609306335,0.699598491191864,-2.5739095211029053,-0.4330797493457794,0.01839635521173477,-1.2313190698623657
1760539540.2444704,0.02,0.05928907170891762,-0.12874546647071838,-0.0014767195098102093,0.051701344549655914,-0.024045724421739578,-0.9983730912208557,0.5,1.0,0.0,-0.0037590404972434044,0.003611326217651367,0.07900345325469971,0.2216663360595703,0.17248675227165222,-0.1582045555114746,0.09394187480211258,0.08993023633956909,-0.06404447555541992,0.0217105932533741,0.027698278427124023,0.16492557525634766,0.0,0.0,0.0,0.0,0.16806946694850922,-0.041659798473119736,0.08433060348033905,-0.0499422512948513,-0.062499213963747025,0.016596099361777306,-0.043918412178754807,-0.024973193183541298,0.0126657634973526,0.06989946216344833,-0.0596068874001503,0.05378217250108719,-0.6324907541275024,-0.13945205509662628,0.06769504398107529,-0.21723027527332306,4.246732234954834,0.14748695492744446,-0.786953330039978,-1.5239254236221313,0.16068512201309204,-0.690955400466919,-1.4946209192276,0.333502858877182,-0.2948642075061798,0.3762545883655548,-0.3883591890335083,0.756682276725769,-2.6098716259002686,-0.5782003998756409,0.24875408411026,-1.3942468166351318
1760539540.2992554,0.02,-0.034814104437828064,-0.21702158451080322,-0.016435950994491577,0.03722720220685005,-0.023033805191516876,-0.9990413188934326,0.5,1.0,0.0,0.05310720577836037,-0.011360228061676025,0.10727059841156006,0.17093075811862946,0.12794047594070435,-0.11424446105957031,0.06162291765213013,0.0722387433052063,-0.055281996726989746,0.043442994356155396,0.010469436645507812,0.16767460107803345,0.0,0.0,0.0,0.0,0.12600509822368622,-0.030521033331751823,0.056355345994234085,-0.15384294092655182,-0.1222420260310173,0.11726105213165283,-0.09517518430948257,-0.0505695603787899,0.01652965508401394,0.04933725297451019,-0.0357479564845562,-0.013794091530144215,-0.6467450857162476,-0.16712774336338043,0.07974179089069366,-0.2112272083759308,3.862837076187134,0.11932983994483948,-0.7751647233963013,-1.342081069946289,0.046431414783000946,-0.4136064946651459,-1.9056499004364014,0.283042848110199,-0.24397212266921997,0.5196632146835327,-0.359133780002594,0.7622469663619995,-2.749680519104004,-0.7317624688148499,0.30245038866996765,-1.2419692277908325
1760539540.3566992,0.02,-0.041283078491687775,-0.2599142789840698,-0.021309763193130493,0.0178857259452343,-0.019561022520065308,-0.9996486902236938,0.5,1.0,0.0,0.0975855141878128,-0.013322770595550537,0.11723637580871582,0.09636519849300385,0.07457798719406128,-0.061539530754089355,0.017135532572865486,0.04527103900909424,-0.03937804698944092,0.06251610070466995,-0.0014619827270507812,0.15569812059402466,0.0,0.0,0.0,0.0,0.10670142620801926,0.010691040195524693,0.004520138259977102,-0.192733034491539,-0.12718956172466278,0.10546749830245972,-0.11560063809156418,-0.06845884770154953,0.03417086973786354,0.048659663647413254,-0.024844542145729065,-0.04161801561713219,-0.6521016955375671,-0.22994069755077362,0.11101455986499786,-0.2166386842727661,3.464482069015503,0.12633487582206726,-0.6777424812316895,-0.7916176915168762,-0.10739611834287643,-0.21805204451084137,-2.2682278156280518,0.20832854509353638,-0.15254651010036469,0.4357650578022003,-0.5784484148025513,0.720314085483551,-2.7761783599853516,-1.0736826658248901,0.4288937449455261,-1.3210419416427612
1760539540.4190495,0.02,-0.04846318066120148,-0.2500148415565491,-0.02450995147228241,-0.0021784803830087185,-0.01523369736969471,-0.9998815655708313,0.5,1.0,0.0,0.13462699949741364,-0.0018854737281799316,0.1135796308517456,0.016055716201663017,0.0283699631690979,-0.02773672342300415,-0.031276486814022064,0.015837013721466064,-0.01649177074432373,0.08177221566438675,-0.011534571647644043,0.1439502239227295,0.0,0.0,0.0,0.0,0.08958249539136887,0.03843633830547333,-0.01867830380797386,-0.19595777988433838,-0.10287106037139893,0.05390879511833191,-0.11855737119913101,-0.0668465793132782,0.04821962118148804,0.05095022916793823,-0.023138118907809258,-0.029288053512573242,-0.6468467116355896,-0.3136150538921356,0.16265679895877838,-0.25545188784599304,3.0405211448669434,0.09255298972129822,-0.5975236892700195,-0.4652334749698639,-0.18259188532829285,-0.08864115923643112,-2.3603851795196533,0.18985509872436523,-0.01439642533659935,0.4986492693424225,-0.9078798890113831,0.6684856414794922,-2.6757090091705322,-1.4364750385284424,0.6359800696372986,-1.6589218378067017
1760539540.4770226,0.02,-0.0832689106464386,-0.21257755160331726,-0.01656942069530487,-0.019828595221042633,-0.010042620822787285,-0.999752938747406,0.5,1.0,0.0,0.16638100147247314,0.016232609748840332,0.10607147216796875,-0.04725863039493561,-0.011937975883483887,0.0005136728286743164,-0.07744321972131729,-0.009582877159118652,0.009473860263824463,0.10221629589796066,-0.025089740753173828,0.14199739694595337,0.0,0.0,0.0,0.0,0.07285120338201523,0.04844270274043083,-0.02306654118001461,-0.1474153846502304,-0.08461394906044006,0.03554784134030342,-0.11353478580713272,-0.05282971262931824,0.05124106630682945,0.04965914785861969,-0.03886813297867775,0.004321414045989513,-0.6576659679412842,-0.38300690054893494,0.18073752522468567,-0.25187671184539795,2.7438697814941406,0.04548320174217224,-0.5684499740600586,-0.31966927647590637,-0.2662493884563446,0.01318026427179575,-2.321368455886841,0.137582927942276,0.10900883376598358,0.6715418100357056,-1.3427257537841797,0.6223140358924866,-2.6648807525634766,-1.744158387184143,0.7023193836212158,-1.8738332986831665
1760539540.5333362,0.02,-0.13171307742595673,-0.15688394010066986,-0.026285693049430847,-0.03361163288354874,0.00035241805016994476,-0.9994348883628845,0.5,1.0,0.0,0.18550755083560944,0.03532665967941284,0.0985870361328125,-0.09949785470962524,-0.037024617195129395,0.004789590835571289,-0.11935708671808243,-0.029485344886779785,0.038117289543151855,0.11998876929283142,-0.04780387878417969,0.1591125726699829,0.0,0.0,0.0,0.0,0.040100909769535065,0.04672261327505112,-0.018889708444476128,-0.11387240886688232,-0.05192582681775093,-0.004539745394140482,-0.09274225682020187,-0.03838164359331131,0.05716939643025398,0.04698137566447258,-0.0614318922162056,0.05025186017155647,-0.6480260491371155,-0.4326516091823578,0.13787223398685455,-0.2239384651184082,2.096876621246338,0.02655819058418274,-0.44809690117836,-0.25189831852912903,-0.24633464217185974,0.045595087110996246,-1.6584782600402832,0.05885665863752365,0.24783092737197876,0.8371692299842834,-1.6160914897918701,0.6309579014778137,-2.6787922382354736,-1.8121877908706665,0.5251045823097229,-1.9288614988327026
1760539540.5942101,0.02,-0.3158113360404968,-0.11504160612821579,-0.06296904385089874,-0.043670523911714554,0.02323349565267563,-0.9987757802009583,0.5,1.0,0.0,0.17284178733825684,0.04944932460784912,0.09577786922454834,-0.12064595520496368,-0.03674572706222534,-0.035869598388671875,-0.15491709113121033,-0.05649566650390625,0.09089326858520508,0.12834499776363373,-0.08187353610992432,0.19808119535446167,0.0,0.0,0.0,0.0,-0.059496618807315826,0.02636423148214817,2.608706745377276e-05,-0.0216115340590477,0.020201465114951134,-0.13188457489013672,-0.06993904709815979,-0.06284165382385254,0.11621873825788498,0.012056753039360046,-0.07723947614431381,0.08152315765619278,-0.6588385701179504,-0.37935590744018555,0.060519661754369736,-0.21040256321430206,-0.5314369201660156,0.008622854948043823,0.2564859390258789,0.6278870701789856,-0.13705503940582275,-0.3140360713005066,0.7826584577560425,-0.2678968906402588,0.5554085969924927,0.8009162545204163,-1.464099645614624,0.6077157855033875,-2.668795108795166,-1.6047289371490479,0.18453863263130188,-1.7581526041030884
1760539540.6526875,0.02,-0.2137688398361206,0.005195047706365585,0.036710649728775024,-0.046479232609272,0.043826036155223846,-0.9979574084281921,0.5,0.0,0.0,0.14018818736076355,0.05437898635864258,0.11042797565460205,-0.11039382964372635,-0.01605045795440674,-0.08536237478256226,-0.14535918831825256,-0.020726025104522705,0.0269811749458313,0.12617506086826324,-0.11210057139396667,0.22250372171401978,0.0,0.0,0.0,0.0,-0.0937192514538765,0.004573879297822714,0.04907838627696037,0.03387613222002983,0.05531769618391991,-0.09772717207670212,0.025943893939256668,0.1012306734919548,-0.1406760811805725,-0.01861368678510189,-0.06877905130386353,0.02443688176572323,-0.6821805238723755,-0.24509039521217346,-0.3248828947544098,-0.27081337571144104,-1.0440113544464111,-0.15398409962654114,0.487611323595047,1.072084665298462,-0.09455015510320663,-0.9281590580940247,3.2131729125976562,0.1610892117023468,0.7456514239311218,0.12397884577512741,-0.8245407938957214,0.6888614296913147,-2.7659847736358643,-1.431122064590454,-0.3111462891101837,-1.2012897729873657
1760539540.7070541,0.02,0.14646822214126587,0.10545775294303894,0.09703445434570312,-0.04206949472427368,0.034915752708911896,-0.9985044002532959,0.5,0.0,0.0,0.12319241464138031,0.04736316204071045,0.10831224918365479,-0.07128747552633286,-0.00541001558303833,-0.09106755256652832,-0.11160533130168915,0.004660248756408691,-0.008605360984802246,0.13196519017219543,-0.09814953804016113,0.12329268455505371,0.0,0.0,0.0,0.0,-0.0461202971637249,-0.03288260102272034,-0.014786220155656338,0.10113245248794556,0.023264601826667786,0.011776911094784737,0.08817881345748901,0.042366813868284225,-0.05118219926953316,0.0008306464296765625,0.03315875679254532,-0.2507821023464203,-0.4622144401073456,-0.41166695952415466,-0.21430563926696777,-0.1721663922071457,0.18542027473449707,-0.6389832496643066,-0.44640764594078064,-0.6293686628341675,0.028180770576000214,-0.5114367008209229,1.8245102167129517,-0.795243501663208,0.6050155162811279,0.7487654089927673,-0.45905977487564087,0.28009891510009766,-1.729902982711792,-2.4038314819335938,-0.7554132342338562,-0.6430404782295227
1760539540.7648199,0.02,0.11597289890050888,0.14379139244556427,0.06138714402914047,-0.03160056099295616,0.02438262104988098,-0.9992031455039978,0.5,0.0,0.0,0.10223399847745895,0.025080382823944092,0.11130690574645996,-0.03340680152177811,0.008241772651672363,-0.07875651121139526,-0.07825794070959091,0.012055397033691406,-0.02588033676147461,0.13098210096359253,-0.10165241360664368,0.07251483201980591,0.0,0.0,0.0,0.0,-0.05743144080042839,-0.06531829386949539,0.017779847607016563,0.0888047143816948,0.040721580386161804,0.03430051729083061,0.08197351545095444,0.008249408565461636,-0.04234558343887329,-0.007096452172845602,-0.03490455076098442,-0.04892652854323387,-0.3981401324272156,-0.5738191604614258,-0.054659027606248856,-0.21754418313503265,0.36016061902046204,-0.27540937066078186,-0.36590880155563354,-0.7008683085441589,0.0893295481801033,-0.48018792271614075,0.9472630023956299,-0.8386343717575073,0.04085436090826988,1.2902746200561523,-0.1325620710849762,0.40214359760284424,-1.6688764095306396,-2.9054009914398193,-1.5461184978485107,-0.7671148180961609
1760539540.818512,0.02,0.03142602741718292,0.14507292211055756,0.04291810095310211,-0.019957490265369415,0.020306644961237907,-0.9995945692062378,0.5,0.0,0.0,0.07055730372667313,0.003246784210205078,0.11253595352172852,-0.004631063900887966,0.02336108684539795,-0.059689223766326904,-0.052814096212387085,0.011145174503326416,-0.04056119918823242,0.11823505908250809,-0.11259430646896362,0.058668553829193115,0.0,0.0,0.0,0.0,-0.08698492497205734,-0.046361371874809265,-0.009942030534148216,0.06538859754800797,0.035014521330595016,0.052554912865161896,0.06112798675894737,-0.006079150829464197,-0.03932430222630501,-0.04156363382935524,-0.023982886224985123,-0.021112123504281044,-0.41792964935302734,-0.6062889099121094,0.0016582281095907092,-0.19905315339565277,0.03056865558028221,-0.07176712155342102,-0.30191031098365784,-0.3588204085826874,0.022264845669269562,-0.4364951550960541,0.6110544204711914,-0.741124153137207,-0.020773474127054214,1.050907850265503,-0.025432586669921875,0.3057609796524048,-1.7821695804595947,-2.506899356842041,-1.6032778024673462,-0.7591916918754578
1760539540.8751118,0.02,-0.002769026905298233,0.14409470558166504,0.04298901930451393,-0.00850667990744114,0.02094443328678608,-0.9997444748878479,0.5,0.0,0.0,0.030686749145388603,-0.008250951766967773,0.10128617286682129,0.0172991044819355,0.03695869445800781,-0.04437142610549927,-0.034088026732206345,0.006994843482971191,-0.050369858741760254,0.09301038831472397,-0.11148673295974731,0.04251420497894287,0.0,0.0,0.0,0.0,-0.09979676455259323,-0.018190674483776093,-0.04000723361968994,0.0542890727519989,0.03366729989647865,0.03664965555071831,0.04810750111937523,-0.012073282152414322,-0.019964762032032013,-0.06717458367347717,0.014369760639965534,-0.038437116891145706,-0.44811496138572693,-0.5397459864616394,-0.031633589416742325,-0.18513481318950653,-0.2323085069656372,-0.018737241625785828,-0.30240336060523987,-0.10319063067436218,0.1272149384021759,-0.4593181014060974,0.4444088637828827,-0.5580389499664307,0.06589086353778839,0.8999934196472168,0.10365930199623108,0.25062698125839233,-1.8733785152435303,-2.2211194038391113,-1.4816911220550537,-0.7030463218688965
1760539540.9329395,0.02,0.013144105672836304,0.1469273865222931,0.04701126366853714,0.003117332700639963,0.021189481019973755,-0.9997706413269043,0.5,0.0,0.0,-0.008845208212733269,-0.010210871696472168,0.08073663711547852,0.03823486343026161,0.04883807897567749,-0.03191453218460083,-0.016569416970014572,0.002369701862335205,-0.05458223819732666,0.06385668367147446,-0.098713219165802,0.031194984912872314,0.0,0.0,0.0,0.0,-0.0933401808142662,0.0028165101539343596,-0.0581151507794857,0.05488329753279686,0.027540693059563637,0.03203215450048447,0.04654059186577797,-0.005694330204278231,-0.02002217434346676,-0.07183582335710526,0.03952715918421745,-0.016120022162795067,-0.4626200199127197,-0.4811979830265045,-0.05804843455553055,-0.1910313218832016,-0.34225064516067505,-0.0069008469581604,-0.41139349341392517,-0.06420972943305969,0.19087040424346924,-0.43684935569763184,0.28318893909454346,-0.3765809237957001,0.13382083177566528,0.8438292741775513,0.16516146063804626,0.23314477503299713,-1.8997340202331543,-1.9578800201416016,-1.3037790060043335,-0.7189775705337524
1760539540.9897256,0.02,0.05400677025318146,0.13228431344032288,0.06495384871959686,0.014455817639827728,0.018618181347846985,-0.9997221827507019,0.5,0.0,0.0,-0.037967193871736526,-0.012044727802276611,0.06912064552307129,0.06139427050948143,0.058582305908203125,-0.022897064685821533,0.0016135841142386198,-0.00045680999755859375,-0.0558013916015625,0.03598187491297722,-0.08214938640594482,0.03771466016769409,0.0,0.0,0.0,0.0,-0.056165870279073715,-0.008310840465128422,-0.015758952125906944,0.06216255575418472,0.023299142718315125,0.01743742637336254,0.049128469079732895,-0.006306369788944721,-0.0022864104248583317,-0.06481389701366425,0.04463070258498192,0.02714907005429268,-0.46439170837402344,-0.4306893050670624,-0.12385016679763794,-0.21018484234809875,-0.2685653269290924,-0.0036839544773101807,-0.6338002681732178,-0.16321071982383728,0.25112807750701904,-0.3850443363189697,0.0486370325088501,-0.19850173592567444,0.18955053389072418,0.7555863857269287,0.12415243685245514,0.2447681725025177,-1.877937912940979,-1.7621134519577026,-1.1189403533935547,-0.8108968138694763
1760539541.0438066,0.02,0.04386410862207413,0.09608117491006851,0.05411192774772644,0.023118942975997925,0.014243800193071365,-0.9996312260627747,0.5,0.0,0.0,-0.05259407311677933,-0.017341792583465576,0.0651785135269165,0.08537056297063828,0.06733894348144531,-0.022302627563476562,0.0202331580221653,-0.002534210681915283,-0.05737137794494629,0.020650500431656837,-0.06632697582244873,0.048497557640075684,0.0,0.0,0.0,0.0,-0.02782651223242283,-0.015651119872927666,-0.0055650630965828896,0.056534476578235626,0.023626618087291718,-0.007520139217376709,0.045019861310720444,-0.0027285926043987274,-0.010207890532910824,-0.017469925805926323,0.041269611567258835,0.0078020403161644936,-0.4315050542354584,-0.37984684109687805,-0.16041448712348938,-0.26844894886016846,-0.11860856413841248,0.0047273337841033936,-0.8844203948974609,-0.2577904164791107,0.2696065902709961,-0.28204628825187683,-0.16339153051376343,-0.03479250520467758,0.14370079338550568,0.6958290338516235,-0.010175831615924835,0.3328954577445984,-1.77200186252594,-1.5524646043777466,-0.9124587774276733,-0.7657787203788757
1760539541.0975957,0.02,0.01074555516242981,0.06289022415876389,0.03431813046336174,0.02923130989074707,0.012101995758712292,-0.9994994401931763,0.5,0.0,0.0,-0.056962963193655014,-0.02505362033843994,0.0697171688079834,0.10409397631883621,0.07655155658721924,-0.028220713138580322,0.03620216250419617,-0.0016527175903320312,-0.0627831220626831,0.025690782815217972,-0.06077641248703003,0.06615191698074341,0.0,0.0,0.0,0.0,-0.0027679603081196547,-0.020286841318011284,0.021576274186372757,0.03762027248740196,0.02263895981013775,-0.016851840540766716,0.036571551114320755,0.006258110981434584,-0.020914923399686813,0.023087291046977043,6.669470894848928e-05,0.05965016409754753,-0.36356061697006226,-0.3533349931240082,-0.21725407242774963,-0.2829854488372803,0.08314129710197449,0.1680566370487213,-1.0527490377426147,-0.0371270515024662,0.16878247261047363,-0.17223472893238068,-0.6423311233520508,0.147294819355011,0.05480178818106651,0.5482085943222046,-0.09798859059810638,0.4534619450569153,-1.5319944620132446,-1.447095513343811,-0.7893720269203186,-0.6588473916053772
1760539541.1550589,0.02,-0.005893847905099392,0.0021878990810364485,0.024921728298068047,0.03131081908941269,0.011641042307019234,-0.999441921710968,0.5,0.0,0.0,-0.04888031631708145,-0.03455168008804321,0.0855339765548706,0.10716363042593002,0.07825928926467896,-0.02236992120742798,0.04900464043021202,0.003930568695068359,-0.07626187801361084,0.03710848465561867,-0.06608349084854126,0.08335357904434204,0.0,0.0,0.0,0.0,0.039098065346479416,-0.029499251395463943,0.05923685431480408,-0.010521582327783108,-0.001748075126670301,0.020096473395824432,0.028447598218917847,0.01837056688964367,-0.04401165992021561,0.026241427287459373,-0.019880076870322227,0.0321262888610363,-0.35509538650512695,-0.3550165295600891,-0.2727474868297577,-0.2552565336227417,0.24098140001296997,0.24714013934135437,-1.2142828702926636,0.45705166459083557,0.07309497147798538,-0.03566708415746689,-1.371976613998413,0.2481117844581604,-0.0785810649394989,0.37829527258872986,-0.08487860858440399,0.5279642939567566,-1.3173630237579346,-1.4550505876541138,-0.8839899897575378,-0.4477418065071106
1760539541.2129843,0.02,-0.020766152068972588,-0.04067905247211456,0.005862632766366005,0.029325008392333984,0.012943525798618793,-0.9994861483573914,0.5,0.0,0.0,-0.03870198875665665,-0.042172253131866455,0.09715437889099121,0.09522583335638046,0.07293850183486938,-0.0008797645568847656,0.05518718436360359,0.011362731456756592,-0.09310805797576904,0.0457753986120224,-0.07772380113601685,0.08878105878829956,0.0,0.0,0.0,0.0,0.022279486060142517,-0.01545380987226963,0.019212989136576653,-0.03864564746618271,-0.012166501022875309,0.05242043733596802,0.00986634474247694,0.01894831843674183,-0.041979435831308365,0.0191233791410923,-0.032496239989995956,0.00548791466280818,-0.3365618884563446,-0.3603506088256836,-0.27581819891929626,-0.19068560004234314,0.21843817830085754,0.22656217217445374,-1.3447805643081665,0.9578792452812195,0.16140684485435486,0.09520835429430008,-2.004570484161377,0.22650375962257385,-0.2054414451122284,0.4151358902454376,0.014235295355319977,0.6433879733085632,-1.2483786344528198,-1.4949182271957397,-0.9443170428276062,-0.1693417876958847
1760539541.2709048,0.02,0.03338967636227608,-0.06502381712198257,-0.011788692325353622,0.024834230542182922,0.011338298209011555,-0.9996272921562195,0.5,0.0,0.0,-0.02820676751434803,-0.04496365785598755,0.0977940559387207,0.08293016999959946,0.07137733697891235,0.01499021053314209,0.05549691617488861,0.01639479398727417,-0.10284936428070068,0.05639726296067238,-0.08825349807739258,0.08526211977005005,0.0,0.0,0.0,0.0,0.02704063430428505,-0.0031316950917243958,-0.00614908104762435,-0.027754483744502068,0.0033284153323620558,0.02472970448434353,-0.006857979577034712,0.009055094793438911,-0.014644317328929901,0.028681596741080284,-0.02337372675538063,-0.014439873397350311,-0.33732765913009644,-0.3775670528411865,-0.26608404517173767,-0.1755378693342209,0.5110100507736206,0.17837116122245789,-1.3391205072402954,1.2468106746673584,0.17306742072105408,0.1174863651394844,-2.475904703140259,0.210107684135437,-0.3310313820838928,0.5058398842811584,0.07981671392917633,0.7466749548912048,-1.2670979499816895,-1.5729776620864868,-0.9226000308990479,-0.16965405642986298
1760539541.3282049,0.02,0.05098020285367966,-0.0714491605758667,-0.02373134344816208,0.019333120435476303,0.008037770166993141,-0.9997807741165161,0.5,0.0,0.0,-0.017826106399297714,-0.044435203075408936,0.09348320960998535,0.07398700714111328,0.07654201984405518,0.016848206520080566,0.04613017663359642,0.01632106304168701,-0.10021138191223145,0.06826464086771011,-0.0935600996017456,0.0783090591430664,0.0,0.0,0.0,0.0,0.02655559778213501,0.0027519133873283863,-0.01240137405693531,-0.011945517733693123,0.012704186141490936,0.008514253422617912,-0.03292180970311165,-0.0054237633012235165,0.01873594895005226,0.03136260434985161,-0.007545878179371357,-0.02185211330652237,-0.3484160602092743,-0.3867371082305908,-0.25432583689689636,-0.2297067642211914,0.7243895530700684,0.14807334542274475,-1.2004460096359253,1.1944316625595093,0.12654125690460205,0.08763176947832108,-2.5425360202789307,0.17166024446487427,-0.3291662037372589,0.4189564883708954,0.0890699028968811,0.7539909482002258,-1.290266990661621,-1.58867609500885,-0.8362457156181335,-0.457144558429718
1760539541.3854067,0.02,-0.005576512776315212,-0.07669395953416824,-0.028728462755680084,0.013437800109386444,0.007416092325001955,-0.9998822212219238,0.5,0.0,0.0,-0.01123072113841772,-0.04367953538894653,0.08989298343658447,0.07095716148614883,0.0847775936126709,0.011542677879333496,0.023959027603268623,0.011561095714569092,-0.08725953102111816,0.07705315947532654,-0.0939897894859314,0.0707126259803772,0.0,0.0,0.0,0.0,0.01278285589069128,0.0010283914161846042,-0.007578402757644653,-0.005733258556574583,0.02279503270983696,-0.02141755074262619,-0.06646573543548584,-0.015130479820072651,0.040043286979198456,0.019103793427348137,0.0032021168153733015,-0.021776579320430756,-0.35328149795532227,-0.38119980692863464,-0.22461509704589844,-0.2856515347957611,0.8296005129814148,0.12910696864128113,-0.9943495988845825,0.9694949984550476,0.0803578570485115,0.011913814581930637,-2.3375911712646484,0.15704196691513062,-0.2505864202976227,0.2595248520374298,0.0039262473583221436,0.693255603313446,-1.2735896110534668,-1.5374947786331177,-0.7331305146217346,-0.7799655795097351
1760539541.4472034,0.02,-0.04059027135372162,-0.07146944105625153,-0.025705264881253242,0.0076003968715667725,0.009907878935337067,-0.9999220371246338,0.5,0.0,0.0,-0.008314993232488632,-0.0444294810295105,0.09059774875640869,0.07153047621250153,0.09476155042648315,-0.003105342388153076,-0.005220768041908741,0.004829525947570801,-0.07034909725189209,0.08216103911399841,-0.09045875072479248,0.06222951412200928,0.0,0.0,0.0,0.0,0.004530193284153938,-0.005175789352506399,0.009176293388009071,0.001657796325162053,0.023942364379763603,-0.038080643862485886,-0.07584094256162643,-0.017339270561933517,0.043393801897764206,0.010443983599543571,0.012345690280199051,-0.023048220202326775,-0.3614552915096283,-0.3477188050746918,-0.23375801742076874,-0.3229512870311737,0.8867092132568359,0.12527254223823547,-0.7779512405395508,0.7033429741859436,0.04998684674501419,-0.07878275960683823,-1.9441207647323608,0.14292186498641968,-0.10242496430873871,0.08486869186162949,-0.10398620367050171,0.5883833765983582,-1.2449359893798828,-1.4247857332229614,-0.621368408203125,-1.0593769550323486
1760539541.5044963,0.02,-0.046720460057258606,-0.03177991509437561,-0.01841084100306034,0.0035954320337623358,0.013582445681095123,-0.999901294708252,0.5,0.0,0.0,-0.007275975309312344,-0.04660201072692871,0.09724760055541992,0.07219237834215164,0.10193473100662231,-0.01555854082107544,-0.02467968873679638,0.004494011402130127,-0.0688776969909668,0.08508699387311935,-0.0856318473815918,0.05811202526092529,0.0,0.0,0.0,0.0,0.0016571556916460395,-0.0047389003448188305,0.022058894857764244,0.0009044857579283416,0.015712052583694458,-0.02393226884305477,-0.03212079033255577,0.006611295975744724,-0.008159602992236614,0.005626831669360399,0.010553868487477303,0.0004908994887955487,-0.355422705411911,-0.29543930292129517,-0.23994071781635284,-0.34878987073898315,0.9053133130073547,0.10269883275032043,-0.612372636795044,0.45394167304039,0.053054310381412506,-0.1534280925989151,-1.5088467597961426,0.1162782683968544,0.05709708854556084,-0.027014829218387604,-0.20713268220424652,0.47851282358169556,-1.2124580144882202,-1.239031195640564,-0.6098520159721375,-1.2208794355392456
1760539541.5617082,0.02,-0.047250520437955856,0.015426736325025558,0.0076459357514977455,0.003596795257180929,0.01687896065413952,-0.9998510479927063,0.5,0.0,0.0,-0.006452259141951799,-0.04792487621307373,0.10873711109161377,0.07286642491817474,0.10521125793457031,-0.02053999900817871,-0.025775503367185593,0.009524285793304443,-0.07526636123657227,0.08609222620725632,-0.08413177728652954,0.06498169898986816,0.0,0.0,0.0,0.0,0.00020028059952892363,-0.0023825587704777718,0.03267843276262283,6.789397593820468e-05,0.005151042714715004,-0.007820725440979004,-0.0013703560689464211,0.010459351353347301,-0.009612008929252625,-0.0019109873101115227,-0.00014840054791420698,0.02458926849067211,-0.34154972434043884,-0.25229328870773315,-0.2682093381881714,-0.3344506323337555,0.7843777537345886,0.02246132493019104,-0.5776554346084595,0.39771130681037903,0.05443454533815384,-0.1848289519548416,-1.3387037515640259,0.07459820061922073,0.12551240622997284,0.15836761891841888,-0.29157501459121704,0.41086655855178833,-1.2214107513427734,-1.0847690105438232,-0.6914802193641663,-1.2531931400299072
1760539541.619842,0.02,-0.012704897671937943,0.020584121346473694,0.013613800518214703,0.005143678747117519,0.018665703013539314,-0.9998125433921814,0.5,0.0,0.0,-0.005385450553148985,-0.049032390117645264,0.12034916877746582,0.07395903021097183,0.10461825132369995,-0.019491612911224365,-0.02566983737051487,0.010953187942504883,-0.07682740688323975,0.08608473837375641,-0.08305734395980835,0.0713701844215393,0.0,0.0,0.0,0.0,0.0031422332394868135,-0.0020785939414054155,0.02721009962260723,0.0033351206220686436,-0.004611733835190535,0.00709490617737174,0.0002478981332387775,0.0002517872489988804,-0.0011934485519304872,1.5133758779484197e-06,0.0042609660886228085,0.011481664143502712,-0.31872648000717163,-0.24739892780780792,-0.23297250270843506,-0.31547296047210693,0.5340855121612549,-0.06696346402168274,-0.6859066486358643,0.40234804153442383,0.08197326213121414,-0.16797582805156708,-1.1910674571990967,0.0011273324489593506,0.06169643625617027,0.45303618907928467,-0.26398298144340515,0.4084742069244385,-1.2390704154968262,-1.0575639009475708,-0.8357648849487305,-1.2429739236831665
1760539541.6738904,0.02,-0.005100348498672247,0.014206613413989544,0.006766529753804207,0.006521441973745823,0.019159598276019096,-0.9997951984405518,0.5,0.0,0.0,-0.004878306295722723,-0.048380911350250244,0.12894654273986816,0.07456327974796295,0.10223805904388428,-0.014796614646911621,-0.02593437395989895,0.010025322437286377,-0.07730352878570557,0.08581818640232086,-0.07999324798583984,0.07324719429016113,0.0,0.0,0.0,0.0,-0.0003182330110576004,0.0034952573478221893,0.017622873187065125,-5.6287506595253944e-05,-0.006688021123409271,0.012678965926170349,-0.0017656785203143954,-0.0038256512489169836,-0.0009801324922591448,-0.0016608393052592874,0.009236867539584637,0.0009106447105295956,-0.3283078074455261,-0.2580391466617584,-0.22155849635601044,-0.3115362226963043,0.41800570487976074,-0.08469656109809875,-0.7923038005828857,0.4485650956630707,0.07082963734865189,-0.15563876926898956,-1.1097711324691772,0.013759829103946686,0.018575143069028854,0.5565090179443359,-0.2698603868484497,0.43433088064193726,-1.3300299644470215,-1.1239267587661743,-0.9110458493232727,-1.2486238479614258
1760539541.7290623,0.02,0.0072533367201685905,0.005409835837781429,0.0009557076846249402,0.007212802767753601,0.01858266443014145,-0.9998013377189636,0.5,0.0,0.0,-0.00506390817463398,-0.045558035373687744,0.13304710388183594,0.07452553510665894,0.0991716980934143,-0.008750438690185547,-0.026352064684033394,0.00807255506515503,-0.07757651805877686,0.08550585806369781,-0.0755389928817749,0.07070940732955933,0.0,0.0,0.0,0.0,-0.0019664037972688675,0.008929054252803326,0.005909907165914774,-0.0016722020227462053,-0.007832929491996765,0.014622077345848083,-0.0021254371386021376,-0.0056818947196006775,-1.0512955668673385e-05,-0.0017617710400372744,0.01151084341108799,-0.008760937489569187,-0.33231714367866516,-0.2655520737171173,-0.2281675636768341,-0.29840385913848877,0.4893972873687744,-0.09638875722885132,-0.8444637060165405,0.4973786175251007,0.04761705547571182,-0.14582552015781403,-1.1770777702331543,0.044033922255039215,0.003678586333990097,0.573261559009552,-0.2945995628833771,0.44574326276779175,-1.368659257888794,-1.1695934534072876,-0.9182802438735962,-1.2118726968765259
1760539541.7882764,0.02,0.013302633538842201,0.0006172675639390945,-0.002801383612677455,0.007387936115264893,0.017361843958497047,-0.9998219609260559,0.5,0.0,0.0,-0.005940038710832596,-0.04126572608947754,0.13300156593322754,0.07379632443189621,0.09588605165481567,-0.0025254487991333008,-0.027052661404013634,0.005574405193328857,-0.07690894603729248,0.08496761322021484,-0.07073307037353516,0.06571304798126221,0.0,0.0,0.0,0.0,-0.0036333748139441013,0.011923224665224552,-0.0034750141203403473,-0.0033428713213652372,-0.00804886408150196,0.014515613205730915,-0.002940379548817873,-0.0067582386545836926,0.003069609170779586,-0.0024735499173402786,0.011504496447741985,-0.012803814373910427,-0.3261643946170807,-0.2690591514110565,-0.241789773106575,-0.289181113243103,0.6287208795547485,-0.11032554507255554,-0.8594751358032227,0.5305584073066711,0.03582543879747391,-0.13448183238506317,-1.319016695022583,0.07174212485551834,-0.012152288109064102,0.5756411552429199,-0.3155440092086792,0.4585089683532715,-1.3592458963394165,-1.191057801246643,-0.9066334366798401,-1.198668122291565
1760539541.8427806,0.02,0.012274672277271748,-0.0009317281655967236,-0.005309900268912315,0.007348585873842239,0.016151294112205505,-0.9998425841331482,0.5,0.0,0.0,-0.007700847461819649,-0.036374032497406006,0.1300525665283203,0.07216943055391312,0.09270310401916504,0.003278374671936035,-0.028361229225993156,0.002743542194366455,-0.07495450973510742,0.08383002877235413,-0.06615930795669556,0.06036496162414551,0.0,0.0,0.0,0.0,-0.005589189939200878,0.012695133686065674,-0.00948553066700697,-0.005330933257937431,-0.007694743108004332,0.013452443294227123,-0.0043244995176792145,-0.007386371493339539,0.006221366580575705,-0.003860871074721217,0.010703718289732933,-0.012581996619701385,-0.3156191110610962,-0.27043330669403076,-0.25456759333610535,-0.28814032673835754,0.7480766773223877,-0.11971387267112732,-0.8591228723526001,0.5519378781318665,0.028285034000873566,-0.12251358479261398,-1.4591403007507324,0.08847620338201523,-0.029994595795869827,0.5727003812789917,-0.33030128479003906,0.46706104278564453,-1.329880952835083,-1.1973762512207031,-0.8978355526924133,-1.2227805852890015
1760539541.9000583,0.02,0.0074349939823150635,-0.001464428030885756,-0.006402384024113417,0.007240898907184601,0.015352990478277206,-0.9998559355735779,0.5,0.0,0.0,-0.01034602615982294,-0.03153711557388306,0.12538838386535645,0.06963901221752167,0.0897291898727417,0.00838613510131836,-0.030406944453716278,-0.0002561807632446289,-0.07204616069793701,0.08194178342819214,-0.061979472637176514,0.055581510066986084,0.0,0.0,0.0,0.0,-0.007374486420303583,0.011976657435297966,-0.012660880573093891,-0.0071635134518146515,-0.007235884666442871,0.011824569664895535,-0.005870153196156025,-0.007632979657500982,0.00810479186475277,-0.005449199117720127,0.009776001796126366,-0.011068559251725674,-0.3050166368484497,-0.2707560658454895,-0.263787180185318,-0.2911558449268341,0.8097079992294312,-0.12442967295646667,-0.8507480621337891,0.5678408145904541,0.025231309235095978,-0.11343284696340561,-1.5455358028411865,0.09395518153905869,-0.0400238074362278,0.5582431554794312,-0.34112969040870667,0.46611303091049194,-1.2982302904129028,-1.195313811302185,-0.8944860100746155,-1.2624223232269287
1760539541.957261,0.02,0.0013419543392956257,-0.0017547382740303874,-0.00614564074203372,0.00711230980232358,0.015098483301699162,-0.9998607039451599,0.5,0.0,0.0,-0.013673873618245125,-0.027134060859680176,0.11987459659576416,0.06641166657209396,0.08693200349807739,0.012624263763427734,-0.03315022960305214,-0.003264307975769043,-0.06860339641571045,0.07933556288480759,-0.05832010507583618,0.051508188247680664,0.0,0.0,0.0,0.0,-0.008701997809112072,0.010131464339792728,-0.013201196677982807,-0.00857456587255001,-0.006917715072631836,0.00990468543022871,-0.007303689606487751,-0.007550783455371857,0.009020199067890644,-0.006929736118763685,0.008449298329651356,-0.009361143223941326,-0.29617053270339966,-0.27033400535583496,-0.27102407813072205,-0.2934627830982208,0.8075375556945801,-0.1264055073261261,-0.8381332159042358,0.5818015933036804,0.027936942875385284,-0.10822736471891403,-1.5624332427978516,0.09221259504556656,-0.03748362138867378,0.5351247191429138,-0.34854674339294434,0.45772337913513184,-1.2712361812591553,-1.1858313083648682,-0.9004800915718079,-1.2906121015548706
1760539542.0189586,0.02,-0.0014614062383770943,-0.0015561458421871066,0.0038886915426701307,0.006993592716753483,0.015213320963084698,-0.9998598098754883,0.5,0.0,0.0,-0.016968056559562683,-0.02377152442932129,0.11529183387756348,0.06321363151073456,0.0841972827911377,0.015587210655212402,-0.0363677479326725,-0.006072938442230225,-0.06468069553375244,0.0762384682893753,-0.05547833442687988,0.04787003993988037,0.0,0.0,0.0,0.0,-0.00736212357878685,0.007105271797627211,-0.009465242736041546,-0.007184719201177359,-0.006823272444307804,0.005873671267181635,-0.008131934329867363,-0.006759861018508673,0.010438047349452972,-0.007810021284967661,0.006101499777287245,-0.008877900429069996,-0.29103049635887146,-0.26682111620903015,-0.27872368693351746,-0.29121583700180054,0.7535622715950012,-0.12652722001075745,-0.8257523775100708,0.59474116563797,0.03526989370584488,-0.10608898848295212,-1.5203847885131836,0.08642754703760147,-0.023273032158613205,0.507513701915741,-0.35108011960983276,0.44485199451446533,-1.248516321182251,-1.1692838668823242,-0.9199095964431763,-1.2947758436203003
1760539542.0748658,0.02,-0.012645344249904156,0.00035354169085621834,0.006424760911613703,0.0069870962761342525,0.016142264008522034,-0.9998452663421631,0.5,0.0,0.0,-0.02041548490524292,-0.02168172597885132,0.11192119121551514,0.05985276773571968,0.08187860250473022,0.016865015029907227,-0.04024679586291313,-0.008625030517578125,-0.060491323471069336,0.07244738936424255,-0.053887784481048584,0.04566758871078491,0.0,0.0,0.0,0.0,-0.008230767212808132,0.0043905749917030334,-0.007699498441070318,-0.008092864416539669,-0.005622756201773882,0.0024656387977302074,-0.009555879980325699,-0.006197869312018156,0.01058605220168829,-0.009338198229670525,0.002920598490163684,-0.004317708313465118,-0.28221046924591064,-0.26563653349876404,-0.2829171121120453,-0.2920941710472107,0.6236979961395264,-0.13686037063598633,-0.8493696451187134,0.592755138874054,0.05176595598459244,-0.09203758090734482,-1.4304730892181396,0.07019544392824173,-0.020687740296125412,0.5222089290618896,-0.3390498161315918,0.4514361619949341,-1.2346123456954956,-1.143534541130066,-0.9557711482048035,-1.275154948234558
1760539542.134321,0.02,-0.009855536743998528,0.0001765652559697628,0.006133777089416981,0.007024028338491917,0.017114173620939255,-0.9998288750648499,0.5,0.0,0.0,-0.023439958691596985,-0.02030998468399048,0.10886514186859131,0.056902069598436356,0.07964885234832764,0.017416834831237793,-0.043778322637081146,-0.010862469673156738,-0.05646347999572754,0.06898106634616852,-0.05326420068740845,0.044195592403411865,0.0,0.0,0.0,0.0,-0.006671924144029617,0.002900275867432356,-0.007429099176079035,-0.006569735240191221,-0.0057573625817894936,0.0012258309870958328,-0.007940421812236309,-0.005287592764943838,0.00981332827359438,-0.007763903588056564,0.000860542815644294,-0.0034585953690111637,-0.2786096930503845,-0.26440393924713135,-0.28938764333724976,-0.2867283821105957,0.516200065612793,-0.13332149386405945,-0.8705854415893555,0.5964320302009583,0.055794455111026764,-0.08671470731496811,-1.338548183441162,0.05890083312988281,-0.002751920372247696,0.5116651654243469,-0.32674479484558105,0.4412367343902588,-1.2262685298919678,-1.1252996921539307,-1.002382516860962,-1.2412887811660767
1760539542.1863003,0.02,-0.005014116410166025,-0.0007209284231066704,0.006852803286164999,0.007008879445493221,0.01769246533513069,-0.9998189210891724,0.5,0.0,0.0,-0.025705160573124886,-0.01929783821105957,0.10580170154571533,0.054699793457984924,0.07729536294937134,0.0175628662109375,-0.04659285023808479,-0.012631773948669434,-0.05265843868255615,0.06622470915317535,-0.05333065986633301,0.042648136615753174,0.0,0.0,0.0,0.0,-0.004864719696342945,0.00225691101513803,-0.007724564056843519,-0.00478984322398901,-0.006081129424273968,0.0001988662697840482,-0.0063043744303286076,-0.004009246360510588,0.009342185221612453,-0.006146553438156843,-0.0007369198137894273,-0.0039678611792624,-0.2777193486690521,-0.2637549638748169,-0.298867791891098,-0.28023234009742737,0.43488043546676636,-0.1287289559841156,-0.8727356195449829,0.5983311533927917,0.06386784464120865,-0.0890512689948082,-1.246993064880371,0.0491936057806015,0.027927514165639877,0.47310832142829895,-0.31526803970336914,0.421403706073761,-1.2238482236862183,-1.1132869720458984,-1.0501776933670044,-1.210158109664917
1760539542.2426093,0.02,-0.0038617243990302086,-0.0011641511227935553,0.008608461357653141,0.006948317401111126,0.018100205808877945,-0.9998120069503784,0.5,0.0,0.0,-0.02751304768025875,-0.018543004989624023,0.10274088382720947,0.05294773355126381,0.07489186525344849,0.01722121238708496,-0.0490788109600544,-0.013931214809417725,-0.04890584945678711,0.06379061937332153,-0.05402141809463501,0.04101961851119995,0.0,0.0,0.0,0.0,-0.0039861323311924934,0.001584191108122468,-0.007504505105316639,-0.003923931624740362,-0.006178965792059898,-0.000953902315814048,-0.005818197503685951,-0.002909733448177576,0.009394124150276184,-0.005685070063918829,-0.0022345329634845257,-0.004127311985939741,-0.2771916091442108,-0.2638384997844696,-0.307849645614624,-0.27541857957839966,0.35288727283477783,-0.12680208683013916,-0.8580256700515747,0.5951080918312073,0.07909847050905228,-0.0958382710814476,-1.141324520111084,0.034901805222034454,0.060682740062475204,0.43365857005119324,-0.3010789752006531,0.40087032318115234,-1.2198803424835205,-1.1021780967712402,-1.096480369567871,-1.182108759880066
1760539542.2970774,0.02,-0.004629179835319519,-0.0011383987730368972,0.011060868389904499,0.006881156004965305,0.0185503289103508,-0.9998042583465576,0.5,0.0,0.0,-0.029162973165512085,-0.017997562885284424,0.09973728656768799,0.05135089159011841,0.07248663902282715,0.01640629768371582,-0.05160489305853844,-0.014928579330444336,-0.044983863830566406,0.06130916252732277,-0.055261075496673584,0.03941541910171509,0.0,0.0,0.0,0.0,-0.0037195158656686544,0.0011925473809242249,-0.007500811945647001,-0.003663215786218643,-0.0062369960360229015,-0.001911538070999086,-0.006088988855481148,-0.0023389728739857674,0.010016079060733318,-0.0059807985089719296,-0.003471225965768099,-0.004126972984522581,-0.2763361632823944,-0.26440876722335815,-0.3146061599254608,-0.27233585715293884,0.25555089116096497,-0.12417927384376526,-0.8318976163864136,0.5879026055335999,0.09970731288194656,-0.10699474066495895,-1.0088862180709839,0.015648052096366882,0.0958457738161087,0.398123562335968,-0.28255370259284973,0.379294216632843,-1.2143259048461914,-1.0902656316757202,-1.141088843345642,-1.1551387310028076
1760539542.352513,0.02,-0.005611012224107981,-0.001157394959591329,0.013924905098974705,0.006819099187850952,0.019100897014141083,-0.9997943043708801,0.5,0.0,0.0,-0.030807744711637497,-0.017573833465576172,0.09674322605133057,0.04975965619087219,0.07007092237472534,0.01521921157836914,-0.05436861887574196,-0.01584172248840332,-0.040726423263549805,0.05858217924833298,-0.05689316987991333,0.037750959396362305,0.0,0.0,0.0,0.0,-0.003743124892935157,0.0009010795620270073,-0.007408993784338236,-0.003684357972815633,-0.006244031246751547,-0.002866205992177129,-0.0067351022735238075,-0.0023061588872224092,0.010957103222608566,-0.006652238313108683,-0.004244446288794279,-0.004508946090936661,-0.27582624554634094,-0.2651464343070984,-0.3188014328479767,-0.27053672075271606,0.1411604881286621,-0.12058091163635254,-0.7971043586730957,0.5775061249732971,0.12464816123247147,-0.12272804230451584,-0.8487225770950317,-0.006794720888137817,0.13369061052799225,0.3669041395187378,-0.26016104221343994,0.35589540004730225,-1.2069511413574219,-1.079038143157959,-1.182318091392517,-1.1282848119735718
1760539542.410661,0.02,-0.005693713203072548,-0.0017816673498600721,0.016829652711749077,0.0067279282957315445,0.019679168239235878,-0.9997836947441101,0.5,0.0,0.0,-0.03246953710913658,-0.01715642213821411,0.09363043308258057,0.04815274849534035,0.0676276683807373,0.013821601867675781,-0.05740758776664734,-0.016806423664093018,-0.03613579273223877,0.05557942017912865,-0.0586356520652771,0.03570389747619629,0.0,0.0,0.0,0.0,-0.003814846742898226,0.0009786041919142008,-0.007819960825145245,-0.0037526935338974,-0.006355833262205124,-0.0032301151659339666,-0.007436896208673716,-0.002507191151380539,0.011740795336663723,-0.007364173885434866,-0.004251204431056976,-0.0057701426558196545,-0.2756097614765167,-0.2673557698726654,-0.3210277557373047,-0.2701849937438965,0.019129659980535507,-0.11430928111076355,-0.7535316944122314,0.5660853385925293,0.15297874808311462,-0.14206425845623016,-0.6753978729248047,-0.028929606080055237,0.1704353541135788,0.34368863701820374,-0.23359668254852295,0.33184564113616943,-1.1984280347824097,-1.0719925165176392,-1.2180367708206177,-1.1020042896270752
1760539542.4677927,0.02,-0.005609440617263317,-0.0026407281402498484,0.019385378807783127,0.006577424239367247,0.020246155560016632,-0.999773383140564,0.5,0.0,0.0,-0.03418499231338501,-0.01663738489151001,0.09032094478607178,0.04649486765265465,0.06520771980285645,0.012354016304016113,-0.06073955446481705,-0.017881810665130615,-0.031262874603271484,0.052287209779024124,-0.060186803340911865,0.0330737829208374,0.0,0.0,0.0,0.0,-0.004017966799438,0.00130929471924901,-0.008346062153577805,-0.003954493440687656,-0.006260044872760773,-0.0032663748133927584,-0.008192071691155434,-0.0028027985244989395,0.012393447570502758,-0.008121604099869728,-0.00344054214656353,-0.007561123464256525,-0.2759999930858612,-0.2711309492588043,-0.32179346680641174,-0.2719856798648834,-0.10299652814865112,-0.10571542382240295,-0.6994583606719971,0.554803192615509,0.1838144063949585,-0.16482453048229218,-0.49858471751213074,-0.04990459978580475,0.204717755317688,0.33054620027542114,-0.20588994026184082,0.30872058868408203,-1.1892952919006348,-1.071625828742981,-1.2455170154571533,-1.0823386907577515
1760539542.5256994,0.02,-0.004627997521311045,-0.0033206050284206867,0.021579280495643616,0.0063714212737977505,0.020732758566737175,-0.9997647404670715,0.5,0.0,0.0,-0.0359184667468071,-0.015939712524414062,0.08680915832519531,0.04482313245534897,0.0628780722618103,0.010972380638122559,-0.06429369002580643,-0.019076764583587646,-0.026095986366271973,0.04877359792590141,-0.06131523847579956,0.029838263988494873,0.0,0.0,0.0,0.0,-0.004077496472746134,0.0017863964894786477,-0.00880290474742651,-0.004016567952930927,-0.006006474141031504,-0.00289238546974957,-0.008719068020582199,-0.0030791498720645905,0.0131192896515131,-0.008658915758132935,-0.0022844569757580757,-0.008915486745536327,-0.27660295367240906,-0.27603885531425476,-0.3220321536064148,-0.2761057913303375,-0.21426045894622803,-0.0957038402557373,-0.6376762390136719,0.5431194305419922,0.21435141563415527,-0.1897309571504593,-0.3302322030067444,-0.06804245710372925,0.23663416504859924,0.328705370426178,-0.1813233345746994,0.28669998049736023,-1.1788371801376343,-1.0770683288574219,-1.2656779289245605,-1.0717430114746094
1760539542.5813143,0.02,-0.002577522536739707,-0.0037334607914090157,0.023311909288167953,0.006127634085714817,0.021039897575974464,-0.9997598528862,0.5,0.0,0.0,-0.03755675628781319,-0.015081048011779785,0.08315038681030273,0.043249163776636124,0.060674846172332764,0.009839415550231934,-0.06791748851537704,-0.02035808563232422,-0.020635604858398438,0.04518813267350197,-0.06188386678695679,0.026036202907562256,0.0,0.0,0.0,0.0,-0.0038520058151334524,0.002145680133253336,-0.009056530892848969,-0.003798441728577018,-0.005666978657245636,-0.0021466827020049095,-0.00885606650263071,-0.0032230422366410494,0.013769984245300293,-0.008811735548079014,-0.0008791386499069631,-0.010107862763106823,-0.2764526307582855,-0.281486839056015,-0.32196080684661865,-0.28095582127571106,-0.3061542212963104,-0.08616241812705994,-0.5743650197982788,0.5314882397651672,0.2429426610469818,-0.21414925158023834,-0.18643957376480103,-0.08283907175064087,0.26482516527175903,0.3377048969268799,-0.1608903706073761,0.26630181074142456,-1.1649096012115479,-1.0865143537521362,-1.278595209121704,-1.067846417427063
1760539542.635155,0.02,-0.00035033293534070253,-0.003789573907852173,0.02444479987025261,0.0058705988340079784,0.02112700790166855,-0.9997595548629761,0.5,0.0,0.0,-0.03901366889476776,-0.014152228832244873,0.07948076725006104,0.04186011105775833,0.05863875150680542,0.009061098098754883,-0.07147502154111862,-0.021638989448547363,-0.01496267318725586,0.041665300726890564,-0.0618436336517334,0.021799087524414062,0.0,0.0,0.0,0.0,-0.003453752025961876,0.0023472651373595,-0.009175940416753292,-0.0034122434444725513,-0.005215573590248823,-0.0011734875151887536,-0.008686412125825882,-0.0031018767040222883,0.01414456870406866,-0.008662746287882328,0.0005277841119095683,-0.010743371210992336,-0.27519628405570984,-0.28708404302597046,-0.32180583477020264,-0.28645631670951843,-0.37707099318504333,-0.07831105589866638,-0.5159279108047485,0.5224909782409668,0.26656651496887207,-0.23564818501472473,-0.07751907408237457,-0.0934797078371048,0.28847721219062805,0.35503384470939636,-0.14625181257724762,0.2476644366979599,-1.149975061416626,-1.0996965169906616,-1.2848833799362183,-1.07227623462677
1760539542.697598,0.02,0.0015241928631439805,-0.0034829278010874987,0.025014039129018784,0.0056294165551662445,0.0210142582654953,-0.9997633099555969,0.5,0.0,0.0,-0.04024123027920723,-0.013276517391204834,0.07601034641265869,0.04070310667157173,0.056814730167388916,0.008696913719177246,-0.07486755400896072,-0.022803544998168945,-0.009222030639648438,0.03830048441886902,-0.06120884418487549,0.017313480377197266,0.0,0.0,0.0,0.0,-0.0029406363610178232,0.0019866246730089188,-0.008204158395528793,-0.0029078598599880934,-0.004640663042664528,-0.00011812150478363037,-0.008278044871985912,-0.0026910516899079084,0.014114776626229286,-0.008281071670353413,0.0019169846782460809,-0.011061017401516438,-0.2741158604621887,-0.2926277816295624,-0.32148000597953796,-0.29184719920158386,-0.4272351562976837,-0.07263824343681335,-0.46616101264953613,0.5164490938186646,0.28450217843055725,-0.25310882925987244,-0.0057693421840667725,-0.10063622146844864,0.3083518147468567,0.3763480484485626,-0.1374605894088745,0.23034141957759857,-1.1349196434020996,-1.115766167640686,-1.2851709127426147,-1.0854285955429077
1760539542.7542691,0.02,0.0028191423043608665,-0.002931835362687707,0.025241492316126823,0.005426634103059769,0.02075410634279251,-0.9997698664665222,0.5,0.0,0.0,-0.041215211153030396,-0.01256716251373291,0.0729219913482666,0.03980245068669319,0.05525690317153931,0.008708596229553223,-0.07803194969892502,-0.023766398429870605,-0.00356137752532959,0.03515540808439255,-0.06005948781967163,0.012804925441741943,0.0,0.0,0.0,0.0,-0.0023451552260667086,0.0014911534963175654,-0.007111576851457357,-0.002319459104910493,-0.003914460074156523,0.0007417682791128755,-0.007713580969721079,-0.002113877097144723,0.013749899342656136,-0.007743871305137873,0.003078138455748558,-0.01086446177214384,-0.27242788672447205,-0.2977031469345093,-0.32073357701301575,-0.2970605790615082,-0.45861387252807617,-0.06931504607200623,-0.4275842010974884,0.5125981569290161,0.29654479026794434,-0.2662694454193115,0.0316120982170105,-0.10527753084897995,0.3259044289588928,0.3969327509403229,-0.13362978398799896,0.21402747929096222,-1.1230806112289429,-1.1332353353500366,-1.2789666652679443,-1.1057560443878174
1760539542.807768,0.02,0.003493248950690031,-0.0021689822897315025,0.02527802065014839,0.00527984369546175,0.020403936505317688,-0.9997778534889221,0.5,0.0,0.0,-0.04191841557621956,-0.012096524238586426,0.07036483287811279,0.03917684778571129,0.05402439832687378,0.008998632431030273,-0.08092640340328217,-0.024489879608154297,0.0018928050994873047,0.03227084502577782,-0.05850517749786377,0.008478999137878418,0.0,0.0,0.0,0.0,-0.0016862386837601662,0.0008371853618882596,-0.005665451288223267,-0.0016620316309854388,-0.003042561234906316,0.0013364959741011262,-0.007045307662338018,-0.0014886975986883044,0.013098820112645626,-0.0071039157919585705,0.003962225746363401,-0.0101893600076437,-0.270986944437027,-0.3023439049720764,-0.31920909881591797,-0.3019946217536926,-0.4751177430152893,-0.06817331910133362,-0.39960870146751404,0.5100370049476624,0.30390435457229614,-0.2751321792602539,0.0427330881357193,-0.10863956809043884,0.3413487672805786,0.4149077832698822,-0.13382644951343536,0.1985223889350891,-1.1142370700836182,-1.151153802871704,-1.268007516860962,-1.1313799619674683
1760539542.8640363,0.02,0.003664366900920868,-0.001311004627496004,0.025235379114747047,0.005197977647185326,0.020012706518173218,-0.9997861981391907,0.5,0.0,0.0,-0.04233062267303467,-0.011903643608093262,0.06844186782836914,0.03884357586503029,0.05315959453582764,0.009450554847717285,-0.08352433145046234,-0.024986207485198975,0.007034599781036377,0.029673105105757713,-0.056672751903533936,0.0044972896575927734,0.0,0.0,0.0,0.0,-0.0009751075995154679,0.0002346286055399105,-0.004292324651032686,-0.000947232183534652,-0.0020586799364537,0.001584941172040999,-0.006310687400400639,-0.0009361309930682182,0.012219930067658424,-0.006393833551555872,0.004526569973677397,-0.009144552983343601,-0.2697056233882904,-0.30637985467910767,-0.31661853194236755,-0.3063567578792572,-0.48083674907684326,-0.06847730278968811,-0.38103148341178894,0.5078821182250977,0.3076513409614563,-0.2802303731441498,0.03643220663070679,-0.11152390390634537,0.35512858629226685,0.42898356914520264,-0.1368017941713333,0.1838894486427307,-1.1088488101959229,-1.1682583093643188,-1.252817988395691,-1.1590343713760376
1760539542.923562,0.02,0.0036286478862166405,-0.0005702420021407306,0.025146588683128357,0.005178380757570267,0.01961451955139637,-0.9997941851615906,0.5,0.0,0.0,-0.04243707284331322,-0.011998891830444336,0.06718277931213379,0.03881801664829254,0.052696406841278076,0.009918451309204102,-0.08580490946769714,-0.02529752254486084,0.011769235134124756,0.02738264575600624,-0.054693758487701416,0.0009677410125732422,0.0,0.0,0.0,0.0,-0.00019843189511448145,-0.0006005982286296785,-0.0023656338453292847,-0.00016085994138848037,-0.0010099251521751285,0.0014650429366156459,-0.005504624452441931,-0.0005127523909322917,0.011110889725387096,-0.005613056477159262,0.004776956047862768,-0.007947112433612347,-0.26953044533729553,-0.3098728358745575,-0.31294453144073486,-0.3097841739654541,-0.4795078635215759,-0.06991639733314514,-0.36970382928848267,0.5058397054672241,0.3088280260562897,-0.282514750957489,0.020588338375091553,-0.11420818418264389,0.3673919141292572,0.439297616481781,-0.14151233434677124,0.17022748291492462,-1.1065951585769653,-1.1840788125991821,-1.2347865104675293,-1.1865532398223877
1760539542.9830265,0.02,0.0032104344572871923,9.580759797245264e-05,0.02507820539176464,0.0052132997661828995,0.019242994487285614,-0.9998012185096741,0.5,0.0,0.0,-0.04224225506186485,-0.012352347373962402,0.06656861305236816,0.03909416124224663,0.05265837907791138,0.010255932807922363,-0.08777403831481934,-0.025481045246124268,0.01604318618774414,0.02539409138262272,-0.05270254611968994,-0.0020346641540527344,0.0,0.0,0.0,0.0,0.0005553826340474188,-0.0012145104119554162,-0.0007846655207686126,0.0006022206507623196,9.783636778593063e-05,0.0009823645232245326,-0.004729700740426779,-0.000247874268097803,0.009937657043337822,-0.004859204404056072,0.004707129672169685,-0.006576440762728453,-0.26978781819343567,-0.31278350949287415,-0.3085080683231354,-0.3123266100883484,-0.4745864272117615,-0.07154223322868347,-0.3636905252933502,0.5035879015922546,0.3082618713378906,-0.28297123312950134,0.001109391450881958,-0.11667361855506897,0.3788703680038452,0.4457625150680542,-0.14692635834217072,0.15766498446464539,-1.1080322265625,-1.1981825828552246,-1.2144324779510498,-1.211280345916748
1760539543.0386252,0.02,0.002730387030169368,0.0005839670775458217,0.025049230083823204,0.005291486158967018,0.0189142394810915,-0.9998071193695068,0.5,-1.0,0.0,-0.04174993932247162,-0.012926459312438965,0.06655573844909668,0.039666589349508286,0.053043484687805176,0.01035451889038086,-0.08944179862737656,-0.025590062141418457,0.019821465015411377,0.023700619116425514,-0.0508044958114624,-0.0044994354248046875,0.0,0.0,0.0,0.0,0.0013109276769682765,-0.0017542409477755427,0.0006582664209417999,0.0013659525429829955,0.0011732688872143626,0.00025863872724585235,-0.003966569434851408,-0.00010564550757408142,0.00867417175322771,-0.004112962167710066,0.004409360233694315,-0.005256326869130135,-0.2705038785934448,-0.31518101692199707,-0.3035426735877991,-0.3138931393623352,-0.4679821729660034,-0.07378533482551575,-0.36050543189048767,0.5012580156326294,0.30656903982162476,-0.2827877700328827,-0.01781541109085083,-0.11907195299863815,0.38933345675468445,0.450108140707016,-0.15218067169189453,0.14612993597984314,-1.1115522384643555,-1.2105551958084106,-1.1934590339660645,-1.2321027517318726
1760539543.0950966,0.02,0.13884268701076508,0.061156049370765686,0.036689043045043945,0.008374607190489769,0.007240145467221737,-0.9999387264251709,0.5,-1.0,0.0,-0.03155289590358734,-0.01748257875442505,0.0718240737915039,0.04602538049221039,0.046630918979644775,0.04085338115692139,-0.08190232515335083,-0.02287423610687256,0.03567725419998169,0.024513600394129753,-0.026475608348846436,-0.04915881156921387,0.0,0.0,0.0,0.0,0.015947220847010612,-0.015657370910048485,0.01587030664086342,0.0048932950012385845,-0.008579403162002563,0.07738985121250153,0.014360353350639343,0.009363156743347645,0.055286772549152374,-0.01079205796122551,0.06918266415596008,-0.11180831491947174,-0.2719229459762573,-0.3274272382259369,-0.43685370683670044,-0.09930989891290665,-0.5189225673675537,0.0031603872776031494,-0.7202504873275757,0.16177871823310852,0.2681196630001068,0.259462833404541,-0.4475058317184448,0.08566052466630936,0.8303098678588867,0.09194376319646835,0.0971682071685791,-0.2559906840324402,-0.6591905951499939,-1.4220093488693237,-1.1976020336151123,-0.359322726726532
1760539543.1519375,0.02,-0.0013273246586322784,0.051338039338588715,0.03174702450633049,0.012891151942312717,0.004638770129531622,-0.9999061226844788,0.5,-1.0,0.0,-0.033984746783971786,-0.027457594871520996,0.07840847969055176,0.03756861016154289,0.044727623462677,0.07390737533569336,-0.086769238114357,-0.01860058307647705,0.05799758434295654,0.003731711767613888,-0.010442495346069336,-0.0711205005645752,0.0,0.0,0.0,0.0,-0.021435623988509178,-0.025831928476691246,0.0025086270179599524,-0.025586236268281937,0.0005474047502502799,0.07245219498872757,-0.02101888321340084,0.011117824353277683,0.05478823930025101,-0.06738324463367462,0.02214830555021763,-0.017706045880913734,-0.2227381318807602,-0.4186422526836395,-0.4546590745449066,0.043307747691869736,-0.4976695775985718,0.1343664824962616,-0.8882522583007812,-0.03968683257699013,0.1740201711654663,0.3175739049911499,-0.26733162999153137,0.09683237224817276,0.7341216802597046,-0.3539624810218811,-0.1041526347398758,-0.2861189842224121,-0.2839394509792328,-1.6131635904312134,-1.232381820678711,0.21444649994373322
1760539543.2090826,0.02,0.05505039170384407,-0.01221230998635292,0.010427028872072697,0.01372094638645649,0.0013570701703429222,-0.9999049305915833,0.5,-1.0,0.0,-0.03839957341551781,-0.037550151348114014,0.07525479793548584,0.03213480859994888,0.045063018798828125,0.09871995449066162,-0.0928991511464119,-0.011305093765258789,0.07126492261886597,-0.022421378642320633,0.0008032321929931641,-0.09552145004272461,0.0,0.0,0.0,0.0,-0.007965716533362865,-0.024140529334545135,-0.01339700073003769,-0.010114414617419243,0.0008112684008665383,0.05417567491531372,-0.012622961774468422,0.022128285840153694,0.019932188093662262,-0.04813394322991371,0.036509424448013306,-0.12192638963460922,-0.09065111726522446,-0.4678889811038971,-0.4628875255584717,0.046880561858415604,-0.7032141089439392,0.21951475739479065,-0.9245923757553101,0.2062411606311798,0.15886148810386658,0.38845446705818176,0.01801791787147522,0.20433369278907776,0.666947066783905,-0.6160323619842529,-0.02891702950000763,-0.3626343607902527,-0.17492029070854187,-1.7526031732559204,-1.2392995357513428,0.31520962715148926
1760539543.2651188,0.02,0.025848515331745148,-0.011551657691597939,0.006805907003581524,0.01298941858112812,-0.0011938605457544327,-0.9999149441719055,0.5,-1.0,0.0,-0.04609488323330879,-0.041419804096221924,0.06444215774536133,0.024719955399632454,0.0489121675491333,0.11774396896362305,-0.10112237930297852,-0.0038675665855407715,0.08696317672729492,-0.04025660827755928,0.0086212158203125,-0.13363003730773926,0.0,0.0,0.0,0.0,-0.019164228811860085,-0.0066110133193433285,-0.02824671007692814,-0.021645765751600266,0.014339501038193703,0.041331496089696884,-0.022741666063666344,0.015413152985274792,0.04836577922105789,-0.035933803766965866,0.006753137800842524,-0.07519639283418655,-0.12326157093048096,-0.47892799973487854,-0.5079054236412048,-0.005954301450401545,-0.78192538022995,0.4722333252429962,-0.7619975805282593,0.573959231376648,0.0975634828209877,0.4119153320789337,0.24435636401176453,0.248273104429245,0.7811452150344849,-1.2122249603271484,0.041160061955451965,-0.3782973885536194,-0.06241787225008011,-1.9141348600387573,-1.0955407619476318,0.22145308554172516
1760539543.321322,0.02,0.03479454666376114,-0.012819218449294567,0.012618355453014374,0.012203131802380085,-0.003971166908740997,-0.9999176263809204,0.5,-1.0,0.0,-0.05501843988895416,-0.04080253839492798,0.04805254936218262,0.0157657191157341,0.055581748485565186,0.13409507274627686,-0.11075415462255478,-0.0006757974624633789,0.11165720224380493,-0.0521753653883934,0.008791327476501465,-0.1596280336380005,0.0,0.0,0.0,0.0,-0.02207748405635357,0.0025321710854768753,-0.04211960360407829,-0.02370605804026127,0.018411219120025635,0.03796830400824547,-0.026622703298926353,0.0035318084992468357,0.06678435206413269,-0.02747114934027195,-0.004126005340367556,-0.06061990186572075,-0.10357116907835007,-0.4762822091579437,-0.4930666387081146,-0.016919583082199097,-0.8118492960929871,0.5226713418960571,-0.6448953151702881,0.9322777986526489,0.09586579352617264,0.4652416408061981,0.41310176253318787,0.23413890600204468,0.828603982925415,-1.7240326404571533,0.1402314305305481,-0.4260629415512085,0.0769815668463707,-1.8984709978103638,-0.9495452046394348,0.13636909425258636
1760539543.3788955,0.02,0.01891719549894333,0.008307714946568012,0.012809427455067635,0.012337970547378063,-0.005571901798248291,-0.9999083876609802,0.5,-1.0,0.0,-0.06624706089496613,-0.038236379623413086,0.031042098999023438,0.008787436410784721,0.06613188982009888,0.1460973024368286,-0.12053563445806503,0.0003794431686401367,0.14024555683135986,-0.06506405770778656,0.008204340934753418,-0.17972636222839355,0.0,0.0,0.0,0.0,-0.02774522639811039,0.00519248703494668,-0.03721752390265465,-0.011618773452937603,0.03135564550757408,0.02515491656959057,-0.018460890278220177,0.0035360262263566256,0.0774441510438919,-0.03294481709599495,-6.292211037361994e-05,-0.04593431577086449,-0.09359406679868698,-0.4458068013191223,-0.3047425448894501,-0.04786750301718712,-0.911201000213623,0.5394240617752075,-0.6351149082183838,1.2924859523773193,0.09933049231767654,0.538344144821167,0.6573445796966553,0.23505190014839172,0.8346526026725769,-2.2463510036468506,0.1778828203678131,-0.38509052991867065,0.1301022469997406,-1.8301225900650024,-0.7549711465835571,-0.08032839000225067
1760539543.4397848,0.02,-0.040596380829811096,0.06459087133407593,0.02002759277820587,0.01598343811929226,-0.0033650260884314775,-0.9998666048049927,0.5,0.0,0.0,-0.0820493996143341,-0.03319060802459717,0.021897315979003906,0.014032670296728611,0.082724928855896,0.1513451337814331,-0.12067809700965881,0.013360917568206787,0.15861886739730835,-0.08247977495193481,0.01019287109375,-0.18714141845703125,0.0,0.0,0.0,0.0,-0.04036200791597366,0.010055417194962502,-0.010291802696883678,0.029822329059243202,0.04477605223655701,0.009760181419551373,0.012337091378867626,0.043844521045684814,0.039602238684892654,-0.04655960947275162,0.005703420378267765,-0.004526632837951183,-0.13289207220077515,-0.42651090025901794,-0.13521555066108704,-0.1369456797838211,-1.140842318534851,0.6995731592178345,-0.7545672655105591,1.9740300178527832,0.04754585772752762,0.6636351943016052,1.0716643333435059,0.36541977524757385,0.7887246012687683,-3.128387689590454,0.0714326798915863,-0.3093125820159912,0.05824869126081467,-1.6631948947906494,-0.2597404420375824,-0.6417593359947205
1760539543.4978943,0.02,-0.19022007286548615,0.1091846153140068,0.004267644137144089,0.023129750043153763,0.011650113388895988,-0.9996646046638489,0.5,0.0,0.0,-0.1083877757191658,-0.0233038067817688,0.013879776000976562,0.006974083371460438,0.1070300042629242,0.12929368019104004,-0.1095278188586235,0.03679347038269043,0.13013619184494019,-0.1087908148765564,0.009239554405212402,-0.15911352634429932,0.0,0.0,0.0,0.0,-0.06380999088287354,0.032821279019117355,-0.028805112466216087,-0.031722888350486755,0.0525798462331295,-0.03542331978678703,0.050762761384248734,0.04217173159122467,-0.07104280591011047,-0.06122387573122978,-0.0009232202428393066,0.08402303606271744,-0.17427346110343933,-0.3350067734718323,0.008160439319908619,-0.36025238037109375,0.1661810576915741,0.07061329483985901,-0.36974218487739563,1.507591724395752,0.051991529762744904,-0.04593893140554428,0.822656512260437,-0.22368469834327698,0.13274845480918884,-1.9395662546157837,-0.5093221664428711,0.1323726624250412,-0.8281566500663757,-1.4428714513778687,-0.01734735816717148,-2.5260519981384277
1760539543.556662,0.02,0.022856472060084343,0.07403440773487091,0.011623254045844078,0.030351007357239723,0.014861654490232468,-0.9994288086891174,0.5,-1.0,0.0,-0.10975798219442368,-0.012454867362976074,0.005820751190185547,-0.0009742476977407932,0.11780542135238647,0.12145650386810303,-0.0708789974451065,0.0377192497253418,0.11200320720672607,-0.11818093061447144,0.008517444133758545,-0.1180882453918457,0.0,0.0,0.0,0.0,0.023859307169914246,0.02299869991838932,-0.019783852621912956,-0.011850073002278805,0.017666971310973167,-0.01818694733083248,0.11526315659284592,-0.018933387473225594,-0.0356270857155323,-0.006905064918100834,4.465282108867541e-05,0.09862315654754639,-0.2649032771587372,-0.20732887089252472,0.08305384963750839,-0.48201996088027954,0.22940632700920105,-0.10588553547859192,-0.36007067561149597,1.1784344911575317,0.12496007233858109,-0.18329574167728424,-0.2909439206123352,-0.14217212796211243,0.20015686750411987,-0.5200943946838379,-0.2734444737434387,0.07656723260879517,-1.175374150276184,-0.7914425730705261,0.30305740237236023,-2.630009412765503
1760539543.6134255,0.02,0.3509060740470886,-0.14529010653495789,0.011090482585132122,0.024111170321702957,-0.009471298195421696,-0.9996644258499146,0.5,-1.0,0.0,-0.08459308743476868,0.00825047492980957,-0.037624478340148926,0.019087394699454308,0.11794722080230713,0.10934793949127197,-0.036720193922519684,0.018461287021636963,0.11050158739089966,-0.08090580254793167,0.035053908824920654,-0.16977083683013916,0.0,0.0,0.0,0.0,0.06552956253290176,0.06251907348632812,-0.14169156551361084,0.059756454080343246,-0.0036983806639909744,-0.04282056912779808,0.05809546262025833,-0.04839868098497391,-0.01512144971638918,0.13074196875095367,0.07355212420225143,-0.17833618819713593,-0.25936123728752136,-0.22591428458690643,-0.03608255833387375,-0.4573366343975067,-0.027201835066080093,0.19796141982078552,-0.7261563539505005,-0.9757410883903503,0.24628528952598572,-0.22506511211395264,-1.6578056812286377,0.17698368430137634,0.6937679052352905,1.7671706676483154,0.12671738862991333,-0.8838496804237366,-1.1759620904922485,-0.902184247970581,-0.06977202743291855,-1.8340156078338623
1760539543.666616,0.02,-0.005631741136312485,-0.1794058233499527,-0.014817619696259499,0.010221237316727638,-0.019043583422899246,-0.9997664093971252,0.5,-1.0,0.0,-0.05617039278149605,0.006911873817443848,-0.062408506870269775,0.023224668577313423,0.12986066937446594,0.07010912895202637,-0.031418219208717346,0.00383913516998291,0.09537625312805176,-0.022473283112049103,0.03741723299026489,-0.20454299449920654,0.0,0.0,0.0,0.0,0.07375108450651169,-0.03435194119811058,-0.024597156792879105,-0.009986983612179756,0.047322627156972885,-0.13209007680416107,-0.009765056893229485,-0.029829448089003563,-0.04785538837313652,0.15515141189098358,-0.033356186002492905,-0.027632400393486023,-0.21631307899951935,-0.29940420389175415,-0.1174091026186943,-0.3863274157047272,1.456926703453064,-0.37426188588142395,-0.4926404356956482,-4.51077127456665,0.12740570306777954,-0.493179589509964,-1.5737309455871582,-0.40528231859207153,0.8268406391143799,2.5792858600616455,-0.14414919912815094,-0.9977884888648987,-0.8325775265693665,-1.4536312818527222,-1.0854744911193848,-1.5030690431594849
1760539543.721768,0.02,-0.21172338724136353,-0.10662344098091125,-0.025376396253705025,0.000396139919757843,-0.006825105752795935,-0.999976634979248,0.5,-1.0,0.0,-0.01912780851125717,-0.018313348293304443,-0.05551236867904663,-0.012273742817342281,0.14671248197555542,0.03777575492858887,-0.048673100769519806,-0.01369178295135498,0.09864163398742676,0.04182568937540054,-0.004193782806396484,-0.1605978012084961,0.0,0.0,0.0,0.0,0.10727038234472275,-0.07111741602420807,0.018399739637970924,-0.12174878269433975,0.034612853080034256,-0.061141014099121094,-0.05596555396914482,-0.04759867116808891,0.0211331844329834,0.1628720611333847,-0.12411914020776749,0.13727079331874847,-0.23744826018810272,-0.4618717133998871,-0.2169327735900879,-0.3153558671474457,2.0169012546539307,-0.4091741740703583,-0.42960476875305176,-5.415011882781982,0.0960472896695137,-0.3209773898124695,-1.2222099304199219,-0.8387380242347717,0.9889313578605652,2.404695749282837,-0.22791481018066406,-0.8209398984909058,-1.0034546852111816,-1.8917899131774902,-1.8258990049362183,-1.2895649671554565
1760539543.7790713,0.02,-0.08829174190759659,-0.10467946529388428,-0.03137078508734703,-0.007051840424537659,0.0026899506337940693,-0.9999715089797974,0.5,0.0,0.0,0.04272245243191719,-0.06169486045837402,-0.024877607822418213,-0.05207529291510582,0.15813615918159485,0.01900303363800049,-0.06384994834661484,-0.03665602207183838,0.11271274089813232,0.12183161824941635,-0.07436555624008179,-0.0663069486618042,0.0,0.0,0.0,0.0,0.16445392370224,-0.1242104172706604,0.09469034522771835,-0.09778565913438797,0.02484934590756893,-0.04547533392906189,-0.03305993974208832,-0.057233359664678574,0.025313768535852432,0.20631933212280273,-0.17652635276317596,0.2213958352804184,-0.26430392265319824,-0.4366051256656647,-0.19755534827709198,-0.29036930203437805,2.339895248413086,-0.48521843552589417,-0.23608455061912537,-4.017065525054932,0.41994571685791016,-0.2896065413951874,-0.40332767367362976,-0.9122797250747681,0.745045006275177,2.0300469398498535,-0.4202449321746826,-0.3770490288734436,-1.0268243551254272,-1.7806302309036255,-2.1436033248901367,-1.2367051839828491
