vaithak/rl_training/csvs/data_obs_m20_3_env_0.csv
timestamp,dt,base_ang_vel_0,base_ang_vel_1,base_ang_vel_2,projected_gravity_0,projected_gravity_1,projected_gravity_2,velocity_commands_0,velocity_commands_1,velocity_commands_2,joint_pos_0,joint_pos_1,joint_pos_2,joint_pos_3,joint_pos_4,joint_pos_5,joint_pos_6,joint_pos_7,joint_pos_8,joint_pos_9,joint_pos_10,joint_pos_11,joint_pos_12,joint_pos_13,joint_pos_14,joint_pos_15,joint_vel_0,joint_vel_1,joint_vel_2,joint_vel_3,joint_vel_4,joint_vel_5,joint_vel_6,joint_vel_7,joint_vel_8,joint_vel_9,joint_vel_10,joint_vel_11,joint_vel_12,joint_vel_13,joint_vel_14,joint_vel_15,actions_0,actions_1,actions_2,actions_3,actions_4,actions_5,actions_6,actions_7,actions_8,actions_9,actions_10,actions_11,actions_12,actions_13,actions_14,actions_15
1760498062.9011328,0.02,0.010177649557590485,0.20766642689704895,-0.17221368849277496,-0.003869389183819294,0.022063983604311943,-0.9997490644454956,-0.16807466745376587,0.7707712650299072,-0.6140364408493042,0.04719531908631325,0.03269606828689575,0.29533851146698,0.11223354190587997,-0.021237432956695557,0.0036323070526123047,-0.12393047660589218,0.00718766450881958,-0.11474502086639404,0.16764762997627258,0.0018678903579711914,0.10443460941314697,0.0,0.0,0.0,0.0,-0.08255202323198318,-0.024606144055724144,-0.020151222124695778,0.07265831530094147,0.11724846810102463,0.017038661986589432,0.10542966425418854,0.09039699286222458,-0.020959289744496346,-0.11120937019586563,0.09976034611463547,-0.09061020612716675,-0.3574470281600952,-0.1974121332168579,-0.20433008670806885,0.16336895525455475,-1.9128433465957642,-0.13614746928215027,0.9827067852020264,1.0971604585647583,0.21997976303100586,-1.3006746768951416,1.8042912483215332,-0.029705189168453217,0.392909973859787,-0.37069419026374817,0.34105581045150757,0.5191731452941895,-1.4667251110076904,-0.5833011269569397,-0.8070387244224548,0.8190513253211975
1760498062.9614894,0.02,0.007852345705032349,0.2305133193731308,-0.1642313152551651,0.013102441094815731,0.02203703112900257,-0.9996712803840637,-0.16807466745376587,0.7707712650299072,-0.6072262525558472,0.008728555403649807,0.027412354946136475,0.2798635959625244,0.1373838484287262,0.020096778869628906,0.0046062469482421875,-0.0831756442785263,0.039071500301361084,-0.11641955375671387,0.11204075813293457,0.048601746559143066,0.05725580453872681,0.0,0.0,0.0,0.0,-0.09721440821886063,-0.01093861274421215,-0.02645789459347725,0.06343214958906174,0.09530032426118851,0.004641583655029535,0.10415591299533844,0.07326030731201172,0.011024943552911282,-0.14099018275737762,0.1088571697473526,-0.08751028776168823,-0.374349445104599,-0.10339505970478058,-0.18659256398677826,0.2507283389568329,-1.9969435930252075,0.061819449067115784,0.9832321405410767,0.9584924578666687,0.3106786012649536,-1.268242597579956,1.8441298007965088,-0.17539939284324646,0.20504800975322723,-0.4436751902103424,0.44618886709213257,0.30504077672958374,-1.4353559017181396,-0.05698958411812782,-0.822791337966919,1.1765273809432983
1760498063.0266266,0.02,0.0395238995552063,0.22044737637043,-0.16407182812690735,0.03018277883529663,0.02005978301167488,-0.9993430972099304,-0.16807466745376587,0.7707712650299072,-0.600558876991272,-0.0305592343211174,0.029711365699768066,0.2629204988479614,0.1656244993209839,0.056892573833465576,-0.003724515438079834,-0.040362898260354996,0.062410175800323486,-0.1098252534866333,0.04491252079606056,0.09721016883850098,0.008091092109680176,0.0,0.0,0.0,0.0,-0.09302844852209091,0.006484072655439377,-0.02189010940492153,0.06860130280256271,0.08570530265569687,-0.012150670401751995,0.1117015853524208,0.05286772921681404,0.02533537708222866,-0.1700783520936966,0.11058890074491501,-0.09648770838975906,-0.2435109168291092,0.0640447810292244,-0.07907051593065262,0.3455274999141693,-2.286970853805542,0.1656097024679184,0.9251720905303955,0.971391499042511,0.6212083697319031,-1.2041150331497192,2.1853559017181396,-0.31552812457084656,0.08838468790054321,-0.7523114681243896,0.5736296772956848,0.05682732164859772,-1.2799993753433228,0.695432722568512,-0.5927155017852783,1.5930002927780151
1760498063.0888543,0.02,0.03782720863819122,0.20603172481060028,-0.15983852744102478,0.04633772000670433,0.018272187560796738,-0.9987586736679077,-0.16807466745376587,0.7707712650299072,-0.594021201133728,-0.06970903277397156,0.03935366868972778,0.24790990352630615,0.1942128688097,0.09419983625411987,-0.020817101001739502,0.002383887069299817,0.08503729104995728,-0.10754263401031494,-0.03080070950090885,0.13963955640792847,-0.0355224609375,0.0,0.0,0.0,0.0,-0.09787383675575256,0.03354576602578163,-0.04676741734147072,0.06981831789016724,0.08856867998838425,-0.036356136202812195,0.10824191570281982,0.06317603588104248,-0.0051710414700210094,-0.1676691621541977,0.10016573965549469,-0.10442843288183212,-0.2524948716163635,0.08001835644245148,-0.0402083694934845,0.48937392234802246,-2.556030511856079,0.21874825656414032,0.7882105112075806,1.0799767971038818,0.7432079911231995,-1.230355143547058,2.09224796295166,-0.3421793282032013,0.0417807511985302,-1.0216708183288574,0.6309035420417786,-0.14668968319892883,-1.086686134338379,0.7494856715202332,-0.4883861243724823,1.8874775171279907
1760498063.149634,0.02,-0.1020994633436203,0.22935086488723755,-0.15517736971378326,0.06363468617200851,0.02518642693758011,-0.9976553916931152,-0.16807466745376587,0.7707712650299072,-0.5875139236450195,-0.11264698207378387,0.05605548620223999,0.23693645000457764,0.2149621695280075,0.13800668716430664,-0.04861873388290405,0.036999788135290146,0.10941731929779053,-0.10705947875976562,-0.08754201978445053,0.16007381677627563,-0.042124032974243164,0.0,0.0,0.0,0.0,-0.10306065529584885,0.045192595571279526,-0.015961702913045883,0.045746367424726486,0.11161016672849655,-0.0685143768787384,0.08348986506462097,0.058852680027484894,0.006536570843309164,-0.12471777200698853,0.022897671908140182,0.03404334932565689,-0.2422042191028595,0.1058851033449173,-0.029373764991760254,0.4960269033908844,-1.9243592023849487,0.3058205544948578,0.49607542157173157,0.9858222007751465,0.8358615040779114,-1.1597002744674683,1.2626066207885742,-0.16804352402687073,0.02661464735865593,-0.9705433249473572,0.5306088924407959,-0.13451728224754333,-1.0901974439620972,0.5993744730949402,-0.359617680311203,1.9369844198226929
1760498063.2121544,0.02,-0.27851808071136475,0.12567871809005737,-0.15130850672721863,0.07684042304754257,0.048773981630802155,-0.9958497285842896,-0.16807466745376587,0.7707712650299072,-0.5811222791671753,-0.14073051512241364,0.05975610017776489,0.26385414600372314,0.2161419689655304,0.18344572186470032,-0.092684805393219,0.038597848266363144,0.1274021863937378,-0.1060936450958252,-0.11178506910800934,0.14150792360305786,0.01102292537689209,0.0,0.0,0.0,0.0,-0.024788592010736465,-0.008567395620048046,0.10904713720083237,-0.005137050990015268,0.1021384596824646,-0.10747571289539337,-0.01879035122692585,0.03560416027903557,-0.0033277838956564665,-0.02129027619957924,-0.06862762570381165,0.14464432001113892,-0.144548699259758,0.18091559410095215,0.0059734126552939415,0.36561670899391174,0.8036507368087769,0.20270782709121704,-0.20359745621681213,0.29120656847953796,0.7969703674316406,-0.8684593439102173,-1.256340742111206,0.4643048942089081,-0.2569732367992401,0.1074669286608696,0.28757691383361816,0.03893063962459564,-0.8492959141731262,0.7610939145088196,-0.1441207230091095,1.4061670303344727
1760498063.2686183,0.02,-0.20739585161209106,-0.039840131998062134,-0.12581105530261993,0.07784508168697357,0.07011419534683228,-0.9944969415664673,-0.16807466745376587,0.7707712650299072,-0.5754022598266602,-0.1340949386358261,0.03954833745956421,0.30893778800964355,0.1986364722251892,0.1841459572315216,-0.0917237401008606,0.006171377841383219,0.13214296102523804,-0.10763776302337646,-0.09408343583345413,0.0992017388343811,0.07214826345443726,0.0,0.0,0.0,0.0,0.028748739510774612,-0.05505857989192009,0.08743860572576523,-0.05359650403261185,-0.039789970964193344,0.02769184112548828,-0.10996586084365845,-0.004662495572119951,0.01939135603606701,0.050491638481616974,-0.09880419820547104,0.1036761924624443,0.01988806016743183,0.20845703780651093,-0.5985038876533508,0.30285677313804626,3.5167651176452637,-0.10590055584907532,-0.7682075500488281,-0.15857836604118347,0.1973123550415039,-0.7014822959899902,-2.16701602935791,0.8576686382293701,-0.4857794940471649,0.5602689981460571,-0.23495346307754517,0.3745931386947632,-0.1824939250946045,0.812201201915741,0.36545464396476746,0.5845528244972229
1760498063.3254576,0.02,0.11661268770694733,-0.10954909026622772,-0.12288440018892288,0.06993285566568375,0.07011638581752777,-0.9950844645500183,-0.16807466745376587,0.7707712650299072,-0.5704100131988525,-0.1050335019826889,0.02221590280532837,0.324815034866333,0.1845623254776001,0.15358024835586548,-0.07323044538497925,-0.03156747668981552,0.1124451756477356,-0.08047938346862793,-0.05698525533080101,0.07092499732971191,0.09489047527313232,0.0,0.0,0.0,0.0,0.09531380981206894,-0.03184158727526665,0.015043022111058235,-0.02693183720111847,-0.0876995250582695,0.040384698659181595,-0.08567343652248383,-0.06031566858291626,0.09589201211929321,0.11209949105978012,-0.04883807897567749,0.018254203721880913,0.04293955862522125,0.2583937644958496,-1.676883339881897,0.24658139050006866,3.877070665359497,-0.03219336271286011,-1.0605055093765259,0.09498795866966248,0.24476346373558044,-0.3825364410877228,-1.661933183670044,0.2762888967990875,-0.36901241540908813,0.1686699539422989,-0.18095561861991882,0.6411346793174744,-0.005900032818317413,1.0101609230041504,-1.1372779607772827,0.492716908454895
1760498063.384293,0.02,0.15511807799339294,-0.19397792220115662,-0.12480886280536652,0.055679015815258026,0.061767447739839554,-0.9965363144874573,-0.16807466745376587,0.7707712650299072,-0.5656574964523315,-0.06816847622394562,0.013030171394348145,0.32144761085510254,0.15988104045391083,0.10390019416809082,-0.049962639808654785,-0.07711932063102722,0.07698756456375122,-0.049405574798583984,-0.012424333952367306,0.057491838932037354,0.09194755554199219,0.0,0.0,0.0,0.0,0.10059642791748047,-0.0137777803465724,-0.023854482918977737,-0.06839355081319809,-0.13276253640651703,0.046441491693258286,-0.12056467682123184,-0.11481650173664093,0.13939420878887177,0.11648502200841904,-0.02358108200132847,-0.02396347001194954,-0.029022974893450737,0.16601064801216125,-1.7419151067733765,0.1655133217573166,3.8946714401245117,-0.050812751054763794,-1.0284175872802734,-0.5141865611076355,0.05247035622596741,-0.1853048950433731,-1.9152042865753174,-0.0780312642455101,-0.2931564748287201,0.28539028763771057,0.019423291087150574,0.6521405577659607,-0.3604457974433899,0.6375722885131836,-1.9431378841400146,0.4679829478263855
1760498063.4449856,0.02,0.08355472981929779,-0.2207903414964676,-0.13299068808555603,0.03763832524418831,0.055663030594587326,-0.9977399110794067,-0.16807466745376587,0.7707712650299072,-0.5607565641403198,-0.03458554670214653,0.008752226829528809,0.31707727909088135,0.12242703884840012,0.03930860757827759,-0.017148852348327637,-0.13078762590885162,0.036297738552093506,-0.02967369556427002,0.030145948752760887,0.04574686288833618,0.08543998003005981,0.0,0.0,0.0,0.0,0.08333216607570648,-0.0022996109910309315,-0.014513201080262661,-0.09203951060771942,-0.16256850957870483,0.07773587852716446,-0.1369589865207672,-0.11958378553390503,0.10797913372516632,0.10349728167057037,-0.028970766812562943,-0.011874272488057613,-0.16054807603359222,0.08590768277645111,-1.7126868963241577,0.11633928120136261,3.3363399505615234,-0.03841397166252136,-0.8329168558120728,-0.6572745442390442,-0.13257911801338196,-0.0194106325507164,-1.9708503484725952,-0.16040346026420593,-0.12246587872505188,0.062108688056468964,-0.10626499354839325,0.6347048878669739,-0.741593599319458,0.16265389323234558,-1.7661826610565186,0.48426884412765503
1760498063.511118,0.02,0.015217050909996033,-0.2238886058330536,-0.14887826144695282,0.018149271607398987,0.057038355618715286,-0.9982070326805115,-0.16807466745376587,0.7707712650299072,-0.5552788972854614,-0.009213597513735294,0.010332822799682617,0.31026673316955566,0.07750189304351807,-0.01960766315460205,0.0014467239379882812,-0.18975920975208282,-0.012847959995269775,-5.14984130859375e-05,0.06643999367952347,0.02636963129043579,0.08841300010681152,0.0,0.0,0.0,0.0,0.06943436712026596,0.014468587934970856,-0.022317741066217422,-0.10256550461053848,-0.13515730202198029,0.032711755484342575,-0.1310102343559265,-0.11288590729236603,0.0786982849240303,0.09502222388982773,-0.05208450183272362,0.01665823720395565,-0.22952008247375488,-0.0013986675767228007,-1.568886637687683,0.18618811666965485,2.961564779281616,-0.018374621868133545,-0.6538814306259155,-0.6880009770393372,-0.151267409324646,0.09629688411951065,-2.080320358276367,-0.17885875701904297,0.02208854630589485,-0.042119987308979034,-0.4001266360282898,0.5837494134902954,-0.9943623542785645,-0.14167287945747375,-1.286939024925232,0.5040216445922852
1760498063.5659142,0.02,0.03854698687791824,-0.2149902731180191,-0.15353265404701233,-0.0008652098476886749,0.05734236165881157,-0.9983541965484619,-0.16807466745376587,0.7707712650299072,-0.5493776798248291,0.01735607348382473,0.018883347511291504,0.30070531368255615,0.03729161620140076,-0.06793498992919922,0.00813913345336914,-0.23639555275440216,-0.05752694606781006,0.0218203067779541,0.10545730590820312,0.0010548233985900879,0.10012906789779663,0.0,0.0,0.0,0.0,0.07562455534934998,0.030399788171052933,-0.026894090697169304,-0.08576669543981552,-0.10967852920293808,0.010333049111068249,-0.09670419245958328,-0.09784185141324997,0.060994721949100494,0.10475149005651474,-0.06655397266149521,0.03541851416230202,-0.28633913397789,-0.06262471526861191,-1.5645922422409058,0.22321780025959015,2.737525224685669,0.04162004590034485,-0.48139894008636475,-0.6126061677932739,-0.2586047649383545,0.12883798778057098,-2.0981032848358154,-0.12978079915046692,0.16476428508758545,-0.049003638327121735,-0.6371628046035767,0.4958372712135315,-1.1156620979309082,-0.36729565262794495,-1.0222245454788208,0.3232153058052063
1760498063.6393847,0.02,0.1720515638589859,-0.18172842264175415,-0.137027770280838,-0.01786993257701397,0.04650551453232765,-0.9987581968307495,-0.16807466745376587,0.7707712650299072,-0.543533444404602,0.05553201958537102,0.033917248249053955,0.28917860984802246,0.018451202660799026,-0.1056169867515564,0.012474656105041504,-0.25193363428115845,-0.08677095174789429,0.020102262496948242,0.15646466612815857,-0.025318622589111328,0.11455923318862915,0.0,0.0,0.0,0.0,0.10541822761297226,0.04511668533086777,-0.025125298649072647,-0.02656647004187107,-0.08097434043884277,0.00891350582242012,-0.015003125183284283,-0.044709011912345886,-0.021135905757546425,0.13602660596370697,-0.0724342092871666,0.05161366984248161,-0.30610400438308716,-0.12185193598270416,-1.4146859645843506,0.23134635388851166,1.647837519645691,0.0893821120262146,-0.08945198357105255,-0.2560793459415436,-0.31091243028640747,0.044494397938251495,-1.2829934358596802,-0.28988221287727356,0.33897069096565247,-0.10736323148012161,-0.6895321607589722,0.3776785135269165,-1.1896967887878418,-0.6693413853645325,-1.0903947353363037,0.200343519449234
1760498063.6950154,0.02,0.21654997766017914,-0.024273037910461426,-0.1567162275314331,-0.02594646066427231,0.02778765931725502,-0.9992770552635193,-0.16807466745376587,0.7707712650299072,-0.537137508392334,0.08989235013723373,0.04772287607192993,0.28216421604156494,0.04050149396061897,-0.11141705513000488,0.011326909065246582,-0.22330719232559204,-0.08726471662521362,-0.02503800392150879,0.21050575375556946,-0.04941743612289429,0.14844340085983276,0.0,0.0,0.0,0.0,0.06500279158353806,0.03010033443570137,-0.003925084602087736,0.08791527897119522,0.02461671270430088,-0.005766385234892368,0.10072358697652817,0.03831150010228157,-0.1313219517469406,0.11310255527496338,-0.050946276634931564,0.0974074974656105,-0.2910195589065552,-0.05550990253686905,-0.8954765200614929,0.07725503295660019,-1.5387589931488037,-0.16611400246620178,0.7062171697616577,1.087123990058899,0.10651097446680069,-0.2186957150697708,0.6661480665206909,-0.520573616027832,0.4810011088848114,-0.0629786029458046,-0.3715311884880066,0.4801448583602905,-1.1607024669647217,-0.5807668566703796,-1.0900757312774658,0.23059768974781036
1760498063.7648969,0.02,0.06355567276477814,0.11261332035064697,-0.16223633289337158,-0.021252252161502838,0.017825834453105927,-0.9996151924133301,-0.16807466745376587,0.7707712650299072,-0.5304858684539795,0.09441894292831421,0.03769892454147339,0.3051748275756836,0.07922711223363876,-0.08155769109725952,0.002955198287963867,-0.17366042733192444,-0.05410611629486084,-0.08070981502532959,0.22608566284179688,-0.053629398345947266,0.1684287190437317,0.0,0.0,0.0,0.0,-0.021810512989759445,-0.04722912982106209,0.07099243998527527,0.08249609917402267,0.08716016262769699,-0.012831701897084713,0.1185482069849968,0.10751967877149582,-0.10205816477537155,-0.007224350702017546,0.013120993040502071,0.017433391883969307,-0.22062042355537415,-0.12026257812976837,-0.13453659415245056,0.13881778717041016,-2.3022451400756836,-0.5126447677612305,1.1211175918579102,1.5723202228546143,0.5665981769561768,-0.838890552520752,1.8438372611999512,-0.18893128633499146,0.6123749613761902,-0.12263471633195877,-0.05837634205818176,0.5978766679763794,-0.929053783416748,-0.044834766536951065,-0.7082309126853943,0.49166733026504517
1760498063.8261912,0.02,-0.04446563869714737,0.17689819633960724,-0.14599810540676117,-0.009828017093241215,0.018852172419428825,-0.9997739791870117,-0.16807466745376587,0.7707712650299072,-0.5243747234344482,0.06631109118461609,0.025929689407348633,0.30558931827545166,0.1052689179778099,-0.03885328769683838,-0.0018581748008728027,-0.13422827422618866,-0.011056363582611084,-0.10787546634674072,0.19130022823810577,-0.021442055702209473,0.12788736820220947,0.0,0.0,0.0,0.0,-0.0921294093132019,-0.02462356723845005,-0.023320423439145088,0.05666964873671532,0.11634637415409088,-0.0024734686594456434,0.0915379598736763,0.1012384220957756,-0.04137551784515381,-0.1252325028181076,0.09387500584125519,-0.10801819711923599,-0.30604085326194763,-0.2544519603252411,-0.2138349562883377,0.14046847820281982,-1.8167670965194702,-0.173198401927948,0.8957556486129761,1.0938944816589355,0.15024489164352417,-1.3040165901184082,1.5547504425048828,-0.02573702484369278,0.496527761220932,-0.3704640865325928,0.2771693170070648,0.5473443865776062,-1.273110032081604,-0.7449325919151306,-0.8026002645492554,0.6980083584785461
1760498063.8922296,0.02,-0.014271736145019531,0.2300567775964737,-0.14339031279087067,0.0062507810071110725,0.020278504118323326,-0.9997748136520386,-0.16807466745376587,0.7707712650299072,-0.5184953212738037,0.0244920551776886,0.019258081912994385,0.2864398956298828,0.13058578968048096,0.0074236392974853516,-0.0016911625862121582,-0.09561853855848312,0.023803114891052246,-0.11443865299224854,0.1363356113433838,0.02531331777572632,0.07554066181182861,0.0,0.0,0.0,0.0,-0.11234503984451294,-0.01453094370663166,-0.05256950482726097,0.05948209762573242,0.11206871271133423,0.01776055619120598,0.09902139753103256,0.07992348819971085,0.002946249907836318,-0.138113871216774,0.10897089540958405,-0.09073476493358612,-0.3521178960800171,-0.27810928225517273,-0.17243251204490662,0.19895322620868683,-2.0315873622894287,-0.05504655838012695,1.0205544233322144,1.111872673034668,0.3391961455345154,-1.2910460233688354,1.6087615489959717,-0.026750527322292328,0.3350290358066559,-0.08140627294778824,0.40483224391937256,0.4011625051498413,-1.4248274564743042,-0.3670612871646881,-0.694109320640564,0.9590141177177429
1760498063.951993,0.02,0.016790002584457397,0.24204301834106445,-0.13651537895202637,0.024566665291786194,0.02036614716053009,-0.9994907379150391,-0.16807466745376587,0.7707712650299072,-0.5128533840179443,-0.021467098966240883,0.020908355712890625,0.2594888210296631,0.1582556664943695,0.04794269800186157,-0.007334351539611816,-0.05565059930086136,0.048868536949157715,-0.10816395282745361,0.07418299466371536,0.07250708341598511,0.03347897529602051,0.0,0.0,0.0,0.0,-0.10970767587423325,0.007904943078756332,-0.047453369945287704,0.06942429393529892,0.0911802276968956,-0.0024866387248039246,0.10335712879896164,0.05585572123527527,0.02985459566116333,-0.1534096598625183,0.1078595444560051,-0.0735948458313942,-0.26963746547698975,0.029339129105210304,-0.1000097319483757,0.27667802572250366,-2.163224697113037,0.1345650851726532,0.8993568420410156,0.8855329155921936,0.5068872570991516,-1.1974893808364868,1.909623384475708,-0.2510468065738678,0.1750285029411316,-0.41607967019081116,0.5151025652885437,0.19334352016448975,-1.3074684143066406,0.4741377532482147,-0.4748670160770416,1.3038030862808228
1760498064.018326,0.02,0.041012540459632874,0.21855923533439636,-0.1343885362148285,0.04205099493265152,0.017789049074053764,-0.998957097530365,-0.16807466745376587,0.7707712650299072,-0.5071899890899658,-0.061181049793958664,0.027513980865478516,0.2475740909576416,0.18918539583683014,0.08636963367462158,-0.021262824535369873,-0.01252151932567358,0.06882214546203613,-0.09879255294799805,0.004607486072927713,0.11866176128387451,-0.008080482482910156,0.0,0.0,0.0,0.0,-0.09984228760004044,0.02776508964598179,-0.04077686741948128,0.07548456639051437,0.09196468442678452,-0.028929276391863823,0.10371320694684982,0.055748339742422104,0.003734784899279475,-0.18373362720012665,0.10015992075204849,-0.07457201927900314,-0.26452311873435974,0.09958939999341965,0.004771485924720764,0.33428147435188293,-2.4574830532073975,0.17362916469573975,0.7440534830093384,0.9226657152175903,0.7287889122962952,-1.2048909664154053,2.173616647720337,-0.31011486053466797,0.0885905921459198,-0.7979269623756409,0.6113470196723938,-0.03715266287326813,-1.1478819847106934,0.7581924796104431,-0.4016479551792145,1.570175290107727
1760498064.0725725,0.02,-0.028270885348320007,0.22526977956295013,-0.13425865769386292,0.05937936529517174,0.01859091781079769,-0.9980623722076416,-0.16807466745376587,0.7707712650299072,-0.5016974210739136,-0.10251636058092117,0.04407984018325806,0.231398344039917,0.21739618480205536,0.1288636028766632,-0.04440009593963623,0.027136946097016335,0.09340846538543701,-0.09908425807952881,-0.061152782291173935,0.15279275178909302,-0.03319573402404785,0.0,0.0,0.0,0.0,-0.10529595613479614,0.046801384538412094,-0.03819546848535538,0.06432248651981354,0.10678618401288986,-0.05459057167172432,0.09508313983678818,0.06094786152243614,0.004977158736437559,-0.1479072868824005,0.06830980628728867,-0.035967063158750534,-0.2685970962047577,0.10279538482427597,-0.028913278132677078,0.44873055815696716,-2.335942029953003,0.24334922432899475,0.5378518104553223,0.9749769568443298,0.8368865251541138,-1.2029489278793335,1.7393991947174072,-0.22122550010681152,0.08412916958332062,-0.9435256123542786,0.5957871675491333,-0.12400338053703308,-1.1847114562988281,0.6709142327308655,-0.3059253990650177,1.6638368368148804
1760498064.1351295,0.02,-0.2526412010192871,0.1903025209903717,-0.1355665773153305,0.07561002671718597,0.03834427148103714,-0.9963999390602112,-0.16807466745376587,0.7707712650299072,-0.4960130453109741,-0.14108195900917053,0.05495297908782959,0.24477243423461914,0.22606335580348969,0.17724385857582092,-0.08668822050094604,0.04301539063453674,0.11572039127349854,-0.10092723369598389,-0.09829366207122803,0.14784115552902222,0.007576704025268555,0.0,0.0,0.0,0.0,-0.06655815988779068,0.01679331623017788,0.07229752838611603,0.016850179061293602,0.11932817846536636,-0.11482061445713043,0.029577409848570824,0.051359158009290695,-0.009270756505429745,-0.05644696578383446,-0.04201038181781769,0.14202086627483368,-0.21538369357585907,0.14031006395816803,-0.015361708588898182,0.39102670550346375,-0.14639335870742798,0.26669490337371826,-0.016297295689582825,0.4847663640975952,0.8093805909156799,-1.0016783475875854,-0.42415645718574524,0.28121477365493774,-0.11289283633232117,-0.2440670281648636,0.33547648787498474,0.06179702281951904,-1.1124106645584106,0.7098254561424255,-0.11840557307004929,1.4410699605941772
1760498064.1955943,0.02,-0.2576024532318115,-0.022124484181404114,-0.10492902249097824,0.07948829233646393,0.06244257837533951,-0.9948781728744507,-0.16807466745376587,0.7707712650299072,-0.49093401432037354,-0.1400170475244522,0.03846663236618042,0.29479265213012695,0.21135152876377106,0.19464588165283203,-0.10723257064819336,0.02168409898877144,0.12637674808502197,-0.10741925239562988,-0.08815271407365799,0.10861694812774658,0.07457846403121948,0.0,0.0,0.0,0.0,0.02130972221493721,-0.049851346760988235,0.10865554958581924,-0.0523049496114254,0.003996159415692091,-0.024783313274383545,-0.08938661217689514,0.015010270290076733,-0.0072717368602752686,0.03928746283054352,-0.09932854026556015,0.1169678196310997,-0.031022945418953896,0.2147490233182907,-0.7022058367729187,0.2806147038936615,3.2162086963653564,-0.04444435238838196,-0.6768633127212524,-0.1886741816997528,0.4314013719558716,-0.7938140034675598,-2.1361448764801025,0.7816973924636841,-0.46677401661872864,0.43670663237571716,-0.06440865993499756,0.26443296670913696,-0.3335803747177124,0.8630889058113098,0.3472350537776947,0.6443899273872375
1760498064.2626698,0.02,0.017457641661167145,-0.08970536291599274,-0.09421800822019577,0.07359497994184494,0.06912138313055038,-0.9948899745941162,-0.16807466745376587,0.7707712650299072,-0.4869440793991089,-0.11681973934173584,0.019762754440307617,0.32075583934783936,0.19223995506763458,0.16677531599998474,-0.08340060710906982,-0.01389731839299202,0.1181226372718811,-0.10128653049468994,-0.05891608074307442,0.07622665166854858,0.10321909189224243,0.0,0.0,0.0,0.0,0.07818058878183365,-0.03867694362998009,0.039379630237817764,-0.04458419233560562,-0.09240926802158356,0.06596007943153381,-0.09408940374851227,-0.050387680530548096,0.083461694419384,0.08969280868768692,-0.06176024302840233,0.029073510318994522,0.041560571640729904,0.26198509335517883,-1.7258573770523071,0.29281362891197205,4.05037784576416,-0.02294144034385681,-0.9721071720123291,-0.02134055271744728,0.15258236229419708,-0.45206061005592346,-1.7872406244277954,0.29023972153663635,-0.46019604802131653,0.25313451886177063,-0.1772446632385254,0.7023967504501343,0.07782351225614548,1.0188817977905273,-1.1638818979263306,0.7649702429771423
1760498064.3185303,0.02,0.15774837136268616,-0.17849183082580566,-0.0965726375579834,0.06088483706116676,0.06237710267305374,-0.9961938261985779,-0.16807466745376587,0.7707712650299072,-0.4832921028137207,-0.08041326701641083,0.00924694538116455,0.3228304386138916,0.1673554927110672,0.1173425018787384,-0.0550960898399353,-0.05790199339389801,0.08321887254714966,-0.06766021251678467,-0.017513886094093323,0.06031602621078491,0.10191059112548828,0.0,0.0,0.0,0.0,0.10420592129230499,-0.015622682869434357,-0.014606262557208538,-0.06421636044979095,-0.13027837872505188,0.05432729050517082,-0.11438053101301193,-0.11572786420583725,0.15037398040294647,0.11371298879384995,-0.028074506670236588,-0.02203063853085041,-0.011930587701499462,0.17369087040424347,-1.747788667678833,0.1707940250635147,4.068251132965088,-0.0289248526096344,-1.0439468622207642,-0.4759819805622101,0.1012880951166153,-0.20070068538188934,-1.880362868309021,-0.07707583159208298,-0.35930266976356506,0.3546634018421173,0.11090558767318726,0.7333185076713562,-0.23169076442718506,0.6641941070556641,-1.7884739637374878,0.6748619079589844
1760498064.3862429,0.02,0.09929060190916061,-0.21601101756095886,-0.10030584782361984,0.04351437836885452,0.056019917130470276,-0.9974809885025024,-0.16807466745376587,0.7707712650299072,-0.47965383529663086,-0.0451219417154789,0.004499077796936035,0.3177899122238159,0.13239124417304993,0.053096652030944824,-0.019323527812957764,-0.11106069386005402,0.04147684574127197,-0.043384671211242676,0.02353585511445999,0.04802989959716797,0.09337371587753296,0.0,0.0,0.0,0.0,0.09083690494298935,-0.008787591941654682,-0.006290804129093885,-0.08564137667417526,-0.1618536412715912,0.08202395588159561,-0.13333308696746826,-0.115365169942379,0.10157158225774765,0.10233183205127716,-0.029506320133805275,-0.02088269218802452,-0.11990001052618027,0.10194553434848785,-1.7082608938217163,0.14326165616512299,3.5063939094543457,-0.0704818069934845,-0.9065901041030884,-0.6781876087188721,-0.0986216589808464,-0.031187675893306732,-1.9495656490325928,-0.16424959897994995,-0.19226059317588806,0.16067397594451904,0.02482321858406067,0.7075269818305969,-0.6019951701164246,0.2514300048351288,-1.6751128435134888,0.6593160033226013
1760498064.4432385,0.02,0.02409324049949646,-0.2272043377161026,-0.12520214915275574,0.02410716935992241,0.05662711337208748,-0.9981043338775635,-0.16807466745376587,0.7707712650299072,-0.47526490688323975,-0.01806594803929329,0.0036730170249938965,0.31240344047546387,0.08780189603567123,-0.006943762302398682,0.0024394989013671875,-0.17097708582878113,-0.0074707865715026855,-0.014373779296875,0.05889872834086418,0.029843926429748535,0.09277194738388062,0.0,0.0,0.0,0.0,0.0726582482457161,0.008978641591966152,-0.02078242413699627,-0.10372239351272583,-0.13925136625766754,0.04137798771262169,-0.1353408396244049,-0.11474054306745529,0.08043789863586426,0.09234756231307983,-0.04725546017289162,0.0065703848376870155,-0.19533570110797882,0.01628256030380726,-1.5642484426498413,0.15353916585445404,3.0225353240966797,-0.06186032295227051,-0.7734096050262451,-0.7333151698112488,-0.13198637962341309,0.10061732679605484,-2.058483600616455,-0.19701284170150757,-0.03591558709740639,0.024455510079860687,-0.2586367726325989,0.6493950486183167,-0.892959713935852,-0.06885532289743423,-1.3123477697372437,0.6038661599159241
1760498064.503646,0.02,0.029138371348381042,-0.22497737407684326,-0.13301552832126617,0.004553725942969322,0.057384636253118515,-0.9983417391777039,-0.16807466745376587,0.7707712650299072,-0.4703131914138794,0.008565585128962994,0.010226726531982422,0.3028830289840698,0.04516502097249031,-0.05695521831512451,0.011116385459899902,-0.2223079651594162,-0.05455821752548218,0.011699020862579346,0.09567473828792572,0.006215810775756836,0.09992146492004395,0.0,0.0,0.0,0.0,0.0745762437582016,0.025690017268061638,-0.027730247005820274,-0.09378203004598618,-0.11359181255102158,0.013519917614758015,-0.11082562059164047,-0.10975475609302521,0.08451830595731735,0.09971066564321518,-0.059547778218984604,0.018060168251395226,-0.2576551139354706,-0.04482775181531906,-1.601837396621704,0.13274088501930237,2.827103853225708,0.023914724588394165,-0.5561730861663818,-0.6813360452651978,-0.2343624234199524,0.1340169459581375,-2.1238396167755127,-0.1352318823337555,0.12464602291584015,-0.0460614338517189,-0.5557131171226501,0.5304459929466248,-0.9784576892852783,-0.2925858199596405,-1.0071487426757812,0.38076865673065186
1760498064.5608923,0.02,0.13264423608779907,-0.20067445933818817,-0.11999005079269409,-0.013727609068155289,0.04973422363400459,-0.9986681342124939,-0.16807466745376587,0.7707712650299072,-0.46535372734069824,0.043997760862112045,0.02325218915939331,0.29071617126464844,0.017640305683016777,-0.09780699014663696,0.016190767288208008,-0.2491263449192047,-0.08974355459213257,0.022213459014892578,0.14171741902828217,-0.0187188982963562,0.10934019088745117,0.0,0.0,0.0,0.0,0.0976489782333374,0.040312644094228745,-0.02910117618739605,-0.05191853269934654,-0.09068860858678818,0.010697622783482075,-0.04568967595696449,-0.06571483612060547,0.023140696808695793,0.1253495067358017,-0.06377199292182922,0.028151696547865868,-0.2929253876209259,-0.10970526933670044,-1.5220316648483276,0.1177845224738121,2.2138495445251465,0.10610559582710266,-0.22374168038368225,-0.49914172291755676,-0.3291396498680115,0.11764741688966751,-1.6368558406829834,-0.20165130496025085,0.2965105473995209,-0.09476248174905777,-0.689058780670166,0.4079843759536743,-0.9615023732185364,-0.5751693844795227,-0.9153638482093811,0.16013655066490173
1760498064.62536,0.02,0.22810432314872742,-0.08441033959388733,-0.12502604722976685,-0.025271939113736153,0.03108035773038864,-0.9991973638534546,-0.16807466745376587,0.7707712650299072,-0.46012210845947266,0.0873744934797287,0.03816300630569458,0.283211350440979,0.02677720971405506,-0.11528193950653076,0.017938971519470215,-0.2322986125946045,-0.09807288646697998,-0.0076580047607421875,0.19750303030014038,-0.0432591438293457,0.13573092222213745,0.0,0.0,0.0,0.0,0.10313421487808228,0.03876236826181412,-0.004526404198259115,0.05121079832315445,-0.013877076096832752,0.0018205879023298621,0.07061805576086044,0.01698819175362587,-0.09874776005744934,0.12922829389572144,-0.05934147909283638,0.08926200866699219,-0.22969232499599457,-0.06536921113729477,-1.1013015508651733,0.17223063111305237,-0.620106041431427,-0.04653921723365784,0.535205602645874,0.6465362310409546,-0.07231753319501877,-0.11643778532743454,0.13763096928596497,-0.4381687045097351,0.46672526001930237,-0.07842019945383072,-0.48734474182128906,0.4257182478904724,-0.9807853698730469,-0.5397902131080627,-0.8927354216575623,0.06283622980117798
1760498064.6827865,0.02,0.10273396968841553,0.0783022791147232,-0.1563740223646164,-0.02410810999572277,0.016743946820497513,-0.9995691180229187,-0.16807466745376587,0.7707712650299072,-0.45394062995910645,0.10645739734172821,0.027478396892547607,0.3110542297363281,0.06746479868888855,-0.0913885235786438,0.010485053062438965,-0.18361032009124756,-0.07218754291534424,-0.0664069652557373,0.22704745829105377,-0.05286216735839844,0.16209262609481812,0.0,0.0,0.0,0.0,0.0041721477173268795,-0.05249921604990959,0.08567896485328674,0.08960770815610886,0.08244739472866058,-0.0064739324152469635,0.12102406471967697,0.09578420221805573,-0.122020423412323,0.02332799881696701,-0.002221129834651947,0.038653306663036346,-0.22803543508052826,-0.1593632698059082,-0.024905992671847343,0.11201827973127365,-2.6811225414276123,-0.6494324207305908,1.0827741622924805,1.674702763557434,0.4576653242111206,-0.5704457759857178,1.7553799152374268,-0.28960052132606506,0.6347830891609192,-0.056083329021930695,-0.12695813179016113,0.5516663789749146,-0.9710742235183716,-0.27592960000038147,-0.6416085362434387,0.32071512937545776
1760498064.7421849,0.02,-0.03608788549900055,0.1522749662399292,-0.1375875174999237,-0.01473960094153881,0.01592138409614563,-0.999764621257782,-0.16807466745376587,0.7707712650299072,-0.4481714963912964,0.0845777615904808,0.015113890171051025,0.314475417137146,0.09508752077817917,-0.0480121374130249,0.008656024932861328,-0.14369900524616241,-0.02835303544998169,-0.10115551948547363,0.20136354863643646,-0.024128079414367676,0.12608873844146729,0.0,0.0,0.0,0.0,-0.08332191407680511,-0.025260159745812416,-0.01880784146487713,0.05711560323834419,0.11980143934488297,0.0029763325583189726,0.08982223272323608,0.10649778693914413,-0.05836615711450577,-0.10783693939447403,0.09016640484333038,-0.1068730279803276,-0.30230653285980225,-0.3248859643936157,-0.2072300761938095,0.10216529667377472,-1.9716497659683228,-0.24244114756584167,0.9204936027526855,1.1638107299804688,0.13297587633132935,-1.3310517072677612,1.5903196334838867,0.07757572084665298,0.595145583152771,-0.3148724436759949,0.27454274892807007,0.5264669060707092,-1.2622780799865723,-1.017487645149231,-0.7311989665031433,0.5050937533378601
1760498064.8004289,0.02,-0.009174615144729614,0.21841324865818024,-0.12312877923250198,-7.206620648503304e-05,0.018094874918460846,-0.999836266040802,-0.16807466745376587,0.7707712650299072,-0.4429361820220947,0.04360593110322952,0.007302224636077881,0.2976384162902832,0.11931543797254562,-0.002736389636993408,0.007644295692443848,-0.1076052263379097,0.0070732831954956055,-0.1121283769607544,0.15099118649959564,0.017464101314544678,0.08033215999603271,0.0,0.0,0.0,0.0,-0.10856597870588303,-0.01771126501262188,-0.04636607691645622,0.07590864598751068,0.11733181774616241,0.0028583072125911713,0.09433654695749283,0.07931668311357498,-0.002269817516207695,-0.12129715830087662,0.09721646457910538,-0.07783304899930954,-0.3638763427734375,0.005056333728134632,-0.1584303081035614,0.17535944283008575,-2.1041665077209473,-0.14225813746452332,1.0436431169509888,1.2022839784622192,0.267423152923584,-1.3466116189956665,1.4754981994628906,0.0811738446354866,0.4828758239746094,0.02071932703256607,0.3288014829158783,0.4082023501396179,-1.4696379899978638,-0.5168375372886658,-0.5305328965187073,0.8136476874351501
1760498064.8676994,0.02,-0.007139056921005249,0.249735489487648,-0.11357738077640533,0.0185098834335804,0.019365737214684486,-0.9996411204338074,-0.16807466745376587,0.7707712650299072,-0.43807852268218994,-0.00585164176300168,0.0075841546058654785,0.2654905319213867,0.14479568600654602,0.03803873062133789,0.006716012954711914,-0.07089664041996002,0.03481572866439819,-0.10628819465637207,0.09681902825832367,0.058244526386260986,0.049466609954833984,0.0,0.0,0.0,0.0,-0.12068736553192139,-0.0030242425855249166,-0.04952763766050339,0.06613572686910629,0.09265190362930298,-0.00020243936160113662,0.0929899737238884,0.06307698786258698,0.028219027444720268,-0.13348142802715302,0.09271713346242905,-0.04842860624194145,-0.2472480833530426,-0.07482169568538666,-0.12729805707931519,0.22818104922771454,-2.126272678375244,0.010665461421012878,0.8567626476287842,0.9005722403526306,0.3048279285430908,-1.2906358242034912,1.6636173725128174,-0.1760386824607849,0.26384803652763367,-0.2621420621871948,0.4264060854911804,0.25763261318206787,-1.4346492290496826,-0.005652104504406452,-0.6309689283370972,1.024333119392395
1760498064.9255085,0.02,0.04702845215797424,0.2204800248146057,-0.1175839826464653,0.03637392446398735,0.01695273630321026,-0.9991944432258606,-0.16807466745376587,0.7707712650299072,-0.43333280086517334,-0.04933800920844078,0.011475622653961182,0.24921011924743652,0.17548711597919464,0.07402944564819336,-0.002651810646057129,-0.030090149492025375,0.05484592914581299,-0.09617364406585693,0.035528674721717834,0.10460406541824341,0.00828927755355835,0.0,0.0,0.0,0.0,-0.10477951914072037,0.018897827714681625,-0.04125561565160751,0.07577662914991379,0.08611076325178146,-0.015733983367681503,0.1057305708527565,0.04515807330608368,0.029265303164720535,-0.16238079965114594,0.10756101459264755,-0.08163023740053177,-0.2497951239347458,0.07698368281126022,-0.02853437140583992,0.27900126576423645,-2.4276912212371826,0.12416248023509979,0.7909694910049438,0.9145155549049377,0.7007372975349426,-1.2280935049057007,2.22176456451416,-0.32391485571861267,0.10227906703948975,-0.6859317421913147,0.6301401257514954,0.04692357778549194,-1.177606463432312,0.7286892533302307,-0.3686865568161011,1.3482168912887573
1760498064.9942188,0.02,0.040579214692115784,0.2079937905073166,-0.11468175798654556,0.05285069718956947,0.014917966909706593,-0.9984909892082214,-0.16807466745376587,0.7707712650299072,-0.42870616912841797,-0.09246596693992615,0.0266571044921875,0.22760534286499023,0.20640970766544342,0.11158910393714905,-0.021843433380126953,0.010458416305482388,0.07625210285186768,-0.09456861019134521,-0.03458278626203537,0.14421558380126953,-0.02444314956665039,0.0,0.0,0.0,0.0,-0.10592136532068253,0.047207336872816086,-0.06190448999404907,0.07713734358549118,0.09033583104610443,-0.04015376418828964,0.10364530235528946,0.058113034814596176,-0.0015888892812654376,-0.1443723887205124,0.09842678159475327,-0.08971276134252548,-0.2836155891418457,0.11468904465436935,0.006646478082984686,0.41553202271461487,-2.5890872478485107,0.19325004518032074,0.6351093053817749,0.9888859391212463,0.7925284504890442,-1.234463095664978,2.0771968364715576,-0.25296488404273987,0.08703453838825226,-0.949211061000824,0.6290480494499207,-0.1003684401512146,-1.2089542150497437,0.805965006351471,-0.24642959237098694,1.5270328521728516
1760498065.0549507,0.02,-0.14333288371562958,0.22545617818832397,-0.11185036599636078,0.07029388099908829,0.024873042479157448,-0.9972161650657654,-0.16807466745376587,0.7707712650299072,-0.42397046089172363,-0.137784942984581,0.04591172933578491,0.21780860424041748,0.2259092628955841,0.1555914580821991,-0.05436849594116211,0.04015972837805748,0.10040980577468872,-0.09528827667236328,-0.08143731951713562,0.15737098455429077,-0.01238870620727539,0.0,0.0,0.0,0.0,-0.10251583904027939,0.047413650900125504,-0.0036326346453279257,0.04379686713218689,0.11197246611118317,-0.08462521433830261,0.06940120458602905,0.059446997940540314,0.0012078759027644992,-0.09590794891119003,0.00373036484234035,0.07830198109149933,-0.2852143347263336,0.1370439976453781,0.010740845464169979,0.39651861786842346,-1.5306848287582397,0.2721433639526367,0.24333584308624268,0.7343147993087769,0.8524916172027588,-1.132817029953003,1.0046690702438354,-0.04545321315526962,0.0513828806579113,-0.8425741195678711,0.4486127495765686,-0.020627394318580627,-1.309922456741333,0.7157562375068665,-0.1661505401134491,1.4721866846084595
1760498065.1223743,0.02,-0.2692706286907196,0.05917486548423767,-0.10525467991828918,0.08029959350824356,0.048916496336460114,-0.9955697655677795,-0.16807466745376587,0.7707712650299072,-0.4194202423095703,-0.155626580119133,0.0454556941986084,0.25512874126434326,0.22254690527915955,0.1941184103488922,-0.09597569704055786,0.03488755598664284,0.11723917722702026,-0.09862077236175537,-0.0938720554113388,0.13251787424087524,0.047035396099090576,0.0,0.0,0.0,0.0,0.016546819359064102,-0.026049211621284485,0.1421024650335312,-0.019633004441857338,0.07725589722394943,-0.09520696103572845,-0.037728652358055115,0.03151042014360428,-0.01801820658147335,0.006651333067566156,-0.0818038135766983,0.1406438648700714,-0.18074166774749756,0.21114948391914368,-0.02337854914367199,0.22840826213359833,1.6141011714935303,0.1493009626865387,-0.493772953748703,-0.04921070113778114,0.7694703936576843,-0.8400353193283081,-1.5090980529785156,0.5215942859649658,-0.29795581102371216,0.190530464053154,0.16179019212722778,0.1305212378501892,-0.9301434755325317,0.8475416302680969,0.07562629133462906,0.8400517106056213
1760498065.1802135,0.02,-0.1698334664106369,-0.07611438632011414,-0.08412890136241913,0.07799171656370163,0.06756956875324249,-0.9946615695953369,-0.16807466745376587,0.7707712650299072,-0.4155973196029663,-0.1446431428194046,0.02740931510925293,0.2960989475250244,0.20100057125091553,0.18055322766304016,-0.08138257265090942,-0.0004071338626090437,0.11876517534255981,-0.10062575340270996,-0.07632085680961609,0.09211832284927368,0.09575366973876953,0.0,0.0,0.0,0.0,0.040852781385183334,-0.046780023723840714,0.07536478340625763,-0.061516501009464264,-0.07474818080663681,0.05721358209848404,-0.10973687469959259,-0.013729195110499859,0.018743446096777916,0.052015479654073715,-0.09389054030179977,0.0793849378824234,-0.008879791013896465,0.2105318158864975,-0.5227224826812744,0.30024290084838867,3.6336286067962646,-0.06243157386779785,-0.8556756973266602,-0.13630101084709167,0.06646686047315598,-0.6402392983436584,-2.0399739742279053,0.7181046605110168,-0.4783417284488678,0.46112051606178284,-0.25280290842056274,0.5571414232254028,-0.1932278275489807,0.8027946949005127,0.19548609852790833,0.7147544026374817
1760498065.246147,0.02,0.15137125551700592,-0.13068024814128876,-0.08524984866380692,0.06800626218318939,0.0646936297416687,-0.9955852031707764,-0.16807466745376587,0.7707712650299072,-0.41221117973327637,-0.1112496629357338,0.014533400535583496,0.3072391748428345,0.18445377051830292,0.14581096172332764,-0.06616848707199097,-0.03596041351556778,0.09690755605697632,-0.07262015342712402,-0.03863666206598282,0.0685662031173706,0.10588681697845459,0.0,0.0,0.0,0.0,0.10600250959396362,-0.019510241225361824,0.004941664170473814,-0.03170875087380409,-0.08964740484952927,0.024529417976737022,-0.07554509490728378,-0.05860990285873413,0.08887869119644165,0.11440890282392502,-0.04600589722394943,0.011078493669629097,0.006331932730972767,0.23281292617321014,-1.6528154611587524,0.21300993859767914,3.8080084323883057,-0.010995030403137207,-1.0335822105407715,0.08462628722190857,0.3101389408111572,-0.331182062625885,-1.55659019947052,0.2152101695537567,-0.3361557722091675,0.17916549742221832,-0.12589696049690247,0.7099339365959167,-0.08851910382509232,0.9132608771324158,-1.0497353076934814,0.5667793154716492
1760498065.307523,0.02,0.1490691602230072,-0.20028884708881378,-0.08388549834489822,0.05300711840391159,0.05575242266058922,-0.9970365762710571,-0.16807466745376587,0.7707712650299072,-0.4089847803115845,-0.07258383929729462,0.0084419846534729,0.30302906036376953,0.1552051603794098,0.09183818101882935,-0.04163485765457153,-0.07963291555643082,0.06341695785522461,-0.04558300971984863,0.004353267606347799,0.054555296897888184,0.10043776035308838,0.0,0.0,0.0,0.0,0.10256119817495346,-0.007839938625693321,-0.02236267738044262,-0.0697644054889679,-0.15644524991512299,0.08609099686145782,-0.11739295721054077,-0.1089223250746727,0.13055109977722168,0.11026694625616074,-0.026777256280183792,-0.029449690133333206,-0.05786530300974846,0.1895938366651535,-1.7394293546676636,0.15694768726825714,3.9681451320648193,-0.04111930727958679,-0.9161413908004761,-0.6484069228172302,-0.032817207276821136,-0.17234362661838531,-1.887683629989624,-0.13349810242652893,-0.2851186692714691,0.261362224817276,0.05565685033798218,0.7117949724197388,-0.41316062211990356,0.5101215243339539,-1.7252652645111084,0.6095035672187805
1760498065.3954442,0.02,0.06252868473529816,-0.2253863513469696,-0.08889257162809372,0.03457127511501312,0.05226587876677513,-0.9980345964431763,-0.16807466745376587,0.7707712650299072,-0.405842661857605,-0.039644524455070496,0.006380021572113037,0.29797375202178955,0.11557599157094955,0.025828182697296143,-0.009334683418273926,-0.13460016250610352,0.024239182472229004,-0.026262879371643066,0.042226992547512054,0.04071080684661865,0.0924539566040039,0.0,0.0,0.0,0.0,0.08600854128599167,-0.002105589723214507,-0.0025893335696309805,-0.09694229811429977,-0.16038909554481506,0.066269151866436,-0.13532592356204987,-0.11227955669164658,0.10033433884382248,0.09529648721218109,-0.03431185707449913,-0.017501454800367355,-0.1407822072505951,0.07380260527133942,-1.7118993997573853,0.14045779407024384,3.5086262226104736,-0.036352843046188354,-0.7408511638641357,-0.8193220496177673,-0.14047423005104065,-0.015461943112313747,-1.9426696300506592,-0.20984196662902832,-0.12437604367733002,0.02820976823568344,-0.08108256012201309,0.6704006791114807,-0.7443656921386719,0.12945124506950378,-1.4726009368896484,0.5748679637908936
1760498065.4508626,0.02,0.030331969261169434,-0.22938591241836548,-0.10506783425807953,0.01484514120966196,0.0528281070291996,-0.9984932541847229,-0.16807466745376587,0.7707712650299072,-0.40204918384552,-0.01148349791765213,0.0074027180671691895,0.2938120365142822,0.07123126089572906,-0.03236699104309082,0.007249712944030762,-0.19009971618652344,-0.022442758083343506,0.002102077007293701,0.07755723595619202,0.02157825231552124,0.0908212661743164,0.0,0.0,0.0,0.0,0.0786786898970604,0.011266573332250118,-0.014665587805211544,-0.0995527058839798,-0.13281986117362976,0.02969021163880825,-0.1204344853758812,-0.10281180590391159,0.06766673177480698,0.09396718442440033,-0.049932800233364105,0.0042898692190647125,-0.214328795671463,-0.012156381271779537,-1.5446017980575562,0.19297845661640167,3.147989273071289,-0.03931257128715515,-0.6071305274963379,-0.8551943302154541,-0.167319655418396,0.10315565019845963,-2.0014190673828125,-0.22529491782188416,0.04346748813986778,-0.06957178562879562,-0.34814316034317017,0.5849037766456604,-0.9327942132949829,-0.19456371665000916,-0.9960896372795105,0.5101630687713623
1760498065.5125546,0.02,0.04785068333148956,-0.21645686030387878,-0.1074853166937828,-0.0041819848120212555,0.052204277366399765,-0.9986276626586914,-0.16807466745376587,0.7707712650299072,-0.3978956937789917,0.018052352592349052,0.01410818099975586,0.28723883628845215,0.03209720551967621,-0.07883024215698242,0.013202190399169922,-0.23300127685070038,-0.062655508518219,0.02001422643661499,0.1155882477760315,-0.0027698278427124023,0.09790337085723877,0.0,0.0,0.0,0.0,0.08417953550815582,0.02556992508471012,-0.01781928353011608,-0.0831228643655777,-0.10383444279432297,0.009285837411880493,-0.08760236203670502,-0.08336536586284637,0.045252490788698196,0.102096788585186,-0.0651041567325592,0.026578808203339577,-0.24191485345363617,-0.06763027608394623,-1.5254172086715698,0.22439078986644745,2.8705241680145264,0.04111096262931824,-0.45629942417144775,-0.7233853936195374,-0.2691757082939148,0.14984993636608124,-2.023552656173706,-0.1600368618965149,0.18910959362983704,-0.07363671809434891,-0.5946781635284424,0.497239351272583,-0.9607266783714294,-0.38348647952079773,-0.7627027034759521,0.35556963086128235
1760498065.571605,0.02,0.1851462423801422,-0.17071965336799622,-0.09199938923120499,-0.02041001245379448,0.040244705975055695,-0.9989813566207886,-0.16807466745376587,0.7707712650299072,-0.3937946557998657,0.05921655893325806,0.0274389386177063,0.27872657775878906,0.01576811820268631,-0.11285603046417236,0.017531752586364746,-0.24379190802574158,-0.08697426319122314,0.015664994716644287,0.1656077355146408,-0.028711259365081787,0.1104399561882019,0.0,0.0,0.0,0.0,0.11276470869779587,0.040069419890642166,-0.016495684161782265,-0.019274648278951645,-0.07015667110681534,0.00907811988145113,-0.0020598662085831165,-0.031462009996175766,-0.027591466903686523,0.13376955687999725,-0.07255025953054428,0.04958609491586685,-0.28474804759025574,-0.12839801609516144,-1.3790830373764038,0.20716814696788788,1.5393036603927612,0.08055806159973145,-0.05459121614694595,-0.26410147547721863,-0.3029075860977173,0.05789364129304886,-1.0921356678009033,-0.3365403711795807,0.3692837953567505,-0.11021468788385391,-0.6512681841850281,0.3732730746269226,-1.0274907350540161,-0.6845349669456482,-0.9181590676307678,0.1835738718509674
1760498065.636975,0.02,0.230698823928833,0.011911660432815552,-0.11246328800916672,-0.026537040248513222,0.02147725597023964,-0.9994170665740967,-0.16807466745376587,0.7707712650299072,-0.38898158073425293,0.09266234189271927,0.03691422939300537,0.2761867046356201,0.04348950460553169,-0.11099833250045776,0.014343976974487305,-0.21085123717784882,-0.08240461349487305,-0.029053688049316406,0.21548886597156525,-0.05004763603210449,0.14348626136779785,0.0,0.0,0.0,0.0,0.060608088970184326,0.020238390192389488,0.0046235183253884315,0.1094885990023613,0.047147832810878754,-0.011373993940651417,0.11410140246152878,0.08522596210241318,-0.19229191541671753,0.09774873405694962,-0.03937212750315666,0.08556390553712845,-0.2616649270057678,-0.08653512597084045,-0.4682692587375641,0.06305404752492905,-1.8787575960159302,-0.2827620506286621,0.7621307373046875,1.217653751373291,0.21556520462036133,-0.18470580875873566,0.9212696552276611,-0.4930375814437866,0.5441876649856567,-0.009053983725607395,-0.29210254549980164,0.4664275646209717,-1.0503658056259155,-0.5689030289649963,-0.8378146886825562,0.13896900415420532
1760498065.6923947,0.02,0.009800940752029419,0.11476796120405197,-0.12269481271505356,-0.020569298416376114,0.015285857021808624,-0.9996715784072876,-0.16807466745376587,0.7707712650299072,-0.3839893341064453,0.08981359004974365,0.028366267681121826,0.29067230224609375,0.07865610718727112,-0.07500535249710083,0.006881356239318848,-0.1659146547317505,-0.05063408613204956,-0.07791769504547119,0.21633435785770416,-0.04385972023010254,0.1441677212715149,0.0,0.0,0.0,0.0,-0.04075581952929497,-0.03856516256928444,0.03942358121275902,0.07234703749418259,0.10468119382858276,-0.014806777238845825,0.0961533710360527,0.08409147709608078,-0.08284329622983932,-0.04775162786245346,0.04000740498304367,-0.03394855186343193,-0.23540878295898438,-0.23613031208515167,-0.02095966227352619,0.07326556742191315,-2.2007923126220703,-0.47125664353370667,0.9470908641815186,1.2703876495361328,0.5275978446006775,-0.937232494354248,1.7947096824645996,-0.07310103625059128,0.6980653405189514,-0.0777217224240303,0.07756593823432922,0.5253583788871765,-0.989967942237854,-0.3383454382419586,-0.34148094058036804,0.3177313208580017
1760498065.752501,0.02,0.007920429110527039,0.186427041888237,-0.11546488851308823,-0.008237511850893497,0.014030130580067635,-0.9998676180839539,-0.16807466745376587,0.7707712650299072,-0.37928664684295654,0.06189486011862755,0.017016828060150146,0.2876068353652954,0.10763213038444519,-0.031018316745758057,0.003818035125732422,-0.12637034058570862,-0.015996217727661133,-0.09742259979248047,0.17883266508579254,-0.008140206336975098,0.10104638338088989,0.0,0.0,0.0,0.0,-0.0864572748541832,-0.02691594325006008,-0.023694757372140884,0.06953617185354233,0.11343594640493393,7.90432113717543e-06,0.09770380705595016,0.08102118223905563,-0.024868719279766083,-0.10832791775465012,0.09845138341188431,-0.10219756513834,-0.3099381625652313,-0.2618103325366974,-0.1319795697927475,0.14154161512851715,-2.020756483078003,-0.21183571219444275,0.9014014005661011,1.1553854942321777,0.1942814290523529,-1.2960644960403442,1.6035521030426025,0.13472974300384521,0.5807225108146667,-0.06506333500146866,0.3134034276008606,0.4656704068183899,-1.2820873260498047,-0.5926558375358582,-0.3987276554107666,0.574874222278595
1760498065.817939,0.02,-0.024924486875534058,0.24388551712036133,-0.1068735346198082,0.008940640836954117,0.015916049480438232,-0.999833345413208,-0.16807466745376587,0.7707712650299072,-0.374808669090271,0.017022840678691864,0.012553095817565918,0.26468729972839355,0.13355429470539093,0.01369023323059082,0.0007545948028564453,-0.09013281762599945,0.011383593082427979,-0.09800338745117188,0.1255972683429718,0.033823490142822266,0.064056396484375,0.0,0.0,0.0,0.0,-0.12130820006132126,-0.005586469080299139,-0.06464134901762009,0.06230546161532402,0.10836335271596909,0.004899683874100447,0.09215794503688812,0.06315553933382034,0.01976994052529335,-0.1347762942314148,0.09645088762044907,-0.054934062063694,-0.353559672832489,-0.21293842792510986,-0.009089887142181396,0.1849091649055481,-2.161186695098877,-0.04361042380332947,0.8944370746612549,1.0547723770141602,0.3617050349712372,-1.2814886569976807,1.5505108833312988,0.056542105972766876,0.4565136432647705,-0.025927208364009857,0.3868664801120758,0.3350590467453003,-1.4269248247146606,-0.13025334477424622,-0.2857523262500763,0.8680456280708313
1760498065.8806088,0.02,0.007860898971557617,0.2386334389448166,-0.10272461175918579,0.027826504781842232,0.01692812144756317,-0.9994693994522095,-0.16807466745376587,0.7707712650299072,-0.37058937549591064,-0.030209306627511978,0.014053285121917725,0.24431848526000977,0.1614362895488739,0.05393338203430176,-0.008439183235168457,-0.0530543215572834,0.03338128328323364,-0.08767378330230713,0.06387448310852051,0.07735419273376465,0.03332483768463135,0.0,0.0,0.0,0.0,-0.10928469151258469,0.0034923485945910215,-0.023596910759806633,0.07040756195783615,0.09185414761304855,-0.013811136595904827,0.0964084342122078,0.04844137653708458,0.03453344106674194,-0.1537085324525833,0.10336118191480637,-0.05906948074698448,-0.33423638343811035,0.031465787440538406,-0.058891672641038895,0.23230746388435364,-2.2786924839019775,0.07668176293373108,0.767379641532898,0.8828862309455872,0.5779294371604919,-1.2391711473464966,1.8631393909454346,-0.2103573977947235,0.23219025135040283,-0.37630853056907654,0.5335943102836609,0.16766104102134705,-1.4395325183868408,0.47513625025749207,-0.315602570772171,1.0996549129486084
1760498065.9382873,0.02,0.033351898193359375,0.20991218090057373,-0.10544587671756744,0.04477874934673309,0.015124562196433544,-0.9988824129104614,-0.16807466745376587,0.7707712650299072,-0.36622750759124756,-0.07332050800323486,0.022454798221588135,0.2261120080947876,0.192927286028862,0.09218037128448486,-0.027209877967834473,-0.012146661058068275,0.05052250623703003,-0.07886636257171631,-0.0033829635940492153,0.12103933095932007,-0.0018982887268066406,0.0,0.0,0.0,0.0,-0.10878559201955795,0.030256882309913635,-0.05707075819373131,0.07708027213811874,0.09064497798681259,-0.039462167769670486,0.10043279081583023,0.04939659684896469,-0.004633352160453796,-0.17349617183208466,0.09538085758686066,-0.06308238953351974,-0.32424241304397583,0.09793251007795334,0.03222765401005745,0.27954843640327454,-2.5985782146453857,0.13407422602176666,0.673499345779419,0.9993025064468384,0.7819945216178894,-1.2675412893295288,2.0704078674316406,-0.20012521743774414,0.1632135659456253,-0.6576439142227173,0.5929569602012634,-0.027850836515426636,-1.3605214357376099,0.7467578053474426,-0.15304085612297058,1.320759892463684
1760498066.0003433,0.02,-0.04833121597766876,0.2241513729095459,-0.10070636868476868,0.06190698966383934,0.017496585845947266,-0.9979285597801208,-0.16807466745376587,0.7707712650299072,-0.3619765043258667,-0.1175917461514473,0.04015076160430908,0.20685017108917236,0.22108964622020721,0.13483276963233948,-0.05446124076843262,0.024936407804489136,0.07287245988845825,-0.08186948299407959,-0.06241472065448761,0.1508355736732483,-0.017580389976501465,0.0,0.0,0.0,0.0,-0.10980508476495743,0.05019072815775871,-0.04143206775188446,0.06551702320575714,0.107807956635952,-0.06577218323945999,0.08780652284622192,0.05561795458197594,-0.0005894104251638055,-0.13150431215763092,0.055651694536209106,-0.009285158477723598,-0.30301299691200256,0.09980804473161697,0.031565841287374496,0.33785486221313477,-2.214832067489624,0.2627633810043335,0.4192608892917633,0.92853182554245,0.8554288148880005,-1.2491856813430786,1.5299718379974365,-0.09213041514158249,0.18696671724319458,-0.8247509598731995,0.5378568768501282,-0.07473202049732208,-1.3261760473251343,0.6539292931556702,-0.040371499955654144,1.3692868947982788
1760498066.062231,0.02,-0.2467866837978363,0.17167538404464722,-0.09919673204421997,0.07732679694890976,0.03733521327376366,-0.9963064789772034,-0.16807466745376587,0.7707712650299072,-0.3577507734298706,-0.1536715030670166,0.05051851272583008,0.22332227230072021,0.23082120716571808,0.18264031410217285,-0.10053735971450806,0.03716227784752846,0.09374082088470459,-0.08497083187103271,-0.09399084001779556,0.14324671030044556,0.026962697505950928,0.0,0.0,0.0,0.0,-0.05418582633137703,0.012932243756949902,0.08578266948461533,0.018377577885985374,0.11458136886358261,-0.11737128347158432,0.01925528794527054,0.04835328459739685,-0.01217370294034481,-0.04394422471523285,-0.04487821087241173,0.14097480475902557,-0.21492953598499298,0.14137999713420868,0.029992923140525818,0.30398884415626526,0.1752527952194214,0.27012115716934204,-0.16326303780078888,0.3038625419139862,0.8399287462234497,-1.0448728799819946,-0.6156210899353027,0.34252429008483887,-0.05234746262431145,-0.13337014615535736,0.30552706122398376,0.11095751821994781,-1.1164289712905884,0.7181165814399719,0.10565564781427383,1.0949946641921997
1760498066.1185553,0.02,-0.23639868199825287,-0.04158012568950653,-0.07143477350473404,0.07980304956436157,0.058930493891239166,-0.9950671792030334,-0.16807466745376587,0.7707712650299072,-0.35413503646850586,-0.1473660171031952,0.03331756591796875,0.2761722803115845,0.21744899451732635,0.1949491798877716,-0.11715906858444214,0.01657894253730774,0.10567474365234375,-0.09823739528656006,-0.08088026195764542,0.10525059700012207,0.08848387002944946,0.0,0.0,0.0,0.0,0.030271757394075394,-0.049642130732536316,0.11136187613010406,-0.05210455134510994,-0.00930869486182928,-0.016537539660930634,-0.08735784143209457,0.013856102712452412,-0.013887581415474415,0.04078782722353935,-0.0925275981426239,0.09891849756240845,-0.033534009009599686,0.1862790733575821,-0.5846864581108093,0.2703636884689331,3.474386215209961,-0.01787489652633667,-0.6904571056365967,-0.30833783745765686,0.37286660075187683,-0.869321346282959,-2.0163257122039795,0.7544852495193481,-0.45654067397117615,0.3878152072429657,-0.1155802309513092,0.34071654081344604,-0.33344030380249023,0.7408466935157776,0.45864248275756836,0.5592589974403381
1760498066.176151,0.02,0.06011959910392761,-0.10762585699558258,-0.061516694724559784,0.07227705419063568,0.062678761780262,-0.9954131841659546,-0.16807466745376587,0.7707712650299072,-0.3514014482498169,-0.11948797851800919,0.01651763916015625,0.3016777038574219,0.19913828372955322,0.16508808732032776,-0.09544485807418823,-0.015500937588512897,0.09401506185531616,-0.08525335788726807,-0.049792103469371796,0.07672536373138428,0.10679429769515991,0.0,0.0,0.0,0.0,0.09175829589366913,-0.030622532591223717,0.03803294524550438,-0.04127706214785576,-0.09397047758102417,0.05831029638648033,-0.07301710546016693,-0.0336453877389431,0.04609192535281181,0.09591769427061081,-0.05416111275553703,0.010627040639519691,0.007219588849693537,0.22472114861011505,-1.6004259586334229,0.2818465232849121,4.21705961227417,0.04860168695449829,-0.9051125049591064,-0.11355379223823547,0.17768308520317078,-0.5175517797470093,-1.5681493282318115,0.2604674696922302,-0.40285053849220276,0.13809038698673248,-0.17910981178283691,0.7154802083969116,0.03016924113035202,0.8732227683067322,-0.9915834069252014,0.7687810063362122
1760498066.2498274,0.02,0.14664487540721893,-0.17673075199127197,-0.056094665080308914,0.05930674821138382,0.05558601766824722,-0.9966909885406494,-0.16807466745376587,0.7707712650299072,-0.34915971755981445,-0.08083809912204742,0.007781326770782471,0.30575084686279297,0.17229600250720978,0.11228948831558228,-0.06336349248886108,-0.05419929325580597,0.06591826677322388,-0.06246054172515869,-0.009213035926222801,0.06079399585723877,0.10259920358657837,0.0,0.0,0.0,0.0,0.10778486728668213,-0.01219674851745367,-0.006396617274731398,-0.05951820686459541,-0.15119203925132751,0.09915847331285477,-0.10346376895904541,-0.0996461808681488,0.13261127471923828,0.1087927594780922,-0.031539659947156906,-0.023788344115018845,-0.033441051840782166,0.2090333253145218,-1.7447330951690674,0.18043868243694305,4.33889102935791,0.004538863897323608,-0.930854320526123,-0.6219760775566101,0.053994402289390564,-0.25071313977241516,-1.7682602405548096,-0.07356318086385727,-0.321199506521225,0.27332282066345215,0.070214182138443,0.7468634247779846,-0.2250550389289856,0.5911127924919128,-1.7100536823272705,0.7281312346458435
1760498066.3133469,0.02,0.06936846673488617,-0.21451100707054138,-0.06344708800315857,0.04209667816758156,0.05161484330892563,-0.9977794289588928,-0.16807466745376587,0.7707712650299072,-0.34704267978668213,-0.04567526653409004,0.004134237766265869,0.30191469192504883,0.13455234467983246,0.04693961143493652,-0.026407361030578613,-0.1057746484875679,0.028657615184783936,-0.04060018062591553,0.02835579216480255,0.04666614532470703,0.09509557485580444,0.0,0.0,0.0,0.0,0.09067805856466293,-0.008533122949302197,0.003475350560620427,-0.09435129910707474,-0.1615796536207199,0.08074821531772614,-0.12942056357860565,-0.10542034357786179,0.09908715635538101,0.09452894330024719,-0.03361241891980171,-0.01717313379049301,-0.13125817477703094,0.10204850882291794,-1.7141119241714478,0.14006195962429047,3.8308258056640625,-0.035892874002456665,-0.8376748561859131,-0.8649556040763855,-0.09324590116739273,-0.051830194890499115,-1.8912668228149414,-0.20577216148376465,-0.20061495900154114,0.14073677361011505,0.04342237114906311,0.7233462333679199,-0.5364338159561157,0.253785103559494,-1.5174190998077393,0.6940038800239563
1760498066.3757656,0.02,0.021819084882736206,-0.23284654319286346,-0.0833820179104805,0.02283107489347458,0.05201961100101471,-0.9983850717544556,-0.16807466745376587,0.7707712650299072,-0.3442326784133911,-0.016024041920900345,0.0023543238639831543,0.299796462059021,0.08862250298261642,-0.013868331909179688,-0.0031113028526306152,-0.162214994430542,-0.013974368572235107,-0.01782965660095215,0.06265342235565186,0.028673231601715088,0.09249401092529297,0.0,0.0,0.0,0.0,0.07928980886936188,0.003991208504885435,-0.012315226718783379,-0.10855191200971603,-0.14149032533168793,0.04416140913963318,-0.1345662921667099,-0.12042105197906494,0.1159847155213356,0.08904360234737396,-0.046158161014318466,-0.002589115407317877,-0.1508018970489502,0.013153168372809887,-1.7207167148590088,0.1551191657781601,3.3667283058166504,-0.03998026251792908,-0.7169748544692993,-0.90826815366745,-0.15018588304519653,0.08609113842248917,-2.0279927253723145,-0.23502814769744873,-0.042271170765161514,-0.003615819849073887,-0.1591561734676361,0.6517944931983948,-0.7289891839027405,-0.08939973264932632,-1.0711805820465088,0.6664445996284485
1760498066.4387958,0.02,0.03795962035655975,-0.22901186347007751,-0.08870879560709,0.003270607441663742,0.05149952694773674,-0.9986676573753357,-0.16807466745376587,0.7707712650299072,-0.3409959077835083,0.014222185127437115,0.006957411766052246,0.2930382490158081,0.045792337507009506,-0.06419205665588379,0.008239269256591797,-0.2106858491897583,-0.056079328060150146,0.005208015441894531,0.09917479753494263,0.007052123546600342,0.09480458498001099,0.0,0.0,0.0,0.0,0.08406040072441101,0.01965664140880108,-0.0182066410779953,-0.09530875831842422,-0.1128469705581665,0.019181543961167336,-0.10811076313257217,-0.11184733361005783,0.11193449795246124,0.09775754064321518,-0.05530557036399841,0.008059877902269363,-0.1937897503376007,-0.05631427839398384,-1.7243164777755737,0.1229541078209877,3.146299123764038,0.018756777048110962,-0.4827784597873688,-0.8777874112129211,-0.22680386900901794,0.14014475047588348,-2.0158755779266357,-0.19298982620239258,0.11552141606807709,-0.0663011446595192,-0.4337054491043091,0.5291988253593445,-0.8136146068572998,-0.3534751236438751,-0.6638806462287903,0.43796926736831665
1760498066.5049932,0.02,0.1299039125442505,-0.19927392899990082,-0.07653724402189255,-0.014899326488375664,0.044088780879974365,-0.998916506767273,-0.16807466745376587,0.7707712650299072,-0.33771979808807373,0.05173274502158165,0.01722472906112671,0.28422653675079346,0.017085352912545204,-0.10337543487548828,0.015482306480407715,-0.23692917823791504,-0.08770507574081421,0.01565873622894287,0.143441841006279,-0.016079723834991455,0.1003340482711792,0.0,0.0,0.0,0.0,0.1041814312338829,0.033456724137067795,-0.0195168387144804,-0.05429602414369583,-0.08489362895488739,0.016414811834692955,-0.04367581382393837,-0.05226453021168709,0.01188555359840393,0.12017209827899933,-0.060556937009096146,0.019654233008623123,-0.21125546097755432,-0.1137876883149147,-1.4978513717651367,0.10278494656085968,2.442530393600464,0.08734843134880066,-0.1864958256483078,-0.6602382063865662,-0.3085906207561493,0.15273021161556244,-1.5525107383728027,-0.2334812581539154,0.2811712324619293,-0.08624661713838577,-0.5984221696853638,0.40552353858947754,-0.7405656576156616,-0.5819903016090393,-0.5324577689170837,0.1909593641757965
1760498066.561326,0.02,0.21065270900726318,-0.07791444659233093,-0.08740876615047455,-0.02585088275372982,0.02688763290643692,-0.9993041753768921,-0.16807466745376587,0.7707712650299072,-0.3340491056442261,0.0970284640789032,0.02921217679977417,0.28063321113586426,0.02484867163002491,-0.1173715591430664,0.01775991916656494,-0.2208937406539917,-0.09304285049438477,-0.012402534484863281,0.19674858450889587,-0.04101443290710449,0.12780332565307617,0.0,0.0,0.0,0.0,0.10981374233961105,0.030934615060687065,0.005213517230004072,0.04864446073770523,-0.0044517479836940765,0.0011481548426672816,0.06862933188676834,0.023211678490042686,-0.09139858186244965,0.12526945769786835,-0.06390882283449173,0.10131651163101196,-0.19405654072761536,-0.08596106618642807,-1.092505931854248,0.12953466176986694,-0.5401134490966797,-0.07909601926803589,0.5038774013519287,0.5640000700950623,-0.046068958938121796,-0.06524335592985153,0.16550710797309875,-0.44362130761146545,0.4688458740711212,0.011354110203683376,-0.4769667983055115,0.41342586278915405,-0.7969589233398438,-0.543493926525116,-0.6525503396987915,-0.02131311595439911
1760498066.6275146,0.02,0.11234059929847717,0.07777106761932373,-0.12445537000894547,-0.02440071664750576,0.01260053925216198,-0.9996228218078613,-0.16807466745376587,0.7707712650299072,-0.32926952838897705,0.11852116137742996,0.014310061931610107,0.3114192485809326,0.06660665571689606,-0.09202820062637329,0.009127378463745117,-0.1735844612121582,-0.06685972213745117,-0.06525015830993652,0.22389452159404755,-0.04914814233779907,0.14944350719451904,0.0,0.0,0.0,0.0,0.00949666928499937,-0.0648612305521965,0.09154420346021652,0.09676169604063034,0.0842994824051857,-0.009971875697374344,0.12070893496274948,0.08790350705385208,-0.11332104355096817,0.018757624551653862,0.004291139077395201,0.018464915454387665,-0.20394308865070343,0.011327934451401234,0.009200860746204853,0.07026618719100952,-2.8568480014801025,-0.7403010129928589,1.0816004276275635,1.7149416208267212,0.47731995582580566,-0.5074727535247803,1.7918052673339844,-0.2606394290924072,0.6835634112358093,0.1296883374452591,-0.08492180705070496,0.49484604597091675,-0.8793777823448181,-0.31610408425331116,-0.40837910771369934,0.14754371345043182
1760498066.6867547,0.02,-0.01030518114566803,0.15283556282520294,-0.109676793217659,-0.014913143590092659,0.010021895170211792,-0.9998385906219482,-0.16807466745376587,0.7707712650299072,-0.32460546493530273,0.09744467586278915,-0.0013987421989440918,0.31396210193634033,0.09683828055858612,-0.04882460832595825,0.007961511611938477,-0.1333378106355667,-0.02645820379257202,-0.09541881084442139,0.20037835836410522,-0.020990729331970215,0.11326384544372559,0.0,0.0,0.0,0.0,-0.08295252174139023,-0.031846143305301666,-0.0234848465770483,0.07344802469015121,0.1218506470322609,0.0012943280162289739,0.09142934530973434,0.09832719713449478,-0.04807361960411072,-0.0978103056550026,0.08541177213191986,-0.10047254711389542,-0.2731916606426239,-0.15524648129940033,-0.18033741414546967,0.05504826456308365,-2.17729115486145,-0.3042832314968109,0.9142018556594849,1.2464673519134521,0.09955991059541702,-1.3618197441101074,1.5817859172821045,0.17283454537391663,0.6580119729042053,-0.017825253307819366,0.27229875326156616,0.4780372381210327,-1.141646146774292,-1.135250449180603,-0.5765120387077332,0.28353816270828247
1760498066.7446418,0.02,-0.019439220428466797,0.21992966532707214,-0.09382300078868866,4.9888622015714645e-05,0.01277868915349245,-0.9999183416366577,-0.16807466745376587,0.7707712650299072,-0.3205064535140991,0.052239228039979935,-0.010053694248199463,0.2934737205505371,0.12113181501626968,-0.002476930618286133,0.006884217262268066,-0.09949661046266556,0.0063713788986206055,-0.10318470001220703,0.15062405169010162,0.017127692699432373,0.07465428113937378,0.0,0.0,0.0,0.0,-0.12109708040952682,-0.017610110342502594,-0.05816299840807915,0.0747375562787056,0.11834156513214111,0.00017734096036292613,0.08770915120840073,0.07348506152629852,0.004363747779279947,-0.11889257282018661,0.09044050425291061,-0.06444151699542999,-0.3550814986228943,-0.06690974533557892,-0.13249702751636505,0.08202924579381943,-2.235426664352417,-0.1955377161502838,0.996326208114624,1.2366573810577393,0.21431732177734375,-1.415828824043274,1.390873670578003,0.1420276165008545,0.560756504535675,0.21199797093868256,0.332075834274292,0.3801369071006775,-1.4333875179290771,-0.7341002821922302,-0.3873041272163391,0.5222169160842896
1760498066.8010535,0.02,-0.0218733549118042,0.25392863154411316,-0.08124671131372452,0.019007230177521706,0.01534801721572876,-0.9997015595436096,-0.16807466745376587,0.7707712650299072,-0.3169342279434204,-0.003025103360414505,-0.007814407348632812,0.25589585304260254,0.14648617804050446,0.03867524862289429,0.004335165023803711,-0.06582888215780258,0.030706167221069336,-0.09501874446868896,0.09691554307937622,0.05573230981826782,0.05056154727935791,0.0,0.0,0.0,0.0,-0.1354275792837143,0.00460313493385911,-0.06630445271730423,0.06277395039796829,0.09010922908782959,0.0027212125714868307,0.08647753298282623,0.05479096993803978,0.034042246639728546,-0.13260096311569214,0.08988898992538452,-0.033917386084795,-0.26792216300964355,-0.10216756165027618,-0.006113437004387379,0.13865269720554352,-2.212477922439575,-0.019658058881759644,0.8339234590530396,0.9319785237312317,0.35249507427215576,-1.3121941089630127,1.5969979763031006,-0.09261926263570786,0.3526030480861664,-0.08429396897554398,0.4551728367805481,0.2637757658958435,-1.4380803108215332,0.013479079119861126,-0.2722007632255554,0.7015713453292847
1760498066.8586202,0.02,0.03271162509918213,0.22544950246810913,-0.08671046793460846,0.0374966524541378,0.013987953774631023,-0.999198853969574,-0.16807466745376587,0.7707712650299072,-0.313488245010376,-0.05133819580078125,-0.0017847418785095215,0.2365870475769043,0.17751668393611908,0.07535821199417114,-0.006274759769439697,-0.027611661702394485,0.04842895269393921,-0.08264565467834473,0.037583038210868835,0.09998941421508789,0.019380152225494385,0.0,0.0,0.0,0.0,-0.11704696714878082,0.024415593594312668,-0.05096680670976639,0.07711408287286758,0.08792728930711746,-0.01770005002617836,0.09747876971960068,0.0385243259370327,0.03280862793326378,-0.15562713146209717,0.10444660484790802,-0.06025208905339241,-0.29202497005462646,0.059739936143159866,0.005173215176910162,0.18928305804729462,-2.4762537479400635,0.07344001531600952,0.7035123109817505,0.8825287222862244,0.7296620011329651,-1.2428233623504639,2.1862339973449707,-0.2828741669654846,0.15598410367965698,-0.5541628003120422,0.6189975738525391,0.09035715460777283,-1.3490629196166992,0.6816268563270569,-0.15769031643867493,0.9692210555076599
1760498066.9279165,0.02,0.04038086533546448,0.20638534426689148,-0.0845777839422226,0.05404656007885933,0.012189744040369987,-0.9984639883041382,-0.16807466745376587,0.7707712650299072,-0.31011414527893066,-0.0978032648563385,0.0161592960357666,0.21078014373779297,0.20977775752544403,0.11285680532455444,-0.027777433395385742,0.011369147337973118,0.06702983379364014,-0.08079838752746582,-0.028967656195163727,0.1398228406906128,-0.009055137634277344,0.0,0.0,0.0,0.0,-0.11271782964468002,0.05482766777276993,-0.07297132164239883,0.08165118098258972,0.08995827287435532,-0.045822251588106155,0.1000310555100441,0.05248385667800903,-0.006317418068647385,-0.13130052387714386,0.10334908962249756,-0.09030839055776596,-0.3285869061946869,0.11619700491428375,0.050739388912916183,0.31459328532218933,-2.589655876159668,0.17226561903953552,0.5513204336166382,0.9433695077896118,0.8302996158599854,-1.2404563426971436,2.093494176864624,-0.17323002219200134,0.14011816680431366,-0.8309372663497925,0.594772458076477,-0.0610017329454422,-1.38028883934021,0.8015366196632385,-0.006196282804012299,1.1498593091964722
1760498066.9876006,0.02,-0.14046849310398102,0.22351938486099243,-0.08262509107589722,0.0714554637670517,0.021967612206935883,-0.9972018599510193,-0.16807466745376587,0.7707712650299072,-0.30662214756011963,-0.14484398066997528,0.038052380084991455,0.19838523864746094,0.23098565638065338,0.15694072842597961,-0.06257379055023193,0.03996662795543671,0.0889320969581604,-0.08243882656097412,-0.07350765913724899,0.15337014198303223,0.005077838897705078,0.0,0.0,0.0,0.0,-0.10509642213582993,0.05314495041966438,-0.007935876958072186,0.04915245994925499,0.11282328516244888,-0.09127935022115707,0.06724225729703903,0.05344994738698006,-4.798695590579882e-05,-0.0904899463057518,0.005202201660722494,0.08058538287878036,-0.3326365351676941,0.1299634426832199,0.0559820793569088,0.3076994717121124,-1.462545394897461,0.2572788894176483,0.13694274425506592,0.6443025469779968,0.8813684582710266,-1.1456958055496216,1.0370885133743286,0.0002626851201057434,0.11832362413406372,-0.7859108448028564,0.40516048669815063,0.030336633324623108,-1.508100986480713,0.7173567414283752,0.04599735885858536,1.1123830080032349
1760498067.0457659,0.02,-0.259866863489151,0.04910176992416382,-0.07694100588560104,0.08101608604192734,0.045080751180648804,-0.995692789554596,-0.16807466745376587,0.7707712650299072,-0.30326151847839355,-0.16165149211883545,0.0388413667678833,0.23707008361816406,0.22880110144615173,0.194926917552948,-0.10439693927764893,0.03532586246728897,0.10463851690292358,-0.08825850486755371,-0.0855058804154396,0.13010931015014648,0.06217789649963379,0.0,0.0,0.0,0.0,0.021242989227175713,-0.024303298443555832,0.14910495281219482,-0.018359821289777756,0.07503174245357513,-0.09417008608579636,-0.03480800613760948,0.029910821467638016,-0.02555081807076931,0.006740321405231953,-0.07664161175489426,0.13215740025043488,-0.2088950127363205,0.1929832398891449,0.01435087900608778,0.1901508867740631,1.779624342918396,0.17590585350990295,-0.5566105842590332,-0.17128148674964905,0.7648924589157104,-0.8805902004241943,-1.4314786195755005,0.5129174590110779,-0.2681683301925659,0.14118339121341705,0.13836076855659485,0.17952340841293335,-1.0401195287704468,0.7717906832695007,0.24570444226264954,0.6470366716384888
1760498067.1073585,0.02,-0.1626930981874466,-0.09157513082027435,-0.05670592188835144,0.07770543545484543,0.06247984990477562,-0.9950166344642639,-0.16807466745376587,0.7707712650299072,-0.30056846141815186,-0.1480836272239685,0.022014260292053223,0.27941370010375977,0.2072926014661789,0.1804526448249817,-0.08982622623443604,0.002774376654997468,0.10609585046768188,-0.09491467475891113,-0.06783536821603775,0.09145069122314453,0.10560953617095947,0.0,0.0,0.0,0.0,0.04612429440021515,-0.042829953134059906,0.07787492871284485,-0.06392045319080353,-0.07636703550815582,0.05550379678606987,-0.10250665247440338,-0.012807619757950306,0.003233104944229126,0.05094456672668457,-0.08965297788381577,0.0652950331568718,-0.026820553466677666,0.18289999663829803,-0.3862966001033783,0.3024432361125946,3.7671823501586914,-0.024688243865966797,-0.8285820484161377,-0.21631667017936707,0.06034315377473831,-0.6950791478157043,-1.9153432846069336,0.6640275716781616,-0.46018847823143005,0.38745811581611633,-0.25214821100234985,0.5878617763519287,-0.24230647087097168,0.6895589232444763,0.28547996282577515,0.7363469004631042
1760498067.174204,0.02,0.1471215933561325,-0.1373593956232071,-0.05610864609479904,0.06722556054592133,0.05943560600280762,-0.9959659576416016,-0.16807466745376587,0.7707712650299072,-0.2983344793319702,-0.1131432056427002,0.010978996753692627,0.2920950651168823,0.18890579044818878,0.14526236057281494,-0.07447868585586548,-0.03004973754286766,0.08553421497344971,-0.07123565673828125,-0.03106662631034851,0.06919538974761963,0.11113131046295166,0.0,0.0,0.0,0.0,0.1087745800614357,-0.015029865317046642,0.009024095721542835,-0.03748190775513649,-0.09035178273916245,0.02457238733768463,-0.0692688599228859,-0.05471882224082947,0.07921899110078812,0.11139615625143051,-0.0460396371781826,0.005094920750707388,-0.018838053569197655,0.19685952365398407,-1.5690815448760986,0.21795044839382172,4.010518550872803,0.02051907777786255,-0.9539881944656372,0.014465775340795517,0.30538973212242126,-0.37229445576667786,-1.4716174602508545,0.2240426242351532,-0.32179421186447144,0.1547953337430954,-0.12873396277427673,0.7367249131202698,-0.13568156957626343,0.7668368220329285,-0.7428011298179626,0.6386952996253967
1760498067.2404244,0.02,0.13051992654800415,-0.20418681204319,-0.04961424693465233,0.052045032382011414,0.05073976516723633,-0.9973549246788025,-0.16807466745376587,0.7707712650299072,-0.2963918447494507,-0.07307180762290955,0.005548059940338135,0.2901341915130615,0.15923811495304108,0.08934289216995239,-0.04520529508590698,-0.07150445133447647,0.054096758365631104,-0.04711174964904785,0.010530521161854267,0.05503171682357788,0.10284721851348877,0.0,0.0,0.0,0.0,0.10263059288263321,-0.00693871034309268,-0.017213178798556328,-0.07129226624965668,-0.1588134914636612,0.0936998575925827,-0.1151316910982132,-0.10291212797164917,0.12443888187408447,0.10403692722320557,-0.028414791449904442,-0.03425523266196251,-0.0615428201854229,0.14887188374996185,-1.739205241203308,0.16771553456783295,4.197833061218262,-0.01971575617790222,-0.8374483585357666,-0.7165892720222473,-0.045826561748981476,-0.20805074274539948,-1.8159397840499878,-0.12854039669036865,-0.28172799944877625,0.2286800593137741,0.0779583752155304,0.7296645045280457,-0.35568350553512573,0.44938674569129944,-1.5558491945266724,0.7021011710166931
1760498067.2993119,0.02,0.05627703666687012,-0.22585636377334595,-0.05515256151556969,0.03357429429888725,0.04786795377731323,-0.9982892274856567,-0.16807466745376587,0.7707712650299072,-0.294567346572876,-0.03904229775071144,0.003516852855682373,0.28592872619628906,0.11850307881832123,0.02361774444580078,-0.012730419635772705,-0.12505120038986206,0.017749547958374023,-0.030690550804138184,0.0466320738196373,0.04131519794464111,0.09317123889923096,0.0,0.0,0.0,0.0,0.08859778940677643,-0.004735040012747049,0.003197022946551442,-0.09966403245925903,-0.1600911021232605,0.06890927255153656,-0.13207581639289856,-0.10587091743946075,0.0961301177740097,0.0919618010520935,-0.033736955374479294,-0.01990426331758499,-0.1660054326057434,0.05119906738400459,-1.7129948139190674,0.13450010120868683,3.7919745445251465,-0.013727933168411255,-0.687494158744812,-0.937896728515625,-0.14864620566368103,-0.03491058200597763,-1.8948469161987305,-0.24200034141540527,-0.142079159617424,0.0262465700507164,0.010583862662315369,0.7037355303764343,-0.620512843132019,0.042902614921331406,-1.2390273809432983,0.6804416179656982
1760498067.3573472,0.02,0.027986615896224976,-0.233452707529068,-0.07243307679891586,0.013782203197479248,0.04858963191509247,-0.9987237453460693,-0.16807466745376587,0.7707712650299072,-0.29208266735076904,-0.009327048435807228,0.0025536417961120605,0.2844200134277344,0.0729174092411995,-0.034515380859375,0.005240797996520996,-0.1800043135881424,-0.026027917861938477,-0.004827022552490234,0.0805804505944252,0.023198485374450684,0.08911430835723877,0.0,0.0,0.0,0.0,0.08142660558223724,0.006249487400054932,-0.009617092087864876,-0.10319627821445465,-0.13267548382282257,0.03387416526675224,-0.12056732177734375,-0.09764698147773743,0.06615957617759705,0.09095392376184464,-0.0472201369702816,-0.0028542999643832445,-0.1974608153104782,-0.01581617444753647,-1.5449061393737793,0.15877678990364075,3.4068641662597656,-0.01033473014831543,-0.5694593191146851,-0.9952290654182434,-0.17189407348632812,0.09515515714883804,-1.9826912879943848,-0.2549964189529419,0.02018098160624504,-0.06911591440439224,-0.23088103532791138,0.6116862893104553,-0.7206540107727051,-0.2067093551158905,-0.6865336894989014,0.6273000836372375
1760498067.4216983,0.02,0.04135134816169739,-0.21653620898723602,-0.07409323751926422,-0.005281665362417698,0.048342134803533554,-0.9988168478012085,-0.16807466745376587,0.7707712650299072,-0.28924059867858887,0.021390318870544434,0.007673680782318115,0.2797203063964844,0.031879570335149765,-0.08045357465744019,0.012619853019714355,-0.2238112986087799,-0.06428617238998413,0.013894617557525635,0.11683498322963715,-0.00032842159271240234,0.09369468688964844,0.0,0.0,0.0,0.0,0.08527318388223648,0.023110976442694664,-0.014451103284955025,-0.08861444890499115,-0.10183516889810562,0.013289703987538815,-0.09090935438871384,-0.07920529693365097,0.0507337749004364,0.09687458723783493,-0.06323219835758209,0.021302325651049614,-0.2487391233444214,-0.058914292603731155,-1.542078971862793,0.20070794224739075,3.073385000228882,0.06620272994041443,-0.4309580624103546,-0.865307629108429,-0.2677839398384094,0.1550760418176651,-1.9985980987548828,-0.17133155465126038,0.1784607619047165,-0.07179362326860428,-0.5277467966079712,0.5062717199325562,-0.7263542413711548,-0.3418516218662262,-0.46737411618232727,0.4134780764579773
1760498067.4821308,0.02,0.16680888831615448,-0.17385822534561157,-0.05917353183031082,-0.021587131544947624,0.037856437265872955,-0.9990500211715698,-0.16807466745376587,0.7707712650299072,-0.2864605188369751,0.0626884326338768,0.019196033477783203,0.2729281187057495,0.011648725718259811,-0.11380797624588013,0.018109679222106934,-0.2381676435470581,-0.08792287111282349,0.014056622982025146,0.16387569904327393,-0.025843441486358643,0.10411953926086426,0.0,0.0,0.0,0.0,0.11297143995761871,0.03524349257349968,-0.013113036751747131,-0.029919324442744255,-0.06885946542024612,0.012195582501590252,-0.01234485488384962,-0.03096810355782509,-0.014125021174550056,0.1259932965040207,-0.07053685933351517,0.04238118603825569,-0.26569268107414246,-0.1202089786529541,-1.4140592813491821,0.1956358700990677,1.8187041282653809,0.08193829655647278,-0.07274147868156433,-0.4242943227291107,-0.30503377318382263,0.0995459035038948,-1.1807581186294556,-0.3192081153392792,0.3519170582294464,-0.10292807966470718,-0.6039332747459412,0.3747670650482178,-0.820433497428894,-0.6216904520988464,-0.6006827354431152,0.21147631108760834
1760498067.5390234,0.02,0.22573520243167877,0.003525674343109131,-0.07981100678443909,-0.028089173138141632,0.019800903275609016,-0.9994092583656311,-0.16807466745376587,0.7707712650299072,-0.2829570770263672,0.09784463793039322,0.028053879737854004,0.2698554992675781,0.0357818603515625,-0.11304926872253418,0.01661360263824463,-0.20892882347106934,-0.08346754312515259,-0.024712800979614258,0.21255777776241302,-0.04681903123855591,0.13561666011810303,0.0,0.0,0.0,0.0,0.06742145866155624,0.01885739341378212,0.004748906008899212,0.1015700027346611,0.04203378036618233,-0.007524167187511921,0.10507135838270187,0.08376914262771606,-0.17826035618782043,0.09775369614362717,-0.04018806293606758,0.08491157740354538,-0.23478606343269348,-0.11383695900440216,-0.5279052257537842,0.047142308205366135,-1.7331807613372803,-0.2940550744533539,0.7163496017456055,1.1240506172180176,0.19505098462104797,-0.12881143391132355,0.8259719610214233,-0.4804319143295288,0.556074321269989,0.030761800706386566,-0.2967883348464966,0.4356192350387573,-0.9499634504318237,-0.5884984135627747,-0.5916561484336853,0.09834598004817963
1760498067.5981758,0.02,0.031797125935554504,0.11195042729377747,-0.0979522317647934,-0.0223182812333107,0.011644741520285606,-0.9996830821037292,-0.16807466745376587,0.7707712650299072,-0.27918291091918945,0.09938038885593414,0.018024206161499023,0.28640997409820557,0.07405269145965576,-0.07820934057235718,0.006876945495605469,-0.16473418474197388,-0.047913193702697754,-0.06647443771362305,0.21804718673229218,-0.04443174600601196,0.14341706037521362,0.0,0.0,0.0,0.0,-0.03285890445113182,-0.04422998055815697,0.04729633778333664,0.07901302725076675,0.10431535542011261,-0.0171712227165699,0.10189414024353027,0.09607356786727905,-0.07768440991640091,-0.031780850142240524,0.03013049066066742,-0.015027256682515144,-0.19914089143276215,-0.2438962757587433,-0.11392784118652344,0.07734169065952301,-2.3378372192382812,-0.5368196964263916,0.9630612134933472,1.358452320098877,0.5881423950195312,-0.8448460698127747,1.8204072713851929,-0.10561724752187729,0.6972916126251221,0.08682862669229507,0.02957881987094879,0.5092029571533203,-0.8517351150512695,-0.1663816273212433,-0.22861185669898987,0.27995413541793823
1760498067.663712,0.02,-0.0035044848918914795,0.17229245603084564,-0.08959253877401352,-0.01107735838741064,0.011059954762458801,-0.9998774528503418,-0.16807466745376587,0.7707712650299072,-0.2754329442977905,0.07108656316995621,0.005632758140563965,0.28284525871276855,0.10323090106248856,-0.034500181674957275,-0.0005817413330078125,-0.12709079682826996,-0.014899909496307373,-0.08742320537567139,0.18418650329113007,-0.012883305549621582,0.10401928424835205,0.0,0.0,0.0,0.0,-0.08917228132486343,-0.027036026120185852,-0.027256354689598083,0.0695175752043724,0.11217188835144043,-0.01252835988998413,0.09176542609930038,0.07379043847322464,-0.02847268246114254,-0.11071398109197617,0.08492817729711533,-0.09150853753089905,-0.26545801758766174,-0.23862989246845245,-0.07664299756288528,0.08743903040885925,-2.0405149459838867,-0.2336077094078064,0.8858567476272583,1.1936336755752563,0.21901935338974,-1.2530977725982666,1.4881631135940552,0.1300359070301056,0.6252047419548035,0.11335986107587814,0.24416422843933105,0.44435548782348633,-1.0997281074523926,-0.4905511438846588,-0.11920314282178879,0.49912816286087036
1760498067.7265568,0.02,-0.010835796594619751,0.23265931010246277,-0.07764177024364471,0.005255998112261295,0.011948088183999062,-0.999914824962616,-0.16807466745376587,0.7707712650299072,-0.2720526456832886,0.026564400643110275,0.0013995170593261719,0.2591590881347656,0.13099302351474762,0.007071197032928467,-0.006711125373840332,-0.09134574234485626,0.009573221206665039,-0.08863794803619385,0.13350321352481842,0.02650928497314453,0.06662076711654663,0.0,0.0,0.0,0.0,-0.12040151655673981,-0.004795742686837912,-0.066019706428051,0.0670815110206604,0.09570467472076416,-0.004911430645734072,0.08988501131534576,0.05600901320576668,0.017774468287825584,-0.12691345810890198,0.09223337471485138,-0.05978201702237129,-0.3248614966869354,-0.11948424577713013,0.03945500776171684,0.133578360080719,-2.183488368988037,-0.0914318710565567,0.8691664934158325,1.1066875457763672,0.3573307991027832,-1.2821249961853027,1.454339861869812,0.11901158839464188,0.530202329158783,0.15399058163166046,0.37021952867507935,0.34341001510620117,-1.3083527088165283,-0.1504705250263214,-0.024090640246868134,0.6281617879867554
1760498067.789219,0.02,-0.004364609718322754,0.2522246241569519,-0.07822776585817337,0.024725262075662613,0.013170144520699978,-0.999607503414154,-0.16807466745376587,0.7707712650299072,-0.2688843011856079,-0.02473699487745762,0.003999948501586914,0.23062622547149658,0.15961311757564545,0.04586869478225708,-0.014842033386230469,-0.05563763529062271,0.029513120651245117,-0.07729196548461914,0.07584206759929657,0.06731343269348145,0.042011559009552,0.0,0.0,0.0,0.0,-0.12041153013706207,-0.0025022735353559256,-0.024710876867175102,0.0734439417719841,0.09408765286207199,-0.01785190962255001,0.08917167037725449,0.0418669730424881,0.03995821997523308,-0.14355644583702087,0.09734649956226349,-0.039863161742687225,-0.25705739855766296,-0.026735303923487663,-0.014483051374554634,0.17192412912845612,-2.295380115509033,0.0067327022552490234,0.7172243595123291,0.9072549343109131,0.5810319185256958,-1.252042293548584,1.808991551399231,-0.12415065616369247,0.3124789297580719,-0.21916595101356506,0.5167487263679504,0.21966201066970825,-1.4153691530227661,0.34043774008750916,-0.09732664376497269,0.8124839663505554
1760498067.8555372,0.02,0.01646655797958374,0.21993330121040344,-0.08317195624113083,0.042724575847387314,0.01227521151304245,-0.9990114569664001,-0.16807466745376587,0.7707712650299072,-0.26554036140441895,-0.07177364081144333,0.01135033369064331,0.21222364902496338,0.19154669344425201,0.08546006679534912,-0.03129470348358154,-0.01669413410127163,0.04476648569107056,-0.06667876243591309,0.012536786496639252,0.11151283979415894,0.010493636131286621,0.0,0.0,0.0,0.0,-0.11887039244174957,0.02896728180348873,-0.058657627552747726,0.08075182884931564,0.09836077690124512,-0.04583103582262993,0.09578389674425125,0.035263676196336746,0.03034675121307373,-0.16423434019088745,0.10090998560190201,-0.06026864051818848,-0.30883124470710754,-0.0200763251632452,0.05249282717704773,0.21377968788146973,-2.560394287109375,0.11114853620529175,0.6197375059127808,0.9354647397994995,0.7785089612007141,-1.2805442810058594,2.0420620441436768,-0.14813783764839172,0.21173205971717834,-0.5199560523033142,0.588066577911377,0.023894906044006348,-1.319923996925354,0.6393246054649353,0.07876545935869217,1.0403577089309692
1760498067.9140267,0.02,-0.042057961225509644,0.22354982793331146,-0.07376831024885178,0.06009329482913017,0.014877733774483204,-0.9980818629264832,-0.16807466745376587,0.7707712650299072,-0.262431263923645,-0.11858255416154861,0.030112862586975098,0.1917555332183838,0.22101780772209167,0.12833166122436523,-0.05834174156188965,0.018998481333255768,0.0651012659072876,-0.06960999965667725,-0.04791584238409996,0.1425083875656128,-0.0021878480911254883,0.0,0.0,0.0,0.0,-0.11366596072912216,0.05487434193491936,-0.04572774097323418,0.06984561681747437,0.1089596375823021,-0.06949528306722641,0.08711941540241241,0.05314485356211662,-0.0070936777628958225,-0.12742361426353455,0.06511883437633514,-0.016583582386374474,-0.3205908238887787,0.05649155005812645,0.0918225347995758,0.2955871522426605,-2.2340428829193115,0.2669552266597748,0.40587154030799866,0.8935655355453491,0.8452681303024292,-1.2529302835464478,1.5730657577514648,-0.02115517109632492,0.20988711714744568,-0.6839509010314941,0.5178738832473755,-0.024358749389648438,-1.4014012813568115,0.6158890128135681,0.25169119238853455,1.1356128454208374
1760498067.9792082,0.02,-0.22705724835395813,0.18231135606765747,-0.0728335827589035,0.07602918893098831,0.03283509984612465,-0.9965648055076599,-0.16807466745376587,0.7707712650299072,-0.2593191862106323,-0.1560402661561966,0.04370194673538208,0.20562124252319336,0.23474948108196259,0.1769874393939972,-0.10477423667907715,0.03587983921170235,0.08709347248077393,-0.07661271095275879,-0.0807262659072876,0.139570951461792,0.03798174858093262,0.0,0.0,0.0,0.0,-0.06019138917326927,0.022170184180140495,0.07889360189437866,0.02984691597521305,0.12188924849033356,-0.127805694937706,0.03565240278840065,0.05377230793237686,-0.022415226325392723,-0.051679063588380814,-0.03319552168250084,0.1309499591588974,-0.25423941016197205,0.12899258732795715,0.1009947657585144,0.2656659483909607,-0.026380125433206558,0.2691934108734131,-0.18484090268611908,0.2929496467113495,0.8662105202674866,-1.0676053762435913,-0.3506462872028351,0.3026193678379059,0.01706482097506523,-0.17802047729492188,0.29101207852363586,0.13864953815937042,-1.2750720977783203,0.6666027903556824,0.30828702449798584,0.9258521795272827
1760498068.0400913,0.02,-0.25057053565979004,-0.04579174518585205,-0.05211282894015312,0.07887270301580429,0.05445059388875961,-0.9953964948654175,-0.16807466745376587,0.7707712650299072,-0.25662827491760254,-0.1501864343881607,0.02850210666656494,0.26108741760253906,0.22273240983486176,0.19363459944725037,-0.1269979476928711,0.0201836209744215,0.10006660223007202,-0.09258520603179932,-0.07108243554830551,0.1048542857170105,0.09768408536911011,0.0,0.0,0.0,0.0,0.029967060312628746,-0.046755146235227585,0.11969900131225586,-0.05372687056660652,0.0018877665279433131,-0.029770219698548317,-0.07721646130084991,0.01628882810473442,-0.027729764580726624,0.036280106753110886,-0.08848082274198532,0.09923390299081802,-0.07331088185310364,0.171809583902359,-0.3054240942001343,0.24100542068481445,3.3844096660614014,0.01812925934791565,-0.7211586236953735,-0.3956681191921234,0.4147163927555084,-0.9072723388671875,-1.920535683631897,0.6962360143661499,-0.4206947386264801,0.3164742887020111,-0.08191913366317749,0.3421406149864197,-0.4408615231513977,0.6877632737159729,0.6244571805000305,0.4867924451828003
1760498068.1127417,0.02,0.019733548164367676,-0.11048545688390732,-0.03291821479797363,0.0714377760887146,0.05980989336967468,-0.9956502318382263,-0.16807466745376587,0.7707712650299072,-0.2549706697463989,-0.12292006611824036,0.012924611568450928,0.29019248485565186,0.20246531069278717,0.16437819600105286,-0.10345429182052612,-0.008890598081052303,0.09314316511154175,-0.08905744552612305,-0.04276631027460098,0.07753115892410278,0.11337119340896606,0.0,0.0,0.0,0.0,0.08650731295347214,-0.02856692671775818,0.04671503230929375,-0.05093907192349434,-0.09470831602811813,0.06364582479000092,-0.07490792125463486,-0.03349743410944939,0.05190024524927139,0.08482574671506882,-0.05564140900969505,0.00979829765856266,-0.010787270963191986,0.19193169474601746,-1.3389240503311157,0.2883506417274475,4.310377597808838,0.055062562227249146,-0.888913631439209,-0.16099274158477783,0.13801074028015137,-0.5559262633323669,-1.5733098983764648,0.32250651717185974,-0.4013981819152832,0.14746005833148956,-0.20974470674991608,0.7269982099533081,-0.024598129093647003,0.7320517301559448,-0.4343299865722656,0.8037960529327393
1760498068.171967,0.02,0.12591148912906647,-0.1794900745153427,-0.032095715403556824,0.05838153138756752,0.054161302745342255,-0.9968240261077881,-0.16807466745376587,0.7707712650299072,-0.25378596782684326,-0.08458797633647919,0.0038704276084899902,0.2962932586669922,0.17509637773036957,0.11352512240409851,-0.07148659229278564,-0.04583551362156868,0.0661693811416626,-0.06524169445037842,-0.00473781768232584,0.06109297275543213,0.10896468162536621,0.0,0.0,0.0,0.0,0.10675545036792755,-0.014237523078918457,-0.002592286327853799,-0.06030372530221939,-0.14161783456802368,0.09242095798254013,-0.09834425896406174,-0.09461943060159683,0.13024471700191498,0.1029268279671669,-0.03361112251877785,-0.02212342992424965,-0.013546100817620754,0.19295434653759003,-1.7473095655441284,0.18210722506046295,4.369253158569336,0.004946410655975342,-0.9204081296920776,-0.5560997128486633,0.10240114480257034,-0.2635854184627533,-1.6823853254318237,-0.037593774497509,-0.3442043662071228,0.27927166223526,0.030431300401687622,0.7651478052139282,-0.09389341622591019,0.6135573387145996,-1.5938361883163452,0.7185253500938416
1760498068.2397149,0.02,0.0790044367313385,-0.21285590529441833,-0.03402743861079216,0.04137380048632622,0.04949324205517769,-0.997917115688324,-0.16807466745376587,0.7707712650299072,-0.25269079208374023,-0.04766812175512314,0.0012215375900268555,0.2919588088989258,0.1379794180393219,0.04975193738937378,-0.03324401378631592,-0.0927538126707077,0.03435719013214111,-0.05247902870178223,0.03238076716661453,0.04712587594985962,0.10121011734008789,0.0,0.0,0.0,0.0,0.09467343240976334,-0.004993557929992676,0.001755106495693326,-0.09317107498645782,-0.15989956259727478,0.0859229564666748,-0.12088048458099365,-0.09720883518457413,0.08992306143045425,0.09386622905731201,-0.03317146748304367,-0.017833760008215904,-0.11077512800693512,0.08573361486196518,-1.7118200063705444,0.13908883929252625,4.02720832824707,0.0054090917110443115,-0.793242335319519,-0.900960385799408,-0.11031126230955124,-0.07803597301244736,-1.859609842300415,-0.23032143712043762,-0.23576220870018005,0.18022452294826508,0.10030189156532288,0.7580114006996155,-0.41097840666770935,0.19562360644340515,-1.3803423643112183,0.7636334896087646
1760498068.2967885,0.02,0.01546362042427063,-0.2336181402206421,-0.058549247682094574,0.022262316197156906,0.050257813185453415,-0.9984881281852722,-0.16807466745376587,0.7707712650299072,-0.2509394884109497,-0.017297036945819855,-0.0016437768936157227,0.2916809320449829,0.09033403545618057,-0.011301398277282715,-0.007131755352020264,-0.14943021535873413,-0.0075266361236572266,-0.02909719944000244,0.0650164857506752,0.02984851598739624,0.09832292795181274,0.0,0.0,0.0,0.0,0.07931993156671524,-0.0003796095261350274,-0.009522843174636364,-0.11402201652526855,-0.1432657241821289,0.051988571882247925,-0.13814009726047516,-0.12082672119140625,0.12005108594894409,0.08465360850095749,-0.04326802119612694,-0.0044716051779687405,-0.1475065052509308,0.0016431615222245455,-1.7235924005508423,0.14048704504966736,3.598567247390747,-0.0501115620136261,-0.7047933340072632,-0.9733853936195374,-0.16284000873565674,0.08120337873697281,-2.071985960006714,-0.2713955044746399,-0.10739901661872864,0.08363740891218185,-0.07580934464931488,0.7076452970504761,-0.5920242667198181,-0.13008752465248108,-0.8887080550193787,0.7282325625419617
1760498068.3640847,0.02,0.04719609022140503,-0.2356005609035492,-0.05971936136484146,0.0024535860866308212,0.04905438423156738,-0.9987930655479431,-0.16807466745376587,0.7707712650299072,-0.2488105297088623,0.014679485000669956,0.0016854405403137207,0.2856426239013672,0.04662507772445679,-0.06239783763885498,0.006511330604553223,-0.19899624586105347,-0.048879384994506836,-0.007203102111816406,0.10074614733457565,0.009897232055664062,0.09719014167785645,0.0,0.0,0.0,0.0,0.08901882916688919,0.017326591536402702,-0.017049962654709816,-0.09739714115858078,-0.11455481499433517,0.023492103442549706,-0.11280170828104019,-0.11380956321954727,0.11802077293395996,0.09551049023866653,-0.051038797944784164,-0.0010486514074727893,-0.14690625667572021,-0.055231012403964996,-1.7286690473556519,0.13465283811092377,3.3539047241210938,0.04070878028869629,-0.4609610140323639,-0.9716550707817078,-0.2234089970588684,0.12670157849788666,-2.0099871158599854,-0.2131449282169342,0.07820959389209747,-0.05046532303094864,-0.3566333055496216,0.5502964854240417,-0.6466027498245239,-0.35044601559638977,-0.3990597724914551,0.5194236040115356
