vaithak/rl_training/csvs/data_obs_m20_9_env_0.csv
timestamp,dt,base_ang_vel_0,base_ang_vel_1,base_ang_vel_2,projected_gravity_0,projected_gravity_1,projected_gravity_2,velocity_commands_0,velocity_commands_1,velocity_commands_2,joint_pos_0,joint_pos_1,joint_pos_2,joint_pos_3,joint_pos_4,joint_pos_5,joint_pos_6,joint_pos_7,joint_pos_8,joint_pos_9,joint_pos_10,joint_pos_11,joint_pos_12,joint_pos_13,joint_pos_14,joint_pos_15,joint_vel_0,joint_vel_1,joint_vel_2,joint_vel_3,joint_vel_4,joint_vel_5,joint_vel_6,joint_vel_7,joint_vel_8,joint_vel_9,joint_vel_10,joint_vel_11,joint_vel_12,joint_vel_13,joint_vel_14,joint_vel_15,actions_0,actions_1,actions_2,actions_3,actions_4,actions_5,actions_6,actions_7,actions_8,actions_9,actions_10,actions_11,actions_12,actions_13,actions_14,actions_15
1760498887.4634514,0.02,0.1810625195503235,0.004662424325942993,0.21233943104743958,0.025052685290575027,0.003966095857322216,-0.9996782541275024,0.34862661361694336,-0.5802394151687622,1.0,-0.08087790012359619,0.08090037107467651,0.013854384422302246,0.11506100744009018,0.25268876552581787,-0.06787306070327759,0.043525565415620804,0.013722896575927734,-0.041513919830322266,-0.0998736023902893,0.12054401636123657,-0.095847487449646,0.0,0.0,0.0,0.0,-0.0070165665820240974,-0.023668445646762848,-0.0006547261727973819,0.030532358214259148,-0.04232880845665932,0.13601839542388916,-0.034678585827350616,-0.02436135523021221,0.027086010202765465,0.1307854950428009,0.03863482177257538,-0.09276078641414642,-0.06558249890804291,-0.28688347339630127,-0.1898123323917389,-0.6700271964073181,-1.5247377157211304,0.21727389097213745,0.05951531231403351,-1.0102194547653198,0.29703545570373535,-0.7323834896087646,-1.0747736692428589,-0.3485817611217499,0.14484268426895142,2.189014434814453,0.2812090814113617,-0.6117637157440186,-0.26965492963790894,-0.9550102949142456,-1.1134960651397705,-2.4946017265319824
1760498887.5272222,0.02,0.05822661519050598,-0.08112715929746628,0.24518559873104095,0.021255288273096085,-0.0058007510378956795,-0.9997572302818298,0.34862661361694336,-0.5802394151687622,0.9992157220840454,-0.08476953208446503,0.07186740636825562,0.005016207695007324,0.11822681874036789,0.23317044973373413,-0.03496372699737549,0.02364506386220455,0.00229036808013916,-0.033470869064331055,-0.031596049666404724,0.1038464903831482,-0.0869835615158081,0.0,0.0,0.0,0.0,-0.01686171442270279,-0.021162396296858788,-0.03211803361773491,-0.003654527710750699,-0.05506536364555359,0.060919713228940964,-0.06417879462242126,-0.026582790538668633,0.008418749086558819,0.1827768236398697,-0.07295210659503937,0.05711541697382927,-0.018085453659296036,-0.41783085465431213,-0.14802764356136322,-0.5585057139396667,-1.057785987854004,0.26286983489990234,-0.0039712488651275635,-1.4533700942993164,-0.0826658234000206,-1.0590509176254272,-0.6996302604675293,-0.606726348400116,0.29579219222068787,1.9927704334259033,0.30291447043418884,-0.38669800758361816,-0.1111798956990242,-2.1018786430358887,-1.0179541110992432,-2.074183225631714
1760498887.598932,0.02,0.08758193999528885,-0.09341852366924286,0.27123507857322693,0.014345387928187847,-0.014201047830283642,-0.9997962713241577,0.34862661361694336,-0.5802394151687622,0.9888137578964233,-0.08553586155176163,0.06445634365081787,-0.009264707565307617,0.12023575603961945,0.21494919061660767,-0.013408958911895752,-0.0002628335787449032,-0.005840182304382324,-0.027276992797851562,0.05131712183356285,0.06141859292984009,-0.03647005558013916,0.0,0.0,0.0,0.0,-0.004556703381240368,-0.01700475811958313,-0.03960089012980461,0.001986304996535182,-0.04166838154196739,0.04659167677164078,-0.06500948220491409,-0.008163203485310078,-0.004954527132213116,0.20570698380470276,-0.10502108186483383,0.11707563698291779,-0.002918502315878868,-0.4774942100048065,-0.19668374955654144,-0.5107442140579224,-0.77544766664505,0.13003650307655334,-0.12377972900867462,-1.072686791419983,0.2822021245956421,-0.7501183152198792,-0.16501541435718536,-0.5267000198364258,0.3502911627292633,1.5647767782211304,0.32161837816238403,-0.13335157930850983,0.0011023208498954773,-2.115858554840088,-1.1406792402267456,-2.0554215908050537
1760498887.6654928,0.02,0.0899791270494461,-0.1132311299443245,0.29008209705352783,0.005829771980643272,-0.023400329053401947,-0.9997091889381409,0.34862661361694336,-0.5802394151687622,0.9776650667190552,-0.08443339169025421,0.05818033218383789,-0.029134392738342285,0.12252474576234818,0.20007768273353577,0.0022416114807128906,-0.0258316732943058,-0.011120915412902832,-0.02256035804748535,0.13107222318649292,0.014906704425811768,0.019604921340942383,0.0,0.0,0.0,0.0,0.0002303718647453934,-0.018178900703787804,-0.050409503281116486,0.00025117580662481487,-0.035302530974149704,0.0321861170232296,-0.07083109021186829,-0.01176544651389122,0.00815034843981266,0.1812695860862732,-0.1037224680185318,0.10505741089582443,-0.013830171898007393,-0.5011278390884399,-0.21319833397865295,-0.498089462518692,-0.19225189089775085,-0.09477722644805908,-0.2791058421134949,-1.173142671585083,0.5218272805213928,-0.554180383682251,0.22346031665802002,-0.7741163969039917,0.2543732821941376,1.2324217557907104,0.15550917387008667,0.09226404130458832,-0.08868048340082169,-2.0006637573242188,-1.4038939476013184,-2.0861129760742188
1760498887.7430227,0.02,0.0889231264591217,-0.1444723755121231,0.2856443524360657,-0.005223791114985943,-0.031193949282169342,-0.9994996786117554,0.34862661361694336,-0.5802394151687622,0.9664150476455688,-0.07975530624389648,0.046120405197143555,-0.04747706651687622,0.12197507917881012,0.19014602899551392,0.011522054672241211,-0.05466219037771225,-0.019498467445373535,-0.018323183059692383,0.19668640196323395,-0.028810560703277588,0.06960731744766235,0.0,0.0,0.0,0.0,0.01646626554429531,-0.03699782118201256,-0.04272809252142906,-0.004909698385745287,-0.02133733592927456,0.017254402860999107,-0.07210209220647812,-0.0211323332041502,0.004487538244575262,0.14580164849758148,-0.09509497135877609,0.09433704614639282,-0.022328663617372513,-0.5666441321372986,-0.36799874901771545,-0.474094957113266,0.27215254306793213,-0.2850358188152313,-0.3623521625995636,-1.5186634063720703,0.6758740544319153,-0.4329645335674286,0.5142472982406616,-1.0854482650756836,0.08718621730804443,1.2460546493530273,0.05279386043548584,0.334111750125885,-0.14624109864234924,-2.1602652072906494,-1.560092568397522,-1.9520829916000366
1760498887.812961,0.02,0.04268933832645416,-0.1496376097202301,0.2650447189807892,-0.018187101930379868,-0.03674180060625076,-0.9991592764854431,0.34862661361694336,-0.5802394151687622,0.9556301832199097,-0.07055862993001938,0.025754332542419434,-0.06151139736175537,0.11675094068050385,0.1824420988559723,0.016004443168640137,-0.08739615976810455,-0.034870266914367676,-0.012043476104736328,0.24201606214046478,-0.06716060638427734,0.11060738563537598,0.0,0.0,0.0,0.0,0.021796366199851036,-0.057022470980882645,-0.028220845386385918,-0.02275206707417965,-0.015166851691901684,0.009113734588027,-0.0856582522392273,-0.038896095007658005,0.016543667763471603,0.07456221431493759,-0.05104031786322594,-0.00435186643153429,0.045396171510219574,-0.5736366510391235,-0.10264962166547775,-0.48417678475379944,0.5402655601501465,-0.3906485140323639,-0.3977191746234894,-1.9461110830307007,0.7069432139396667,-0.34842386841773987,0.6870219707489014,-1.3939239978790283,0.09300890564918518,1.237267255783081,-0.12068988382816315,0.5097681879997253,0.1273578703403473,-2.104801654815674,-1.4189902544021606,-1.55278480052948
1760498887.888956,0.02,-0.13919445872306824,-0.02312949299812317,0.19871772825717926,-0.025284508243203163,-0.03026818297803402,-0.9992219805717468,0.34862661361694336,-0.5802394151687622,0.9464238882064819,-0.07437335699796677,0.004123270511627197,-0.0696912407875061,0.09533941000699997,0.1799294650554657,0.021454691886901855,-0.1317799687385559,-0.06340289115905762,0.019831299781799316,0.22778913378715515,-0.06204932928085327,0.060657799243927,0.0,0.0,0.0,0.0,-0.02571224607527256,-0.05044469237327576,-0.014612935483455658,-0.07083504647016525,0.004120639991015196,0.02003365196287632,-0.12050359696149826,-0.093730628490448,0.12515786290168762,-0.11124821752309799,0.06964068114757538,-0.2035614550113678,0.09975825995206833,-0.544416606426239,-0.12520098686218262,-0.238261416554451,0.6527606248855591,-0.352520614862442,-0.47111251950263977,-1.9005157947540283,0.594252347946167,-0.27567824721336365,0.9103183746337891,-1.2844040393829346,0.24891772866249084,0.5885449647903442,-0.4213877022266388,0.5463911890983582,0.2776331901550293,-2.022467613220215,-1.1351653337478638,-1.5439943075180054
1760498887.9544532,0.02,-0.2176351249217987,0.11684460937976837,0.18384170532226562,-0.01974395290017128,-0.008292628452181816,-0.9997707009315491,0.34862661361694336,-0.5802394151687622,0.9388326406478882,-0.11325833946466446,-0.005324721336364746,-0.0788772702217102,0.055594004690647125,0.17329582571983337,0.04792284965515137,-0.1807619333267212,-0.0927358865737915,0.07348448038101196,0.17027093470096588,-0.03465735912322998,0.019403278827667236,0.0,0.0,0.0,0.0,-0.0944807156920433,-0.015354163013398647,-0.02615153230726719,-0.08405043929815292,-0.025982553139328957,0.08535503596067429,-0.08534453064203262,-0.058731239289045334,0.12785868346691132,-0.13115613162517548,0.06557812541723251,-0.06918292492628098,0.07496929168701172,-0.5469633936882019,-0.1361265331506729,-0.44898173213005066,-0.26690512895584106,0.09244349598884583,-0.6326984167098999,0.4355282485485077,0.13435345888137817,0.13114036619663239,1.4286664724349976,-0.14171439409255981,0.5232073068618774,-2.1686222553253174,-0.8523817658424377,0.33325445652008057,0.18935224413871765,-1.611517310142517,-0.37606051564216614,-2.24247407913208
1760498888.0338976,0.02,-0.08841709792613983,0.16833613812923431,0.22425086796283722,-0.00809868611395359,0.0032452791929244995,-0.9999619126319885,0.34862661361694336,-0.5802394151687622,0.9305602312088013,-0.14263056218624115,-0.0056951045989990234,-0.08371913433074951,0.03662304952740669,0.16239145398139954,0.07647395133972168,-0.17991425096988678,-0.08549332618713379,0.07849287986755371,0.12426737695932388,-0.014697074890136719,0.0013359785079956055,0.0,0.0,0.0,0.0,-0.05950582027435303,0.00850160513073206,-0.009844901971518993,-0.026779402047395706,-0.027631400153040886,0.07234510779380798,0.03919230028986931,0.04445265606045723,-0.010131336748600006,-0.10509586334228516,0.040320124477148056,-0.02601558528840542,0.015052667818963528,-0.4925609230995178,-0.26540762186050415,-0.4058365523815155,-0.4354146420955658,0.5996602773666382,-0.6619346141815186,1.3453452587127686,0.16558712720870972,0.17236022651195526,2.265608310699463,0.2956181466579437,0.4090287387371063,-3.713918924331665,-0.9988198280334473,0.2158878892660141,0.1813763678073883,-1.9341880083084106,0.2535976469516754,-2.175649642944336
1760498888.1040366,0.02,-0.03834433853626251,0.1691904217004776,0.23285186290740967,0.0050627700984478,0.008306212723255157,-0.9999526739120483,0.34862661361694336,-0.5802394151687622,0.9216989278793335,-0.16424183547496796,0.0040547847747802734,-0.0956917405128479,0.03148448467254639,0.15421044826507568,0.09666895866394043,-0.14136283099651337,-0.05496478080749512,0.04536080360412598,0.08479127287864685,-0.0014835596084594727,-0.0017039775848388672,0.0,0.0,0.0,0.0,-0.04397044703364372,0.031157588586211205,-0.032080698758363724,-0.0019073057919740677,-0.015919005498290062,0.03935181349515915,0.11216455698013306,0.07513673603534698,-0.06804636120796204,-0.09493681788444519,0.026532737538218498,0.0062125008553266525,-0.06719211488962173,-0.4922449290752411,-0.401308536529541,-0.428002268075943,-0.7966996431350708,0.629799485206604,-0.8507529497146606,1.4228224754333496,0.28317588567733765,0.27123531699180603,2.2519161701202393,0.17827686667442322,0.17544782161712646,-3.6298208236694336,-0.689699113368988,0.21353782713413239,-0.24885928630828857,-2.0558457374572754,0.2617449462413788,-2.1403820514678955
1760498888.17644,0.02,-0.010061323642730713,0.17565301060676575,0.23699872195720673,0.01865515112876892,0.010358045808970928,-0.999772310256958,0.34862661361694336,-0.5802394151687622,0.9126240015029907,-0.18212193250656128,0.020865440368652344,-0.11471128463745117,0.03499191999435425,0.15099570155143738,0.1058882474899292,-0.08345253765583038,-0.023198723793029785,0.007343709468841553,0.048117514699697495,0.00755620002746582,0.007146596908569336,0.0,0.0,0.0,0.0,-0.03798313066363335,0.04640165716409683,-0.0476200245320797,0.018285587430000305,-0.004356171935796738,0.01696167327463627,0.14898811280727386,0.0669952780008316,-0.05972379446029663,-0.0888163149356842,0.01823463849723339,0.03341319411993027,-0.08462534844875336,-0.5032687783241272,-0.5395507216453552,-0.4616047441959381,-0.9758648872375488,0.5354125499725342,-0.9188171625137329,1.626108169555664,0.3264133036136627,0.28384897112846375,1.722006916999817,0.16340461373329163,-0.01700553670525551,-2.9541594982147217,-0.4519689679145813,0.3050881028175354,-0.40477991104125977,-2.0552313327789307,0.033213742077350616,-2.115572690963745
1760498888.2518878,0.02,0.011422216892242432,0.16165296733379364,0.25174787640571594,0.031600985676050186,0.010070528835058212,-0.9994498491287231,0.34862661361694336,-0.5802394151687622,0.9031053781509399,-0.19678792357444763,0.041070520877838135,-0.13765496015548706,0.04367740452289581,0.1502966582775116,0.10918402671813965,-0.0153435580432415,0.0001404285430908203,-0.022240757942199707,0.013898038305342197,0.014433324337005615,0.020269691944122314,0.0,0.0,0.0,0.0,-0.03170747682452202,0.05291030555963516,-0.05587449297308922,0.027194518595933914,7.071709114825353e-05,0.007365011610090733,0.1681428998708725,0.043292056769132614,-0.037885136902332306,-0.08319838345050812,0.015734143555164337,0.03613011911511421,-0.09721146523952484,-0.46679648756980896,-0.6685240864753723,-0.4713906943798065,-0.866291344165802,0.4359774887561798,-0.9230835437774658,1.6880191564559937,0.3210282623767853,0.16659365594387054,1.0118281841278076,0.11704126745462418,-0.19322088360786438,-2.080242872238159,-0.249691903591156,0.3917504549026489,-0.4423711895942688,-1.9646042585372925,-0.27928826212882996,-2.0428810119628906
1760498888.3174124,0.02,0.10445757210254669,0.0808156207203865,0.29675886034965515,0.03967806324362755,0.004916045814752579,-0.9992004036903381,0.34862661361694336,-0.5802394151687622,0.8919826745986938,-0.2022477686405182,0.06413239240646362,-0.1629301905632019,0.04515539109706879,0.14666038751602173,0.11876165866851807,0.0386010967195034,0.01120692491531372,-0.04798316955566406,-0.016325905919075012,0.026713311672210693,0.014178454875946045,0.0,0.0,0.0,0.0,0.004590241238474846,0.06023476645350456,-0.062249183654785156,0.001949576660990715,-0.009575799107551575,0.03438534960150719,0.11779989302158356,0.004740117583423853,-0.019364792853593826,-0.06579051166772842,0.047118548303842545,-0.055124927312135696,-0.16581575572490692,-0.42458850145339966,-0.6999320387840271,-0.4226575791835785,-0.6495997905731201,0.29989638924598694,-0.8445025682449341,0.7580457925796509,0.4625334143638611,-0.11827363818883896,0.13836172223091125,-0.0035802796483039856,-0.21745899319648743,-0.311511367559433,0.024455338716506958,0.2744182050228119,-0.7221735715866089,-1.7144187688827515,-0.6895740628242493,-2.001800775527954
1760498888.4011052,0.02,0.16209664940834045,-0.11055123805999756,0.30677542090415955,0.03622589632868767,-0.008898377418518066,-0.9993039965629578,0.34862661361694336,-0.5802394151687622,0.8798578977584839,-0.17671653628349304,0.06716948747634888,-0.16111314296722412,0.052442338317632675,0.1414022147655487,0.1128847599029541,0.06195976212620735,-0.006273090839385986,-0.04958033561706543,-0.014577988535165787,0.03789764642715454,-0.006401419639587402,0.0,0.0,0.0,0.0,0.08677487075328827,-0.00927184708416462,0.011859447695314884,0.019696518778800964,-0.011369019746780396,-0.04375368356704712,0.013506374321877956,-0.06543207168579102,0.014333869330585003,0.03749539703130722,0.013729377649724483,-0.03973900154232979,-0.21782878041267395,-0.38555535674095154,-0.5293853878974915,-0.4728507697582245,-0.41232672333717346,-0.05092120170593262,-0.5815292596817017,-1.9922935962677002,0.6377294659614563,-0.4394150376319885,-0.6255961656570435,-0.3875138461589813,-0.09440544247627258,2.2174274921417236,0.4325457811355591,-0.008176133036613464,-0.8758467435836792,-1.3773881196975708,-1.2561461925506592,-1.935301661491394
1760498888.4725876,0.02,-0.011874392628669739,-0.177052840590477,0.2594124674797058,0.022951150313019753,-0.011243144050240517,-0.9996733665466309,0.34862661361694336,-0.5802394151687622,0.8687306642532349,-0.14668992161750793,0.055567145347595215,-0.1535748839378357,0.04609362781047821,0.1361865997314453,0.08789551258087158,0.03188242390751839,-0.032018959522247314,-0.03373456001281738,0.006411021575331688,0.041469573974609375,-0.028504610061645508,0.0,0.0,0.0,0.0,0.07169898599386215,-0.03817315027117729,0.025041809305548668,-0.025711432099342346,-0.011009575799107552,-0.06580710411071777,-0.08492394536733627,-0.03778926283121109,0.026930613443255424,0.07295304536819458,0.0016864847857505083,-0.041328657418489456,-0.12796978652477264,-0.3527827262878418,-0.22556714713573456,-0.4467317759990692,-0.3505605459213257,-0.004069223999977112,-0.5468171834945679,-4.049994468688965,0.7304567694664001,-0.16334089636802673,-0.22602161765098572,-0.5460596084594727,0.14540788531303406,2.3127706050872803,0.3187143802642822,-0.18110693991184235,-0.3643479347229004,-1.0775762796401978,-1.682419776916504,-1.6816426515579224
1760498888.5460882,0.02,-0.04857748746871948,-0.1626420021057129,0.19699513912200928,0.009470106102526188,-0.008009196259081364,-0.9999231100082397,0.34862661361694336,-0.5802394151687622,0.8599203824996948,-0.12262566387653351,0.03459280729293823,-0.1371815800666809,0.029831413179636,0.13504678010940552,0.06730592250823975,-0.005285321269184351,-0.042323172092437744,-0.02408134937286377,0.046106643974781036,0.03178131580352783,-0.023010730743408203,0.0,0.0,0.0,0.0,0.055392783135175705,-0.053584396839141846,0.03335098549723625,-0.04447638615965843,-0.0007457079482264817,-0.04479661583900452,-0.09263456612825394,-0.011635099537670612,0.001705822767689824,0.11517200618982315,-0.03144947439432144,0.02868194878101349,-0.1356787532567978,-0.43436503410339355,-0.31387194991111755,-0.4160308539867401,-0.02204764261841774,-0.006754741072654724,-0.47369614243507385,-4.5546159744262695,0.596470296382904,-0.11696464568376541,0.005645960569381714,-0.6091276407241821,0.2882493734359741,2.0205767154693604,0.1363019347190857,-0.14621512591838837,-0.4731557369232178,-1.5629633665084839,-1.6673921346664429,-1.6358730792999268
1760498888.6206243,0.02,-0.012125447392463684,-0.14387838542461395,0.18576659262180328,-0.002195604145526886,-0.007851236499845982,-0.9999667406082153,0.34862661361694336,-0.5802394151687622,0.8523300886154175,-0.09117241948843002,0.010739386081695557,-0.11621540784835815,0.014301142655313015,0.13272470235824585,0.053537607192993164,-0.039120420813560486,-0.052392661571502686,-0.011479735374450684,0.10004051774740219,0.007691502571105957,0.0066759586334228516,0.0,0.0,0.0,0.0,0.07789965718984604,-0.05904705449938774,0.0483192503452301,-0.04210815206170082,-0.01013916451483965,-0.03425970301032066,-0.08762514591217041,-0.028599608689546585,0.03663264587521553,0.13365475833415985,-0.06350739300251007,0.06769727915525436,-0.17164047062397003,-0.3852640688419342,-0.3152673840522766,-0.3614722788333893,0.4357771873474121,-0.022877678275108337,-0.3327734172344208,-4.081462860107422,0.5589076280593872,-0.23426146805286407,-0.0284002423286438,-0.698823094367981,0.4417642056941986,1.666379451751709,-0.11816463619470596,-0.04944439232349396,-0.6081815361976624,-1.6144152879714966,-1.523724913597107,-1.4224001169204712
1760498888.69184,0.02,0.009623691439628601,-0.1541665643453598,0.20708882808685303,-0.013809003867208958,-0.009955784305930138,-0.999855101108551,0.34862661361694336,-0.5802394151687622,0.8444458246231079,-0.051313210278749466,-0.013708949089050293,-0.09414488077163696,0.0008184270118363202,0.13045945763587952,0.0425032377243042,-0.07192037254571915,-0.06788396835327148,0.011012613773345947,0.15533137321472168,-0.027425944805145264,0.04831564426422119,0.0,0.0,0.0,0.0,0.09819980710744858,-0.059797465801239014,0.04862317815423012,-0.03713523969054222,-0.005644356831908226,-0.02829175628721714,-0.08756863325834274,-0.0382944755256176,0.053431183099746704,0.12697510421276093,-0.08591199666261673,0.08533290773630142,-0.1954662799835205,-0.4457816779613495,-0.29620546102523804,-0.3016276955604553,0.6047223806381226,-0.16956323385238647,-0.24813467264175415,-2.9652485847473145,0.6085903644561768,-0.3503727912902832,-0.03423747420310974,-0.6907039880752563,0.4558039605617523,1.549903392791748,-0.24182483553886414,0.1574544459581375,-0.720195472240448,-1.5785307884216309,-1.3937124013900757,-1.1879477500915527
1760498888.77234,0.02,-0.022620439529418945,-0.1913977861404419,0.21952910721302032,-0.027766630053520203,-0.008577433414757252,-0.9995776414871216,0.34862661361694336,-0.5802394151687622,0.8359376192092896,-0.016581283882260323,-0.035478055477142334,-0.08608579635620117,-0.015745587646961212,0.1305047869682312,0.0253603458404541,-0.10961245745420456,-0.08553552627563477,0.03239107131958008,0.1985931545495987,-0.07653021812438965,0.11794310808181763,0.0,0.0,0.0,0.0,0.08226628601551056,-0.05258297920227051,0.00737646222114563,-0.04337262362241745,0.0010101118823513389,-0.048557035624980927,-0.0964614599943161,-0.04293922334909439,0.03879157826304436,0.09256131201982498,-0.11396590620279312,0.15376077592372894,-0.16211898624897003,-0.4510771930217743,-0.29920122027397156,-0.20845341682434082,0.5028358101844788,-0.31417396664619446,-0.3294544816017151,-1.7840930223464966,0.5660693049430847,-0.41741105914115906,0.19679415225982666,-0.7553912401199341,0.3658747375011444,1.20589280128479,-0.28816652297973633,0.5562222003936768,-0.6121964454650879,-1.6535344123840332,-1.298170804977417,-0.7998422384262085
1760498888.8447366,0.02,-0.03969472646713257,-0.21763595938682556,0.22702619433403015,-0.044548653066158295,-0.0035806261003017426,-0.9990007877349854,0.34862661361694336,-0.5802394151687622,0.8270922899246216,-1.2534804909591912e-06,-0.05182534456253052,-0.10079753398895264,-0.0364694818854332,0.12826094031333923,0.006188511848449707,-0.15253685414791107,-0.10423755645751953,0.04413104057312012,0.2168167233467102,-0.12185275554656982,0.17932868003845215,0.0,0.0,0.0,0.0,0.03235356882214546,-0.0373726487159729,-0.04730682820081711,-0.04895755276083946,-0.009306776337325573,-0.04356632009148598,-0.10881266742944717,-0.04701096937060356,0.020978812128305435,0.0236486978828907,-0.09339483827352524,0.10936381667852402,-0.08050190657377243,-0.4128081500530243,-0.2570186257362366,-0.12879841029644012,0.15834259986877441,-0.3285242021083832,-0.5409399271011353,-0.6655457019805908,0.6079896092414856,-0.2726368010044098,0.7581757307052612,-0.7865035533905029,0.3141166865825653,0.22475777566432953,-0.5011698007583618,0.7712311148643494,-0.28881192207336426,-1.4462525844573975,-1.1742475032806396,-0.46993786096572876
1760498888.9228265,0.02,-0.11655738204717636,-0.01598931849002838,0.15479762852191925,-0.05147778242826462,0.008913084864616394,-0.9986343383789062,0.34862661361694336,-0.5802394151687622,0.8197594881057739,-0.016333095729351044,-0.05809289216995239,-0.11999005079269409,-0.0666719451546669,0.1265796422958374,0.0065985918045043945,-0.19745028018951416,-0.12646958231925964,0.07775324583053589,0.1771024912595749,-0.09947985410690308,0.09625780582427979,0.0,0.0,0.0,0.0,-0.053593095391988754,-0.003349078120663762,-0.05024531111121178,-0.06545871496200562,-0.0051889377646148205,0.02927117422223091,-0.0840330719947815,-0.05715048313140869,0.10645878314971924,-0.10841912031173706,0.059945881366729736,-0.18546289205551147,-0.015149213373661041,-0.42107057571411133,-0.20982852578163147,-0.10931330919265747,-0.2517133951187134,-0.16557404398918152,-0.6571273803710938,-0.08970776200294495,0.5981301069259644,-0.11314048618078232,1.3422421216964722,-0.6133811473846436,0.4512432813644409,-0.7492338418960571,-0.6241316199302673,0.7937835454940796,-0.008051075041294098,-1.2718387842178345,-0.798634946346283,-0.1396520882844925
1760498888.9927227,0.02,-0.003305688500404358,0.1455944925546646,0.16941533982753754,-0.04402301833033562,0.014234665781259537,-0.9989290833473206,0.34862661361694336,-0.5802394151687622,0.8132563829421997,-0.04004955291748047,-0.05528742074966431,-0.12620478868484497,-0.07740213721990585,0.12288090586662292,0.02826249599456787,-0.20617111027240753,-0.12952789664268494,0.10601216554641724,0.14056216180324554,-0.08255845308303833,0.05542212724685669,0.0,0.0,0.0,0.0,-0.045891281217336655,0.00745889637619257,0.004262144211679697,-0.002676881616935134,-0.011698455549776554,0.068655826151371,0.016337545588612556,0.013774688355624676,0.06508367508649826,-0.0794057622551918,0.031632278114557266,-0.06355699896812439,-0.07392564415931702,-0.376254141330719,-0.2670253813266754,-0.1588103026151657,-0.11348316073417664,0.31694331765174866,-0.6599389314651489,0.6826736927032471,0.06765971332788467,0.02506861835718155,1.4091368913650513,0.008841373026371002,0.5976969599723816,-2.427818536758423,-0.8203869462013245,0.587007462978363,-0.026313848793506622,-1.3643790483474731,-0.19001367688179016,-0.7107169032096863
1760498889.07219,0.02,-0.020533815026283264,0.15300950407981873,0.1897699236869812,-0.03192204236984253,0.017747720703482628,-0.9993327856063843,0.34862661361694336,-0.5802394151687622,0.806165337562561,-0.06080533564090729,-0.0491068959236145,-0.11806124448776245,-0.07709459960460663,0.11739620566368103,0.05037271976470947,-0.18682102859020233,-0.10525420308113098,0.0981491208076477,0.10582267493009567,-0.0700373649597168,0.0360683798789978,0.0,0.0,0.0,0.0,-0.04703858494758606,0.02198818139731884,0.019887709990143776,0.009504596702754498,-0.014621528796851635,0.04813820868730545,0.062124866992235184,0.06717293709516525,-0.016312701627612114,-0.08455496281385422,0.027384726330637932,-0.03811211511492729,-0.15334448218345642,-0.35884198546409607,-0.4201659858226776,-0.21229255199432373,-0.23010775446891785,0.47775596380233765,-0.7831026315689087,0.6162601113319397,0.11861336976289749,0.1086064949631691,1.2401536703109741,0.06266392767429352,0.45379069447517395,-2.9130780696868896,-0.6825018525123596,0.3457726240158081,-0.676383912563324,-1.4371209144592285,-0.12984684109687805,-1.1292940378189087
1760498889.1411872,0.02,-0.016557857394218445,0.1549856811761856,0.19694678485393524,-0.019562361761927605,0.020835742354393005,-0.9995915293693542,0.34862661361694336,-0.5802394151687622,0.7986794710159302,-0.08110103756189346,-0.03774839639663696,-0.1120448112487793,-0.06981794536113739,0.11182558536529541,0.06244087219238281,-0.15722206234931946,-0.07510685920715332,0.07934391498565674,0.07064816355705261,-0.05680364370346069,0.025903761386871338,0.0,0.0,0.0,0.0,-0.04712424799799919,0.0338522344827652,0.010449069552123547,0.027886806055903435,-0.014231853187084198,0.022033413872122765,0.07368959486484528,0.06507601588964462,-0.017207559198141098,-0.08588603883981705,0.032187338918447495,-0.01732970029115677,-0.17856480181217194,-0.3665720820426941,-0.5673537850379944,-0.3068102300167084,-0.5028340816497803,0.3911072909832001,-0.8439157009124756,0.8188305497169495,0.20176789164543152,0.23542965948581696,1.0605123043060303,-0.038043029606342316,0.3507358431816101,-2.8613381385803223,-0.5353097915649414,0.3100537657737732,-0.8686172962188721,-1.5516337156295776,-0.2601476013660431,-1.4791597127914429
1760498889.209356,0.02,0.017742887139320374,0.16470587253570557,0.19323891401290894,-0.006802201271057129,0.021065108478069305,-0.9997549653053284,0.34862661361694336,-0.5802394151687622,0.7912575006484985,-0.098871611058712,-0.023998379707336426,-0.11033213138580322,-0.05274578183889389,0.10710403323173523,0.06623315811157227,-0.11776914447546005,-0.04624885320663452,0.05780738592147827,0.03811974450945854,-0.042283058166503906,0.022030770778656006,0.0,0.0,0.0,0.0,-0.040831781923770905,0.03641016036272049,0.003853295696899295,0.052452899515628815,-0.010708718560636044,0.00449718302115798,0.0972236841917038,0.062280889600515366,-0.025379622355103493,-0.07851704210042953,0.03519917279481888,-0.0013333604438230395,-0.1626737415790558,-0.38090354204177856,-0.7056450247764587,-0.36165282130241394,-0.5917757153511047,0.35069939494132996,-0.8048765659332275,1.035061001777649,0.27974754571914673,0.2675265073776245,1.040704607963562,-0.015064127743244171,0.19652004539966583,-2.6618802547454834,-0.46106576919555664,0.32610273361206055,-0.7345508933067322,-1.6343835592269897,-0.5529425740242004,-1.664710283279419
1760498889.283949,0.02,0.03198167681694031,0.1742432415485382,0.1895507276058197,0.006617436651140451,0.01944603957235813,-0.9997889995574951,0.34862661361694336,-0.5802394151687622,0.7840033769607544,-0.11498913168907166,-0.010998785495758057,-0.1096143126487732,-0.027996771037578583,0.10389760136604309,0.06383705139160156,-0.06766373664140701,-0.019266128540039062,0.031840384006500244,0.007774330675601959,-0.028056859970092773,0.02296847105026245,0.0,0.0,0.0,0.0,-0.037295371294021606,0.03189042955636978,0.00468231737613678,0.06906227022409439,-0.006601329892873764,-0.009788855910301208,0.12462560087442398,0.05603107810020447,-0.03281556814908981,-0.07369887828826904,0.03361206501722336,0.010164553299546242,-0.13905994594097137,-0.4028432369232178,-0.8449315428733826,-0.3754598796367645,-0.5495418906211853,0.3898122012615204,-0.7283493280410767,1.2851436138153076,0.2998962104320526,0.21646223962306976,0.991539716720581,0.02882329374551773,0.026953335851430893,-2.4950287342071533,-0.3918026387691498,0.36351293325424194,-0.545209527015686,-1.7537169456481934,-0.8355998396873474,-1.6834129095077515
1760498889.3484757,0.02,0.016378536820411682,0.1690368801355362,0.19702130556106567,0.01982947625219822,0.01845117099583149,-0.9996331334114075,0.34862661361694336,-0.5802394151687622,0.7765859365463257,-0.13147176802158356,0.0003822445869445801,-0.10886168479919434,-0.004648175090551376,0.09883397817611694,0.06639862060546875,-0.012400464154779911,0.003168761730194092,0.0028260350227355957,-0.02299310266971588,-0.014162123203277588,0.024634480476379395,0.0,0.0,0.0,0.0,-0.03873080387711525,0.030439233407378197,-0.0007362146279774606,0.05370144918560982,-0.015115305781364441,0.020229166373610497,0.12324079126119614,0.04351406171917915,-0.03590775653719902,-0.07639828324317932,0.05213424563407898,-0.03522074222564697,-0.13357532024383545,-0.45289427042007446,-1.0571517944335938,-0.3250928819179535,-0.4270057678222656,0.4174279272556305,-0.619064450263977,1.4835139513015747,0.3318467140197754,0.08193234354257584,0.8758615255355835,0.02604987472295761,-0.13303875923156738,-2.261916160583496,-0.2650972306728363,0.4007253050804138,-0.4462207555770874,-1.9126144647598267,-1.0761651992797852,-1.6440207958221436
1760498889.428759,0.02,0.06932683289051056,0.1427176147699356,0.22146891057491302,0.03134484216570854,0.016498595476150513,-0.9993724226951599,0.34862661361694336,-0.5802394151687622,0.7685562372207642,-0.14548611640930176,0.013440430164337158,-0.11315751075744629,0.008123044855892658,0.0941956639289856,0.07798504829406738,0.03193311020731926,0.016930818557739258,-0.022515296936035156,-0.0526721365749836,0.003314197063446045,0.014099538326263428,0.0,0.0,0.0,0.0,-0.02255113795399666,0.03880586847662926,-0.016279693692922592,0.031012514606118202,-0.007886683568358421,0.04180319234728813,0.09341200441122055,0.012907779775559902,-0.002502626273781061,-0.06572810560464859,0.039423778653144836,-0.021189039573073387,-0.13297347724437714,-0.4549327790737152,-1.0828022956848145,-0.32272669672966003,-0.4557148218154907,0.34696224331855774,-0.5342839360237122,1.3347015380859375,0.4346705675125122,-0.09479650110006332,0.5691366195678711,-0.0717400461435318,-0.22429460287094116,-1.501978874206543,-0.06323334574699402,0.36105769872665405,-0.44428205490112305,-2.009901285171509,-1.371025562286377,-1.5319827795028687
1760498889.4984262,0.02,0.23445498943328857,-0.011511951684951782,0.2623121440410614,0.03391207009553909,0.0009895674884319305,-0.9994243383407593,0.34862661361694336,-0.5802394151687622,0.758928656578064,-0.13038192689418793,0.023312270641326904,-0.1183050274848938,0.014589267782866955,0.08860510587692261,0.09790897369384766,0.058552373200654984,0.009215772151947021,-0.019181370735168457,-0.057800326496362686,0.019656717777252197,-0.01075601577758789,0.0,0.0,0.0,0.0,0.0653458759188652,0.01954243890941143,-0.004173909779638052,0.026091808453202248,-0.006513040047138929,0.036089714616537094,0.03084954433143139,-0.03099898062646389,0.05596736818552017,0.004527688957750797,0.045358505100011826,-0.08051089197397232,-0.18853206932544708,-0.45534229278564453,-1.0367443561553955,-0.35792165994644165,-0.4514042139053345,0.06086602807044983,-0.3936441242694855,-0.463590532541275,0.5987103581428528,-0.36902546882629395,-0.22555729746818542,-0.27808138728141785,-0.061882708221673965,0.9332191944122314,0.2815878987312317,-0.022655606269836426,-0.6993306875228882,-1.7350223064422607,-1.5975728034973145,-1.5479015111923218
1760498889.582144,0.02,0.1465231478214264,-0.16016338765621185,0.22287845611572266,0.024490445852279663,-0.013303589075803757,-0.9996115565299988,0.34862661361694336,-0.5802394151687622,0.7494126558303833,-0.10103938728570938,0.015388071537017822,-0.1038481593132019,0.019487306475639343,0.08165448904037476,0.0930558443069458,0.04692501947283745,-0.006588339805603027,-0.0011924505233764648,-0.034858427941799164,0.03499716520309448,-0.05817222595214844,0.0,0.0,0.0,0.0,0.07752375304698944,-0.029786083847284317,0.04071255773305893,0.005859616212546825,-0.014757180586457253,-0.03448210284113884,-0.043412405997514725,-0.026419097557663918,0.028575677424669266,0.09212606400251389,0.02132805623114109,-0.09631221741437912,-0.020356521010398865,-0.3228331506252289,-0.3437716066837311,-0.3451783061027527,-0.5397048592567444,-0.1361916959285736,-0.22599121928215027,-2.956117630004883,0.677155077457428,-0.3837246596813202,-0.40213751792907715,-0.586248517036438,0.16215860843658447,2.661578416824341,0.3163955807685852,-0.3183152675628662,-0.06777364760637283,-0.9998490214347839,-1.7166322469711304,-1.2291377782821655
1760498889.6571605,0.02,-0.027886182069778442,-0.18380635976791382,0.1936568170785904,0.010164206847548485,-0.016532346606254578,-0.9998116493225098,0.34862661361694336,-0.5802394151687622,0.7414530515670776,-0.07638975977897644,0.009098827838897705,-0.10258400440216064,0.011055025272071362,0.07851159572601318,0.07456660270690918,0.020869513973593712,-0.016758263111114502,0.00751340389251709,0.011806917376816273,0.02498263120651245,-0.05949199199676514,0.0,0.0,0.0,0.0,0.05267104506492615,-0.01298745907843113,-0.003100673435255885,-0.03503987938165665,-0.007411797530949116,-0.04962266981601715,-0.0786125585436821,-0.019351879134774208,0.011817957274615765,0.12695108354091644,-0.041386235505342484,0.028598127886652946,-0.028800690546631813,-0.3205476701259613,-0.2706930637359619,-0.3022501766681671,-0.2852548360824585,0.06189669668674469,-0.3387834429740906,-3.670717239379883,0.43563246726989746,-0.26823410391807556,-0.3455057442188263,-0.5830919742584229,0.3665625751018524,2.267029047012329,0.15190106630325317,-0.2684969902038574,-0.11167431622743607,-1.4629738330841064,-1.409016489982605,-1.1516836881637573
1760498889.727104,0.02,-0.020800888538360596,-0.1575443595647812,0.1897638887166977,-0.002945474348962307,-0.016239017248153687,-0.9998638033866882,0.34862661361694336,-0.5802394151687622,0.7339242696762085,-0.0456949844956398,0.002388596534729004,-0.09536802768707275,-0.0014598304405808449,0.07934200763702393,0.05956828594207764,-0.00859979260712862,-0.021429598331451416,0.010735809803009033,0.07281198352575302,-0.004069149494171143,-0.018988728523254395,0.0,0.0,0.0,0.0,0.0817066952586174,-0.015336774289608002,0.01647648960351944,-0.03488340228796005,0.0029921068344265223,-0.038431961089372635,-0.07807040959596634,-0.008514579385519028,0.006510607898235321,0.15444478392601013,-0.07359562069177628,0.09871751070022583,-0.07130397111177444,-0.38003572821617126,-0.27564889192581177,-0.2660066783428192,0.22421228885650635,-0.09519211947917938,-0.2928726375102997,-3.3792409896850586,0.5427499413490295,-0.2221178561449051,-0.08589354157447815,-0.6660559177398682,0.4397798478603363,1.8083823919296265,-0.04201766848564148,-0.11148752272129059,-0.29322755336761475,-1.5829533338546753,-1.3981332778930664,-1.0928138494491577
1760498889.8050222,0.02,0.0036927461624145508,-0.1623673141002655,0.1909988522529602,-0.015427345409989357,-0.016755513846874237,-0.9997406005859375,0.34862661361694336,-0.5802394151687622,0.7263871431350708,-0.00822471920400858,-0.00895458459854126,-0.08243346214294434,-0.013353891670703888,0.08436077833175659,0.04517698287963867,-0.037851858884096146,-0.029037058353424072,0.019148647785186768,0.13731007277965546,-0.043873131275177,0.04319709539413452,0.0,0.0,0.0,0.0,0.08699968457221985,-0.034692320972681046,0.030838897451758385,-0.031607575714588165,0.016116870567202568,-0.039756614714860916,-0.07544253021478653,-0.01937948539853096,0.01670607179403305,0.1537652164697647,-0.09135733544826508,0.12896648049354553,-0.13820944726467133,-0.4562222957611084,-0.24462468922138214,-0.2349322885274887,0.6058511137962341,-0.3130495548248291,-0.2764906883239746,-2.6194591522216797,0.6188618540763855,-0.2610948979854584,0.058683305978775024,-0.8406950831413269,0.3701959550380707,1.5659172534942627,-0.20763850212097168,0.16589917242527008,-0.4711865782737732,-1.5792739391326904,-1.3359805345535278,-1.0098432302474976
1760498889.8767822,0.02,-0.026449725031852722,-0.18391084671020508,0.19375650584697723,-0.02944706194102764,-0.015048975124955177,-0.999453067779541,0.34862661361694336,-0.5802394151687622,0.7187949419021606,0.021679755300283432,-0.02444612979888916,-0.07753872871398926,-0.028145549818873405,0.09392303228378296,0.025647640228271484,-0.0706443041563034,-0.04039490222930908,0.026455581188201904,0.18997439742088318,-0.09102410078048706,0.1229391098022461,0.0,0.0,0.0,0.0,0.0625254288315773,-0.045980360358953476,0.013584609143435955,-0.039971303194761276,0.02446061186492443,-0.05020151659846306,-0.08426542580127716,-0.02792331576347351,0.0068199606612324715,0.1129792258143425,-0.10241615772247314,0.16500811278820038,-0.15658998489379883,-0.49219781160354614,-0.27793189883232117,-0.17970675230026245,0.679103434085846,-0.4647701680660248,-0.36564138531684875,-1.6772308349609375,0.5905441641807556,-0.3281857967376709,0.2924881875514984,-0.9491052627563477,0.27581632137298584,1.1300990581512451,-0.29511988162994385,0.5614278316497803,-0.4867548942565918,-1.7888026237487793,-1.2097151279449463,-0.7751820087432861
1760498889.948164,0.02,-0.021261796355247498,-0.18192091584205627,0.2014193832874298,-0.04457732290029526,-0.0110352523624897,-0.9989449977874756,0.34862661361694336,-0.5802394151687622,0.7110472917556763,0.030390189960598946,-0.03676033020019531,-0.09424805641174316,-0.0469372496008873,0.10133233666419983,0.0072585344314575195,-0.10836276412010193,-0.05436503887176514,0.032236456871032715,0.21684874594211578,-0.12774869799613953,0.18105030059814453,0.0,0.0,0.0,0.0,0.015277336351573467,-0.026019161567091942,-0.05452046915888786,-0.04283914342522621,0.013896881602704525,-0.03291897848248482,-0.09067276120185852,-0.0323159284889698,0.014635662548244,0.04523414745926857,-0.06943211704492569,0.09844311326742172,-0.074116550385952,-0.4656831920146942,-0.21347442269325256,-0.12054244428873062,0.28331929445266724,-0.43944671750068665,-0.5642390251159668,-0.6840523481369019,0.5768179893493652,-0.21337129175662994,0.6252739429473877,-0.945093035697937,0.26704734563827515,0.38706478476524353,-0.4635148346424103,0.7572851777076721,-0.29717668890953064,-1.6601566076278687,-1.055288314819336,-0.46986979246139526
1760498890.023197,0.02,-0.13773491978645325,-0.019135117530822754,0.1626177430152893,-0.051871877163648605,-0.0003719702363014221,-0.9986536502838135,0.34862661361694336,-0.5802394151687622,0.7036586999893188,0.011202201247215271,-0.040478408336639404,-0.11735391616821289,-0.07403203845024109,0.10564833879470825,0.00921773910522461,-0.15348094701766968,-0.07296401262283325,0.0579448938369751,0.19005917012691498,-0.11346060037612915,0.12997078895568848,0.0,0.0,0.0,0.0,-0.06655782461166382,0.0017843596870079637,-0.05728374794125557,-0.07121019810438156,0.009131030179560184,0.035686902701854706,-0.11290569603443146,-0.06313645094633102,0.11022690683603287,-0.10799000412225723,0.07512500882148743,-0.19374434649944305,-0.026033857837319374,-0.4545668661594391,-0.18201954662799835,-0.11180024594068527,-0.13392746448516846,-0.2898106276988983,-0.6998201608657837,0.04307064041495323,0.491767942905426,-0.023801259696483612,0.9023255109786987,-0.750566840171814,0.35529595613479614,-0.46044227480888367,-0.6351427435874939,0.7962415218353271,-0.19860047101974487,-1.5667320489883423,-0.8305383324623108,-0.20876656472682953
1760498890.101855,0.02,0.011734150350093842,0.11060819029808044,0.14246493577957153,-0.04633651301264763,0.004251981154084206,-0.9989168643951416,0.34862661361694336,-0.5802394151687622,0.6975961923599243,-0.012076632119715214,-0.039373159408569336,-0.12215167284011841,-0.0849461704492569,0.10711666941642761,0.03391265869140625,-0.17272911965847015,-0.08658629655838013,0.08996468782424927,0.1557202935218811,-0.08754938840866089,0.07500267028808594,0.0,0.0,0.0,0.0,-0.04339911416172981,-0.0033779055811464787,0.015304598025977612,-0.002799184760078788,0.0015032872324809432,0.07280250638723373,-0.008216066285967827,-0.01984577439725399,0.06555265188217163,-0.07098350673913956,0.054752349853515625,-0.10385387390851974,-0.06578926742076874,-0.42705702781677246,-0.1739867776632309,-0.15161065757274628,-0.02243596687912941,0.07907727360725403,-0.7135509252548218,0.6526451706886292,0.08913645893335342,0.08481401950120926,1.0432549715042114,-0.19846761226654053,0.42795684933662415,-1.6367822885513306,-0.7965969443321228,0.6564682126045227,-0.19687426090240479,-1.583303689956665,-0.30054304003715515,-0.6471482515335083
1760498890.1671245,0.02,-0.035795457661151886,0.12477356195449829,0.1522759646177292,-0.03691760450601578,0.008201156742870808,-0.9992846846580505,0.34862661361694336,-0.5802394151687622,0.6917010545730591,-0.03334326669573784,-0.03824353218078613,-0.11151635646820068,-0.08543532341718674,0.10667639970779419,0.055615901947021484,-0.16727641224861145,-0.07997125387191772,0.09001284837722778,0.1230725571513176,-0.06906914710998535,0.043507516384124756,0.0,0.0,0.0,0.0,-0.0498182512819767,0.007757101207971573,0.026417827233672142,0.007940104231238365,-0.0015943562611937523,0.04453231021761894,0.026712561026215553,0.024058913812041283,-0.0023867220152169466,-0.08041583001613617,0.03964162990450859,-0.06321952491998672,-0.13259199261665344,-0.387825071811676,-0.2555646300315857,-0.1867159754037857,-0.12258361279964447,0.31244683265686035,-0.7941508293151855,0.6991862654685974,0.08014566451311111,0.14564619958400726,0.938220739364624,0.01084483414888382,0.4137841463088989,-2.406134843826294,-0.7607230544090271,0.41690385341644287,-0.6292510032653809,-1.4769879579544067,-0.060608141124248505,-0.9973415732383728
1760498890.243025,0.02,-0.05335257947444916,0.13494159281253815,0.16593040525913239,-0.026533912867307663,0.01396973431110382,-0.9995502829551697,0.34862661361694336,-0.5802394151687622,0.6853700876235962,-0.056153587996959686,-0.03270840644836426,-0.1019057035446167,-0.07809799909591675,0.10569688677787781,0.0644146203994751,-0.15531553328037262,-0.06725543737411499,0.08241814374923706,0.08771044760942459,-0.05425471067428589,0.025089263916015625,0.0,0.0,0.0,0.0,-0.05400567874312401,0.01872381940484047,0.020425057038664818,0.031078776344656944,-0.003467453643679619,0.012238210998475552,0.03199520334601402,0.02728082612156868,0.0010116305202245712,-0.08690456300973892,0.033785779029130936,-0.035771455615758896,-0.15525273978710175,-0.3930259644985199,-0.3264733552932739,-0.24106465280056,-0.3495314419269562,0.31283730268478394,-0.8424426317214966,0.8809014558792114,0.14036166667938232,0.26618286967277527,0.8725309371948242,-0.024290047585964203,0.40135836601257324,-2.766871690750122,-0.629189670085907,0.32190749049186707,-0.7747945785522461,-1.4842935800552368,-0.03131791204214096,-1.2365080118179321
1760498890.31649,0.02,-0.024622328579425812,0.14774933457374573,0.16488002240657806,-0.015239435248076916,0.017797056585550308,-0.9997254610061646,0.34862661361694336,-0.5802394151687622,0.6789513826370239,-0.07727070897817612,-0.02406710386276245,-0.09604167938232422,-0.05949559062719345,0.10457292199134827,0.0634385347366333,-0.13425040245056152,-0.05166894197463989,0.07100385427474976,0.05378337949514389,-0.040297091007232666,0.015563905239105225,0.0,0.0,0.0,0.0,-0.048712242394685745,0.024271635338664055,0.013326804153621197,0.05761665850877762,-0.0036883254069834948,-0.005002102814614773,0.05707511305809021,0.035319600254297256,-0.010331965982913971,-0.08143633604049683,0.03318708389997482,-0.01475614309310913,-0.14719122648239136,-0.39934679865837097,-0.41558709740638733,-0.291416734457016,-0.4473353326320648,0.2777727544307709,-0.8236734867095947,0.9559532999992371,0.2381119728088379,0.29089733958244324,1.0561025142669678,0.02314039319753647,0.32056543231010437,-2.8068981170654297,-0.5461864471435547,0.29411178827285767,-0.7302329540252686,-1.5452274084091187,-0.1520906686782837,-1.4275022745132446
1760498890.382344,0.02,0.015823960304260254,0.16650967299938202,0.1573638916015625,-0.002671271562576294,0.018072176724672318,-0.9998331069946289,0.34862661361694336,-0.5802394151687622,0.6728016138076782,-0.09524156898260117,-0.013998866081237793,-0.09260690212249756,-0.030266711488366127,0.10460689663887024,0.05453789234161377,-0.09981980919837952,-0.03266865015029907,0.05364859104156494,0.023594623431563377,-0.026814401149749756,0.013228297233581543,0.0,0.0,0.0,0.0,-0.04104360565543175,0.025868911296129227,0.011404466815292835,0.08149408549070358,1.2150650036346633e-05,-0.023937871679663658,0.08963107317686081,0.043496325612068176,-0.023151125758886337,-0.07224369049072266,0.03193388506770134,0.003126930445432663,-0.12665359675884247,-0.40731915831565857,-0.5134347677230835,-0.3179432153701782,-0.42811888456344604,0.32497134804725647,-0.7661957740783691,1.0974258184432983,0.27546051144599915,0.24777115881443024,1.1639831066131592,0.09728776663541794,0.2096840888261795,-2.7401435375213623,-0.49213385581970215,0.30140814185142517,-0.5949949622154236,-1.6369107961654663,-0.31248989701271057,-1.519095778465271
1760498890.4587302,0.02,0.017985299229621887,0.17081277072429657,0.15558220446109772,0.010841473937034607,0.016718696802854538,-0.9998014569282532,0.34862661361694336,-0.5802394151687622,0.6668616533279419,-0.11202851682901382,-0.004036605358123779,-0.08925718069076538,0.002717702416703105,0.10389629006385803,0.04377758502960205,-0.053941428661346436,-0.011743783950805664,0.03095489740371704,-0.004747176542878151,-0.014229953289031982,0.015795230865478516,0.0,0.0,0.0,0.0,-0.04098135977983475,0.02525247074663639,0.00872549694031477,0.07619025558233261,-0.012946094386279583,0.0004596418875735253,0.11275165528059006,0.046546753495931625,-0.036180611699819565,-0.07123032957315445,0.028893548995256424,0.012493818998336792,-0.11393173784017563,-0.40822339057922363,-0.620514988899231,-0.3252362906932831,-0.2452716827392578,0.3972747325897217,-0.6683320999145508,1.2464518547058105,0.293411523103714,0.12513984739780426,1.1400203704833984,0.1373780369758606,0.07432278990745544,-2.657586097717285,-0.4328828454017639,0.31502729654312134,-0.4809812307357788,-1.7894612550735474,-0.49439939856529236,-1.5476728677749634
1760498890.520099,0.02,0.005183428525924683,0.16150298714637756,0.16275915503501892,0.023660095408558846,0.015701178461313248,-0.9995967745780945,0.34862661361694336,-0.5802394151687622,0.660821795463562,-0.12898823618888855,0.006740748882293701,-0.08884614706039429,0.029120510444045067,0.0996364951133728,0.0434422492980957,-0.004314740188419819,0.0071405768394470215,0.004985451698303223,-0.033290643244981766,0.0006607174873352051,0.012739777565002441,0.0,0.0,0.0,0.0,-0.04242904484272003,0.02924180030822754,6.222371303010732e-05,0.05924323946237564,-0.009609903208911419,0.001264113001525402,0.10055162012577057,0.04730777069926262,-0.060158442705869675,-0.07342685014009476,0.04121681675314903,-0.012562969699501991,-0.12128973007202148,-0.4372694492340088,-0.68388432264328,-0.31395190954208374,-0.1440463364124298,0.4270757734775543,-0.5949056148529053,1.4672446250915527,0.36218225955963135,0.007944920100271702,0.9451867341995239,0.10932611674070358,-0.058355096727609634,-2.4305741786956787,-0.31230098009109497,0.3386797308921814,-0.45267707109451294,-1.9420150518417358,-0.6834211945533752,-1.529693841934204
1760498890.6028976,0.02,0.06771495193243027,0.12195674329996109,0.1872233897447586,0.03424998000264168,0.011777890846133232,-0.9993438720703125,0.34862661361694336,-0.5802394151687622,0.653995156288147,-0.14140728116035461,0.02131706476211548,-0.09659016132354736,0.04497671127319336,0.09482318162918091,0.05118870735168457,0.03360509127378464,0.015619158744812012,-0.010308146476745605,-0.059189021587371826,0.016850054264068604,0.002534151077270508,0.0,0.0,0.0,0.0,-0.025077560916543007,0.04119166359305382,-0.025337189435958862,0.028758812695741653,-0.012116027995944023,0.03411664068698883,0.07939349859952927,0.004803869407624006,0.00031718891113996506,-0.060890235006809235,0.0372186116874218,-0.02615850605070591,-0.126051127910614,-0.44399505853652954,-0.6894029378890991,-0.28532880544662476,-0.16604262590408325,0.3641374409198761,-0.5401450395584106,1.1330716609954834,0.4461256265640259,-0.1756058782339096,0.49610134959220886,0.028923004865646362,-0.06722301244735718,-1.480562448501587,-0.15616387128829956,0.24001063406467438,-0.6135492324829102,-2.0162627696990967,-0.8050731420516968,-1.4724949598312378
1760498890.6744099,0.02,0.21029452979564667,-0.03939405083656311,0.22670625150203705,0.03530693054199219,-0.0032659508287906647,-0.9993711709976196,0.34862661361694336,-0.5802394151687622,0.6455792188644409,-0.1270478218793869,0.03260082006454468,-0.10464179515838623,0.04989716038107872,0.08776688575744629,0.07108640670776367,0.05104885250329971,0.0025447607040405273,-0.001094222068786621,-0.05902291089296341,0.02910172939300537,-0.018686652183532715,0.0,0.0,0.0,0.0,0.06041589006781578,0.02018032781779766,-0.010747414082288742,0.018466802313923836,-0.008883641101419926,0.031982410699129105,0.012626548297703266,-0.046954866498708725,0.045997027307748795,0.023133479058742523,0.029001614078879356,-0.06729122996330261,-0.21525239944458008,-0.4427402913570404,-0.48108598589897156,-0.34454697370529175,-0.3799445331096649,0.15542474389076233,-0.3439578711986542,-0.7554938197135925,0.5090314149856567,-0.516330897808075,-0.4308036267757416,-0.18977519869804382,0.11194723844528198,1.3247920274734497,0.2787409722805023,-0.06494562327861786,-0.8229385018348694,-1.8217142820358276,-1.0491029024124146,-1.4325246810913086
1760498890.749414,0.02,0.11232327669858932,-0.16500341892242432,0.20347639918327332,0.024706538766622543,-0.015288283117115498,-0.9995778203010559,0.34862661361694336,-0.5802394151687622,0.6371275186538696,-0.10057630389928818,0.030177295207977295,-0.10233891010284424,0.051584869623184204,0.08428770303726196,0.06797945499420166,0.03549686074256897,-0.01678156852722168,0.011662423610687256,-0.03196375072002411,0.03970742225646973,-0.061307549476623535,0.0,0.0,0.0,0.0,0.06931553035974503,-0.014730519615113735,0.011092765256762505,-0.0028179294895380735,-0.00433865562081337,-0.025121841579675674,-0.04613165557384491,-0.029047895222902298,0.007954585365951061,0.09639788419008255,0.012229444459080696,-0.08564063161611557,-0.0973159596323967,-0.4023067057132721,-0.15926013886928558,-0.3201422393321991,-0.45800572633743286,-0.051012322306632996,-0.31367695331573486,-2.8671011924743652,0.46568751335144043,-0.473728746175766,-0.45162245631217957,-0.4142039716243744,0.2807406783103943,2.438490152359009,0.35131746530532837,-0.31819117069244385,-0.3715255856513977,-1.5315582752227783,-1.2021839618682861,-1.128010869026184
1760498890.8213663,0.02,-0.03090249001979828,-0.1630369871854782,0.1640922576189041,0.011505257338285446,-0.016785139217972755,-0.9997929334640503,0.34862661361694336,-0.5802394151687622,0.6299785375595093,-0.07940097153186798,0.023754000663757324,-0.0999787449836731,0.04070323333144188,0.08722198009490967,0.056291818618774414,0.00880022905766964,-0.024093806743621826,0.012502014636993408,0.015234391205012798,0.029299795627593994,-0.05996978282928467,0.0,0.0,0.0,0.0,0.036416999995708466,-0.02140633761882782,0.007267204113304615,-0.03977108374238014,0.012884584255516529,-0.029684042558073997,-0.07578804343938828,-0.004046866204589605,-0.027210593223571777,0.12975333631038666,-0.03756111487746239,0.03252970054745674,-0.12813621759414673,-0.4607206881046295,-0.20161795616149902,-0.2728787362575531,-0.16912537813186646,-0.013563722372055054,-0.36872726678848267,-3.77388858795166,0.36469632387161255,-0.3225875198841095,-0.20835831761360168,-0.5115922093391418,0.4486238360404968,2.139472484588623,0.23029285669326782,-0.25876909494400024,-0.44708627462387085,-1.841361165046692,-1.1634892225265503,-1.0221282243728638
1760498890.8986185,0.02,-0.005821026861667633,-0.12836502492427826,0.15088573098182678,0.0006083231419324875,-0.017429079860448837,-0.9998478889465332,0.34862661361694336,-0.5802394151687622,0.6238154172897339,-0.056803587824106216,0.012522876262664795,-0.08918368816375732,0.027065804228186607,0.0935969352722168,0.04843795299530029,-0.018887564539909363,-0.030085861682891846,0.01611405611038208,0.0764671340584755,0.0031586289405822754,-0.021267414093017578,0.0,0.0,0.0,0.0,0.05480199679732323,-0.030375152826309204,0.027658849954605103,-0.038950711488723755,0.017001036554574966,-0.018494751304388046,-0.07314657419919968,-0.01777510903775692,0.015457927249372005,0.1531931608915329,-0.06505043804645538,0.09182193875312805,-0.17871098220348358,-0.479879230260849,-0.2353925257921219,-0.22567763924598694,0.4243737459182739,-0.10425800085067749,-0.2967508137226105,-3.789886713027954,0.4652422070503235,-0.275888592004776,-0.05226674675941467,-0.6818190217018127,0.5424161553382874,1.7316014766693115,-0.007871322333812714,-0.13226987421512604,-0.6325318217277527,-1.8052836656570435,-1.171315312385559,-0.9001800417900085
1760498890.967173,0.02,-0.007087580859661102,-0.13946133852005005,0.1640225350856781,-0.009954157285392284,-0.018023742362856865,-0.9997879862785339,0.34862661361694336,-0.5802394151687622,0.617599606513977,-0.02702171728014946,-0.0036079883575439453,-0.07291340827941895,0.012599783949553967,0.09987407922744751,0.0413057804107666,-0.0478418804705143,-0.04074883460998535,0.027585268020629883,0.13785570859909058,-0.031094729900360107,0.029512405395507812,0.0,0.0,0.0,0.0,0.07549353688955307,-0.04356207698583603,0.03816664591431618,-0.0396527424454689,0.012384696863591671,-0.014505540020763874,-0.07739763706922531,-0.026503056287765503,0.02470347099006176,0.14295771718025208,-0.07965434342622757,0.1016649603843689,-0.2137393057346344,-0.48741626739501953,-0.2181764841079712,-0.18640021979808807,0.8170021772384644,-0.26865726709365845,-0.23069190979003906,-3.2015109062194824,0.5566022992134094,-0.3085598051548004,0.06813496351242065,-0.7725404500961304,0.46944090723991394,1.516148567199707,-0.17576073110103607,0.08815859258174896,-0.8016970157623291,-1.750929355621338,-1.154381275177002,-0.7772698998451233
1760498891.0478072,0.02,-0.0027338117361068726,-0.1773223727941513,0.17117361724376678,-0.022924315184354782,-0.017995651811361313,-0.9995751976966858,0.34862661361694336,-0.5802394151687622,0.61101233959198,0.006104463245719671,-0.022327899932861328,-0.06472921371459961,-0.002384406281635165,0.1072019636631012,0.029857397079467773,-0.07854250073432922,-0.0544741153717041,0.03779304027557373,0.19162529706954956,-0.0748831033706665,0.09912741184234619,0.0,0.0,0.0,0.0,0.08392652124166489,-0.048891715705394745,0.011043301783502102,-0.03873557597398758,0.020011521875858307,-0.03613556548953056,-0.07759612053632736,-0.0331520140171051,0.012112296186387539,0.12079020589590073,-0.09913231432437897,0.1488676220178604,-0.20187588036060333,-0.5009234547615051,-0.26575931906700134,-0.12637905776500702,0.9132143259048462,-0.42648395895957947,-0.27503663301467896,-2.3181474208831787,0.5935826301574707,-0.3657146394252777,0.3189452290534973,-0.8964037299156189,0.34066036343574524,1.3488396406173706,-0.24237892031669617,0.4621480107307434,-0.7928348779678345,-1.852583408355713,-1.1328656673431396,-0.5307788848876953
1760498891.120162,0.02,-0.011346668004989624,-0.20574010908603668,0.1722954660654068,-0.03890106827020645,-0.015408072620630264,-0.99912428855896,0.34862661361694336,-0.5802394151687622,0.6043065786361694,0.02544364519417286,-0.03980720043182373,-0.07485908269882202,-0.020892273634672165,0.11382788419723511,0.012411952018737793,-0.11365649104118347,-0.06868237257003784,0.04189044237136841,0.2249031364917755,-0.11509379744529724,0.16266900300979614,0.0,0.0,0.0,0.0,0.038038767874240875,-0.04134990647435188,-0.03778984770178795,-0.04430174082517624,0.013496524654328823,-0.040216635912656784,-0.08586105704307556,-0.033205486834049225,0.014021317474544048,0.06453202664852142,-0.08061746507883072,0.11817734688520432,-0.13771140575408936,-0.47400838136672974,-0.19576549530029297,-0.054961491376161575,0.5911316275596619,-0.46125438809394836,-0.457224577665329,-1.280772089958191,0.5555177927017212,-0.3191123306751251,0.6114697456359863,-0.9392857551574707,0.287014901638031,0.7705577611923218,-0.3664287328720093,0.7133625149726868,-0.5499388575553894,-1.721252679824829,-1.105616807937622,-0.19289274513721466
1760498891.1859767,0.02,-0.17140156030654907,-0.07681943476200104,0.14434440433979034,-0.05128622055053711,-0.0067528169602155685,-0.9986611604690552,0.34862661361694336,-0.5802394151687622,0.5976947546005249,0.016489367932081223,-0.04842466115951538,-0.09846389293670654,-0.047485265880823135,0.11606660485267639,0.0070275068283081055,-0.1567738950252533,-0.08426451683044434,0.055193424224853516,0.21231400966644287,-0.11661696434020996,0.14154857397079468,0.0,0.0,0.0,0.0,-0.05619410425424576,-0.010378441773355007,-0.05222416669130325,-0.08241648226976395,0.00967975240200758,0.013900223188102245,-0.1211337074637413,-0.05195687338709831,0.07975935935974121,-0.12097825109958649,0.09871601313352585,-0.2617349624633789,-0.10879812389612198,-0.44244518876075745,-0.1862415075302124,-0.08251108974218369,-0.014571074396371841,-0.2888416349887848,-0.6148762702941895,-0.17982956767082214,0.4626883864402771,-0.12515400350093842,0.9155877828598022,-0.7935293316841125,0.3575049340724945,-0.131645068526268,-0.6054445505142212,0.791951060295105,-0.5078401565551758,-1.538065791130066,-0.9019962549209595,-0.031010374426841736
1760498891.269892,0.02,-0.0007501803338527679,0.08521806448698044,0.12087220698595047,-0.048962224274873734,-0.0007098615169525146,-0.9988003969192505,0.34862661361694336,-0.5802394151687622,0.5924044847488403,-0.008233058266341686,-0.045150041580200195,-0.1113554835319519,-0.06272514909505844,0.11578121781349182,0.02666008472442627,-0.18492169678211212,-0.10416370630264282,0.09471189975738525,0.17651546001434326,-0.08925551176071167,0.07546049356460571,0.0,0.0,0.0,0.0,-0.04967518150806427,0.006881194654852152,0.0013595104683190584,-0.010642753913998604,-0.001508150715380907,0.056036241352558136,-0.03255387023091316,-0.04288838058710098,0.10138989984989166,-0.07384379208087921,0.055461496114730835,-0.1248074546456337,-0.08730623871088028,-0.4397149980068207,-0.09234967082738876,-0.10402341187000275,-0.016058269888162613,0.08767473697662354,-0.693885087966919,0.5834847092628479,0.03836552053689957,0.045193202793598175,0.9482007026672363,-0.31998077034950256,0.5307323932647705,-1.3113232851028442,-0.8198856711387634,0.6728425025939941,-0.37393027544021606,-1.5174766778945923,-0.27063941955566406,-0.3898335099220276
1760498891.3434634,0.02,-0.024910271167755127,0.1204783022403717,0.12397272884845734,-0.04052792862057686,0.002672092989087105,-0.9991748332977295,0.34862661361694336,-0.5802394151687622,0.587504506111145,-0.030113212764263153,-0.04001706838607788,-0.10566699504852295,-0.06698989123106003,0.11227047443389893,0.04979407787322998,-0.18252219259738922,-0.09983402490615845,0.10136270523071289,0.1451941430568695,-0.07148569822311401,0.04111438989639282,0.0,0.0,0.0,0.0,-0.050129007548093796,0.01711319014430046,0.01537983026355505,-0.0034334249794483185,-0.009646554477512836,0.05572265014052391,0.02858406864106655,0.027465511113405228,0.0011687185615301132,-0.07541314512491226,0.036743130534887314,-0.06477423757314682,-0.16645395755767822,-0.365604966878891,-0.16806596517562866,-0.14588287472724915,-0.0073038674890995026,0.2931317389011383,-0.7656571865081787,0.6000973582267761,0.07388169318437576,0.08960751444101334,1.0520199537277222,0.0804910734295845,0.4932076036930084,-2.1884608268737793,-0.7958200573921204,0.44811511039733887,-0.6983300447463989,-1.429775357246399,0.0004478469491004944,-0.8117392659187317
1760498891.4197686,0.02,-0.05822925269603729,0.13737818598747253,0.13712430000305176,-0.03015943616628647,0.0085143456235528,-0.9995088577270508,0.34862661361694336,-0.5802394151687622,0.5822950601577759,-0.0538589209318161,-0.031285107135772705,-0.09936916828155518,-0.06622239202260971,0.10801875591278076,0.06339943408966064,-0.16980493068695068,-0.08415782451629639,0.09425324201583862,0.11083637177944183,-0.05933421850204468,0.024398863315582275,0.0,0.0,0.0,0.0,-0.05690465122461319,0.02656610682606697,0.012128985486924648,0.012819059193134308,-0.011453094892203808,0.023607680574059486,0.036102429032325745,0.03650076314806938,-0.0007102579111233354,-0.08483152091503143,0.02520720474421978,-0.029408836737275124,-0.1806582361459732,-0.3642543852329254,-0.24981379508972168,-0.19219504296779633,-0.2903115749359131,0.298795610666275,-0.8540923595428467,0.8665404915809631,0.1022685244679451,0.23015666007995605,0.8597259521484375,0.006770968437194824,0.4746975004673004,-2.6336915493011475,-0.6482774019241333,0.3522622585296631,-0.8671391010284424,-1.3710805177688599,0.10357830673456192,-1.0134190320968628
1760498891.492779,0.02,-0.03485971689224243,0.14807915687561035,0.14160886406898499,-0.01882924698293209,0.01309303566813469,-0.9997369647026062,0.34862661361694336,-0.5802394151687622,0.5768460035324097,-0.07637352496385574,-0.019642353057861328,-0.09672272205352783,-0.05489843711256981,0.10353672504425049,0.06630933284759521,-0.14901913702487946,-0.06523776054382324,0.08387678861618042,0.07714565098285675,-0.04892927408218384,0.016916334629058838,0.0,0.0,0.0,0.0,-0.052374500781297684,0.03175434470176697,0.00476509565487504,0.04041709750890732,-0.011564313434064388,0.0017409444553777575,0.05614295229315758,0.043249260634183884,-0.007603672798722982,-0.08119910210371017,0.024550525471568108,-0.011106031946837902,-0.16901913285255432,-0.36887553334236145,-0.35377511382102966,-0.23891618847846985,-0.42902037501335144,0.2790270745754242,-0.8613460063934326,0.9906380772590637,0.1971021592617035,0.294043630361557,0.9006233215332031,0.026619330048561096,0.3948982059955597,-2.711920976638794,-0.5404354333877563,0.30588534474372864,-0.8207489252090454,-1.415266513824463,-0.028796575963497162,-1.1888431310653687
1760498891.5596592,0.02,0.0029949024319648743,0.16418153047561646,0.13668425381183624,-0.006411493755877018,0.014469237998127937,-0.9998747706413269,0.34862661361694336,-0.5802394151687622,0.5715216398239136,-0.096013642847538,-0.007146954536437988,-0.09642165899276733,-0.03215187042951584,0.1000785231590271,0.06118035316467285,-0.11669117957353592,-0.04306226968765259,0.06790310144424438,0.0466536283493042,-0.03833574056625366,0.015343189239501953,0.0,0.0,0.0,0.0,-0.04529580846428871,0.0313243567943573,0.0035026937257498503,0.06679752469062805,-0.008426444604992867,-0.014791090972721577,0.08439867943525314,0.05048799514770508,-0.019101673737168312,-0.07292810827493668,0.025575965642929077,0.0032271097879856825,-0.1435314416885376,-0.3752925395965576,-0.4744952619075775,-0.27102428674697876,-0.46440768241882324,0.2972964346408844,-0.8226274251937866,1.134095549583435,0.24998050928115845,0.28316038846969604,0.978499174118042,0.07664848119020462,0.27934402227401733,-2.6386172771453857,-0.48021629452705383,0.3129536509513855,-0.6769790649414062,-1.488684058189392,-0.22724059224128723,-1.30355966091156
1760498891.6356647,0.02,0.022970259189605713,0.17230597138404846,0.13381144404411316,0.006998484022915363,0.013387088663876057,-0.9998859167098999,0.34862661361694336,-0.5802394151687622,0.5664001703262329,-0.11361190676689148,0.004637002944946289,-0.09652787446975708,-0.002328290604054928,0.09702116250991821,0.052665114402770996,-0.07367910444736481,-0.01931518316268921,0.047354698181152344,0.018806690350174904,-0.02791118621826172,0.017562568187713623,0.0,0.0,0.0,0.0,-0.041342463344335556,0.029755232855677605,0.0008938386454246938,0.0727720558643341,-0.016891127452254295,0.004431505221873522,0.10616397857666016,0.05168059095740318,-0.027061108499765396,-0.06836550682783127,0.02423015981912613,0.011120257899165154,-0.11354921013116837,-0.37764981389045715,-0.5921952724456787,-0.27866220474243164,-0.35701802372932434,0.3688447177410126,-0.7516803741455078,1.2964520454406738,0.2705841064453125,0.20245935022830963,0.9716842174530029,0.12354374676942825,0.14769798517227173,-2.554553747177124,-0.42913323640823364,0.32924264669418335,-0.5079771280288696,-1.6135400533676147,-0.4584899842739105,-1.3260263204574585
1760498891.7073524,0.02,0.014025814831256866,0.16568125784397125,0.14132490754127502,0.020135384052991867,0.012733953073620796,-0.9997161626815796,0.34862661361694336,-0.5802394151687622,0.5611773729324341,-0.13170784711837769,0.01599210500717163,-0.0983884334564209,0.024145886301994324,0.09182077646255493,0.05241966247558594,-0.02463294379413128,0.002402186393737793,0.024253368377685547,-0.009497769176959991,-0.01833045482635498,0.022055864334106445,0.0,0.0,0.0,0.0,-0.042675215750932693,0.029423056170344353,-0.004960862919688225,0.06570041924715042,-0.011591899208724499,-0.00048528285697102547,0.1185913011431694,0.0451384074985981,-0.03269481658935547,-0.07000022381544113,0.022220952436327934,0.01562984474003315,-0.09788068383932114,-0.3986256420612335,-0.7079424262046814,-0.2894279658794403,-0.2503702938556671,0.4179826080799103,-0.6795884370803833,1.5451793670654297,0.32798200845718384,0.09812626987695694,0.9104499816894531,0.10647759586572647,0.0009198449552059174,-2.4925689697265625,-0.3347468376159668,0.3724517226219177,-0.3938100337982178,-1.765647292137146,-0.6845245361328125,-1.3294520378112793
1760498891.7808607,0.02,0.03283988684415817,0.14927707612514496,0.15086989104747772,0.03207942098379135,0.011688788421452045,-0.9994169473648071,0.34862661361694336,-0.5802394151687622,0.5556076765060425,-0.14868584275245667,0.02901989221572876,-0.10429549217224121,0.04389364272356033,0.08839356899261475,0.05458426475524902,0.018432483077049255,0.01874387264251709,0.0005435943603515625,-0.037351250648498535,-0.003714919090270996,0.015861868858337402,0.0,0.0,0.0,0.0,-0.03598290681838989,0.03705427423119545,-0.02234071120619774,0.04537935182452202,-0.008386930450797081,0.014673816971480846,0.09290149062871933,0.026162585243582726,-0.024613572284579277,-0.06519148498773575,0.0370229110121727,-0.013348649255931377,-0.12471013516187668,-0.4356396198272705,-0.734600841999054,-0.2873874604701996,-0.30610716342926025,0.40661898255348206,-0.6469531059265137,1.5181217193603516,0.4106881022453308,-0.03129544109106064,0.6270194053649902,0.05342786759138107,-0.07335194945335388,-1.9055614471435547,-0.1754816770553589,0.3549427390098572,-0.4756242036819458,-1.8782473802566528,-0.9403387904167175,-1.2817484140396118
1760498891.8533823,0.02,0.1453210711479187,0.04067595675587654,0.19507919251918793,0.037996068596839905,0.0031870491802692413,-0.9992728233337402,0.34862661361694336,-0.5802394151687622,0.5486081838607788,-0.15177734196186066,0.04620027542114258,-0.1189725399017334,0.047305550426244736,0.08154922723770142,0.0745474100112915,0.04583600163459778,0.017046868801116943,-0.002009868621826172,-0.05827800929546356,0.014033079147338867,-0.008147835731506348,0.0,0.0,0.0,0.0,0.012661175802350044,0.045430105179548264,-0.039562638849020004,-0.0028423808980733156,-0.014090183191001415,0.06565387547016144,0.0499887578189373,-0.021450158208608627,0.027222678065299988,-0.04264488071203232,0.046027567237615585,-0.08211301267147064,-0.18255935609340668,-0.41706782579421997,-0.6608519554138184,-0.29574689269065857,-0.2631094455718994,0.32285669445991516,-0.5442588329315186,0.2976718842983246,0.5073765516281128,-0.32528647780418396,-0.06192892789840698,-0.055708929896354675,0.024231817573308945,-0.08115074783563614,0.055467188358306885,0.09402434527873993,-0.7202262878417969,-1.8287733793258667,-1.1159697771072388,-1.2620903253555298
1760498891.92941,0.02,0.19822277128696442,-0.14317694306373596,0.19213348627090454,0.03159419447183609,-0.013149145059287548,-0.9994142651557922,0.34862661361694336,-0.5802394151687622,0.5408138036727905,-0.12596800923347473,0.04403209686279297,-0.1088753342628479,0.05264349654316902,0.07699060440063477,0.07988488674163818,0.045115940272808075,-0.004361271858215332,0.013063430786132812,-0.045197658240795135,0.028628230094909668,-0.04905247688293457,0.0,0.0,0.0,0.0,0.08406099677085876,-0.02079050987958908,0.032789312303066254,0.0148008419200778,-0.006174322683364153,-0.01611609198153019,-0.026361320167779922,-0.05718693137168884,0.03823262080550194,0.0715789645910263,0.02020558901131153,-0.08121438324451447,-0.10773473232984543,-0.3921673595905304,-0.17513220012187958,-0.30080753564834595,-0.29263386130332947,-0.09433957934379578,-0.2877086102962494,-2.2878854274749756,0.5123234987258911,-0.5673054456710815,-0.6121856570243835,-0.4221910536289215,0.1689656674861908,2.3409576416015625,0.4284789562225342,-0.20308227837085724,-0.4260746240615845,-1.5266611576080322,-1.2611857652664185,-1.1037434339523315
1760498892.0015607,0.02,-0.0031890422105789185,-0.18210364878177643,0.1553659439086914,0.01770833693444729,-0.019291652366518974,-0.9996570348739624,0.34862661361694336,-0.5802394151687622,0.5341717004776001,-0.0992814153432846,0.03712433576583862,-0.10711419582366943,0.046684104949235916,0.0805014967918396,0.06582057476043701,0.024682050570845604,-0.017767012119293213,0.017135918140411377,-0.008303385227918625,0.028070271015167236,-0.06388282775878906,0.0,0.0,0.0,0.0,0.055692385882139206,-0.01891259290277958,-0.0005036007496528327,-0.03291809931397438,0.01459215022623539,-0.04295529052615166,-0.06623464822769165,-0.021349012851715088,-0.006104797124862671,0.1024821400642395,-0.012491188012063503,-0.009721897542476654,-0.08635443449020386,-0.4378318786621094,-0.19905683398246765,-0.2505745589733124,-0.3762354850769043,-0.008391007781028748,-0.39562803506851196,-3.654611587524414,0.35641419887542725,-0.3588199317455292,-0.24075114727020264,-0.42267492413520813,0.41020795702934265,2.2078135013580322,0.31403911113739014,-0.28430116176605225,-0.34500014781951904,-1.7408488988876343,-1.0679956674575806,-0.8786622881889343
1760498892.0694432,0.02,-0.040965817868709564,-0.13725720345973969,0.1336199790239334,0.0054726810194551945,-0.01785200834274292,-0.999825656414032,0.34862661361694336,-0.5802394151687622,0.5285698175430298,-0.07147810608148575,0.02794027328491211,-0.10024887323379517,0.031164275482296944,0.08720529079437256,0.053139567375183105,-0.0032882317900657654,-0.02355051040649414,0.015186190605163574,0.04172232374548912,0.010951995849609375,-0.037726759910583496,0.0,0.0,0.0,0.0,0.07279371470212936,-0.021528830751776695,0.01550329476594925,-0.04526456817984581,0.01737261191010475,-0.026448214426636696,-0.07479612529277802,-0.011693338863551617,-0.003501448081806302,0.13099509477615356,-0.04659482464194298,0.07627296447753906,-0.11384528130292892,-0.44988203048706055,-0.22154007852077484,-0.19244317710399628,0.12745177745819092,-0.04202398657798767,-0.3361022174358368,-3.985292911529541,0.41279029846191406,-0.246954545378685,-0.0448477566242218,-0.5844494700431824,0.5450893640518188,1.822475552558899,0.07372832298278809,-0.19398899376392365,-0.4637037515640259,-1.6934516429901123,-1.099518895149231,-0.7206903696060181
1760498892.1402848,0.02,-0.007508419454097748,-0.1277325600385666,0.1281859427690506,-0.004625992849469185,-0.017358601093292236,-0.999838650226593,0.34862661361694336,-0.5802394151687622,0.5235344171524048,-0.041622478514909744,0.010966777801513672,-0.08001744747161865,0.014878679066896439,0.09246373176574707,0.04603302478790283,-0.031070273369550705,-0.032359182834625244,0.02293384075164795,0.09940508008003235,-0.014411866664886475,0.003054499626159668,0.0,0.0,0.0,0.0,0.0733032152056694,-0.0436224527657032,0.04254172369837761,-0.042276445776224136,0.0056006284430623055,-0.0017409923020750284,-0.07133059948682785,-0.024371616542339325,0.02177758328616619,0.14242681860923767,-0.05972548946738243,0.08095541596412659,-0.1847483217716217,-0.4575518071651459,-0.22745990753173828,-0.15224319696426392,0.5704013705253601,-0.21240922808647156,-0.25207456946372986,-3.5240678787231445,0.5205175280570984,-0.2498721033334732,0.019262731075286865,-0.7259243130683899,0.5257587432861328,1.6060714721679688,-0.13526615500450134,-0.05769570171833038,-0.680972695350647,-1.579850435256958,-1.1598972082138062,-0.6286419034004211
1760498892.2061734,0.02,0.003908999264240265,-0.15879014134407043,0.14873701333999634,-0.01629234105348587,-0.018847713246941566,-0.9996896386146545,0.34862661361694336,-0.5802394151687622,0.5179778337478638,-0.0033810718450695276,-0.008714258670806885,-0.06414490938186646,0.0008777412585914135,0.09678620100021362,0.03809165954589844,-0.05801467224955559,-0.04524165391921997,0.034565627574920654,0.15751558542251587,-0.04869168996810913,0.05355215072631836,0.0,0.0,0.0,0.0,0.09730421006679535,-0.05132381245493889,0.033128779381513596,-0.037933629006147385,0.01347409188747406,-0.030004793778061867,-0.07199901342391968,-0.030284741893410683,0.020424844697117805,0.13417688012123108,-0.08122716099023819,0.10523374378681183,-0.21075211465358734,-0.45107921957969666,-0.20879347622394562,-0.1101224422454834,0.9136409163475037,-0.34405770897865295,-0.20157915353775024,-2.7820382118225098,0.59273761510849,-0.34894174337387085,0.14352816343307495,-0.7998999357223511,0.4311976134777069,1.5228817462921143,-0.23679260909557343,0.20837952196598053,-0.8159424066543579,-1.6385713815689087,-1.1293007135391235,-0.4668131470680237
1760498892.28519,0.02,-0.017723821103572845,-0.19312980771064758,0.14374631643295288,-0.03070518560707569,-0.016925394535064697,-0.9993851780891418,0.34862661361694336,-0.5802394151687622,0.5122967958450317,0.026508376002311707,-0.028960347175598145,-0.06234675645828247,-0.017005538567900658,0.10470587015151978,0.02115023136138916,-0.08962182700634003,-0.058730900287628174,0.04110974073410034,0.20239925384521484,-0.09192973375320435,0.12494289875030518,0.0,0.0,0.0,0.0,0.06091737747192383,-0.052641164511442184,-0.004073780030012131,-0.04528754949569702,0.02008111961185932,-0.04472687095403671,-0.07822702825069427,-0.02917805314064026,0.0035774873103946447,0.09748214483261108,-0.09469401091337204,0.15131884813308716,-0.18433712422847748,-0.4717720150947571,-0.1624874323606491,-0.04900185018777847,0.7850134372711182,-0.4598844349384308,-0.34530067443847656,-1.7962340116500854,0.5560873746871948,-0.3598679006099701,0.4315195381641388,-0.8863183259963989,0.3136957883834839,1.1538074016571045,-0.2846018373966217,0.5822542905807495,-0.7590100765228271,-1.7409535646438599,-1.1706701517105103,-0.22639994323253632
1760498892.3525898,0.02,-0.011017389595508575,-0.19212234020233154,0.15217025578022003,-0.04643353074789047,-0.013887121342122555,-0.9988248348236084,0.34862661361694336,-0.5802394151687622,0.5065168142318726,0.035493288189172745,-0.04318267107009888,-0.08220779895782471,-0.037509363144636154,0.10948461294174194,0.00691533088684082,-0.12465726584196091,-0.07291662693023682,0.043725430965423584,0.2236342877149582,-0.12568432092666626,0.1789839267730713,0.0,0.0,0.0,0.0,0.014967179857194424,-0.029951205477118492,-0.06066979840397835,-0.047435443848371506,0.006747316103428602,-0.024985400959849358,-0.08516261726617813,-0.03597614914178848,0.004405565559864044,0.0322229228913784,-0.06339569389820099,0.09107129275798798,-0.15858010947704315,-0.4452434480190277,-0.1652839630842209,-0.006396002601832151,0.3358437418937683,-0.3791021406650543,-0.5227833986282349,-0.686973512172699,0.47921374440193176,-0.23359046876430511,0.7071157693862915,-0.8486658930778503,0.31766828894615173,0.40097665786743164,-0.45936697721481323,0.753087043762207,-0.6553217172622681,-1.6491400003433228,-1.0236852169036865,-0.042125776410102844
1760498892.4280636,0.02,-0.1096588745713234,-0.005100034177303314,0.1039065271615982,-0.05226212739944458,-0.003976654261350632,-0.9986254572868347,0.34862661361694336,-0.5802394151687622,0.5015283823013306,0.015746165066957474,-0.04606592655181885,-0.1055593490600586,-0.06646357476711273,0.11155825853347778,0.014971137046813965,-0.1656610071659088,-0.09278905391693115,0.07208371162414551,0.19148311018943787,-0.10532301664352417,0.10633009672164917,0.0,0.0,0.0,0.0,-0.06199808791279793,0.004788750316947699,-0.057478900998830795,-0.06979001313447952,0.002951614325866103,0.04836202412843704,-0.09379427880048752,-0.0614507794380188,0.1105666533112526,-0.09429076313972473,0.055085863918066025,-0.1721663922071457,-0.11394887417554855,-0.4302353858947754,-0.18174074590206146,-0.010199100710451603,-0.08422929048538208,-0.23533952236175537,-0.6536411046981812,0.07970866560935974,0.4011228382587433,-0.056534044444561005,0.8308371305465698,-0.6546197533607483,0.4277680218219757,-0.3363971412181854,-0.6217952370643616,0.7840166687965393,-0.6055136919021606,-1.5203361511230469,-0.7325488924980164,0.2411765605211258
1760498892.5136795,0.02,0.014239951968193054,0.1164495199918747,0.0939849242568016,-0.04593072086572647,0.0001687426120042801,-0.9989446401596069,0.34862661361694336,-0.5802394151687622,0.4975639581680298,-0.008100565522909164,-0.04203629493713379,-0.11015200614929199,-0.07905948162078857,0.10948401689529419,0.0434032678604126,-0.18078213930130005,-0.10386815667152405,0.1028253436088562,0.16025999188423157,-0.08758991956710815,0.06042635440826416,0.0,0.0,0.0,0.0,-0.044395290315151215,0.0054971748031675816,0.01514059491455555,-0.006982337683439255,-0.008444513194262981,0.07908876240253448,-0.00030439236434176564,-0.012669754214584827,0.06399870663881302,-0.06328659504652023,0.035154398530721664,-0.08522620052099228,-0.10934042185544968,-0.3776223361492157,-0.18401069939136505,-0.05580810829997063,-0.021767158061265945,0.14301401376724243,-0.6849409341812134,0.7951835989952087,0.012663044035434723,0.08352605253458023,0.7985827922821045,-0.15808191895484924,0.5085768699645996,-1.5539240837097168,-0.7461503148078918,0.6243561506271362,-0.4534177780151367,-1.447982668876648,-0.2796100378036499,-0.25859665870666504
1760498892.5822945,0.02,-0.04770410805940628,0.12441536039113998,0.10836273431777954,-0.036390677094459534,0.004556979052722454,-0.9993272423744202,0.34862661361694336,-0.5802394151687622,0.4935101270675659,-0.030790893360972404,-0.037727177143096924,-0.10143721103668213,-0.08098632097244263,0.10536655783653259,0.06499910354614258,-0.17466168105602264,-0.09443533420562744,0.10400158166885376,0.1294388473033905,-0.0756940245628357,0.03540080785751343,0.0,0.0,0.0,0.0,-0.05502989515662193,0.016133492812514305,0.01848713867366314,0.005344909615814686,-0.011007499881088734,0.04093421623110771,0.026016568765044212,0.031132912263274193,0.002273527905344963,-0.07709940522909164,0.024447323754429817,-0.049660637974739075,-0.1697731912136078,-0.34629425406455994,-0.28312036395072937,-0.11157776415348053,-0.18437835574150085,0.3385171592235565,-0.8215256929397583,0.8998934626579285,0.03632337599992752,0.18819741904735565,0.6650285720825195,0.027370788156986237,0.4919249713420868,-2.375218391418457,-0.6793280243873596,0.41793370246887207,-0.7887402772903442,-1.303715467453003,-0.14795207977294922,-0.6432784199714661
1760498892.6567895,0.02,-0.06267966330051422,0.1298879086971283,0.11947355419397354,-0.026418061926960945,0.01103514526039362,-0.9995900988578796,0.34862661361694336,-0.5802394151687622,0.4889775514602661,-0.05536496639251709,-0.02926492691040039,-0.09557515382766724,-0.0743200033903122,0.10115796327590942,0.07113802433013916,-0.1625995635986328,-0.07791030406951904,0.09591490030288696,0.09554906189441681,-0.06628602743148804,0.02107703685760498,0.0,0.0,0.0,0.0,-0.05866546183824539,0.025952491909265518,0.010424124076962471,0.030244950205087662,-0.010708923451602459,0.005036173854023218,0.03270045667886734,0.03695810213685036,-0.0005271375412121415,-0.08312156051397324,0.02149946056306362,-0.0273372083902359,-0.18545691668987274,-0.349465012550354,-0.37376028299331665,-0.1728357970714569,-0.37791115045547485,0.34620049595832825,-0.8663343191146851,1.0034209489822388,0.11771253496408463,0.2921457290649414,0.641411304473877,-0.02406568080186844,0.4538171589374542,-2.6714558601379395,-0.5251145958900452,0.35081106424331665,-0.8821176290512085,-1.27293860912323,-0.1721818745136261,-0.8457948565483093
1760498892.7282217,0.02,-0.02374788001179695,0.14651845395565033,0.11828388273715973,-0.01548454537987709,0.01488053984940052,-0.999769389629364,0.34862661361694336,-0.5802394151687622,0.4844018220901489,-0.07753776758909225,-0.018187642097473145,-0.09348028898239136,-0.05483885109424591,0.09798794984817505,0.06616604328155518,-0.14079783856868744,-0.058123111724853516,0.08385026454925537,0.06392135471105576,-0.05687522888183594,0.0141410231590271,0.0,0.0,0.0,0.0,-0.05127670243382454,0.029799163341522217,0.004858649335801601,0.060673993080854416,-0.00847756490111351,-0.012956772930920124,0.05889931321144104,0.04541058838367462,-0.009630387648940086,-0.07535561919212341,0.0226596649736166,-0.008925735019147396,-0.170616015791893,-0.3592992126941681,-0.4863660931587219,-0.2170983999967575,-0.4348198175430298,0.32959529757499695,-0.8340480327606201,1.0556089878082275,0.20897063612937927,0.2988031506538391,0.8181872367858887,0.02346714586019516,0.365326464176178,-2.660550117492676,-0.4512079954147339,0.339941143989563,-0.7727549076080322,-1.316891074180603,-0.338369756937027,-1.014595866203308
1760498892.8030288,0.02,0.019852779805660248,0.16900260746479034,0.11063914000988007,-0.002956308424472809,0.014890400692820549,-0.9998847842216492,0.34862661361694336,-0.5802394151687622,0.4800986051559448,-0.09628505259752274,-0.0068354010581970215,-0.09243106842041016,-0.024076467379927635,0.0966065526008606,0.05379939079284668,-0.10589148849248886,-0.03480929136276245,0.06631225347518921,0.03636859357357025,-0.04699498414993286,0.0133323073387146,0.0,0.0,0.0,0.0,-0.043105658143758774,0.02789188362658024,0.006992767099291086,0.08547815680503845,-0.003531664377078414,-0.03014296106994152,0.09016864746809006,0.053595274686813354,-0.02148110419511795,-0.06556753814220428,0.023930078372359276,0.005948406178504229,-0.14474742114543915,-0.3705178201198578,-0.6032233238220215,-0.24401633441448212,-0.38936299085617065,0.38790711760520935,-0.7634267807006836,1.1650844812393188,0.24003633856773376,0.24156473577022552,0.9098784923553467,0.09194875508546829,0.24763740599155426,-2.5528738498687744,-0.40855300426483154,0.3472003936767578,-0.5885132551193237,-1.4250558614730835,-0.5652658939361572,-1.1183360815048218
1760498892.8740146,0.02,0.02420036494731903,0.1714652180671692,0.11205081641674042,0.0104855140671134,0.013407422229647636,-0.9998551607131958,0.34862661361694336,-0.5802394151687622,0.47593653202056885,-0.11396019160747528,0.0037484169006347656,-0.09123378992080688,0.008319307118654251,0.09282112121582031,0.04707026481628418,-0.06126292422413826,-0.01010429859161377,0.04430961608886719,0.010412526316940784,-0.037195682525634766,0.0161016583442688,0.0,0.0,0.0,0.0,-0.04280984029173851,0.02676926925778389,0.005541311111301184,0.07715225219726562,-0.014968442730605602,1.876773421827238e-05,0.10886362940073013,0.055023204535245895,-0.03171021118760109,-0.06465324014425278,0.022984404116868973,0.011660532094538212,-0.11624997109174728,-0.37974658608436584,-0.7169443964958191,-0.2537885308265686,-0.20665502548217773,0.4815707802772522,-0.6621068716049194,1.297255277633667,0.25285834074020386,0.11697269231081009,0.8960521221160889,0.13137313723564148,0.11916136741638184,-2.471632957458496,-0.35377752780914307,0.3557717204093933,-0.4349759817123413,-1.599299430847168,-0.8004643321037292,-1.1630529165267944
1760498892.9446201,0.02,0.020084701478481293,0.16754497587680817,0.11682964116334915,0.023471347987651825,0.01222163625061512,-0.9996498227119446,0.34862661361694336,-0.5802394151687622,0.4715036153793335,-0.1317743957042694,0.014538168907165527,-0.09239619970321655,0.035596590489149094,0.0883415937423706,0.04636847972869873,-0.012693320401012897,0.010525822639465332,0.023139357566833496,-0.01601257175207138,-0.02731144428253174,0.01899045705795288,0.0,0.0,0.0,0.0,-0.04230975732207298,0.0287169199436903,-0.0035790191031992435,0.06541545689105988,-0.008680654689669609,0.001176991150714457,0.11688561737537384,0.039888735860586166,-0.021345708519220352,-0.06426741182804108,0.04188690334558487,-0.03158081695437431,-0.10438024252653122,-0.40300947427749634,-0.8287100791931152,-0.2139817774295807,-0.19305947422981262,0.5196007490158081,-0.607619047164917,1.5788066387176514,0.3273398280143738,0.035330601036548615,0.789503812789917,0.08122789114713669,-0.00941557064652443,-2.357503652572632,-0.2447880059480667,0.39649438858032227,-0.3395809531211853,-1.7763113975524902,-1.002588152885437,-1.164587378501892
1760498893.0216675,0.02,0.040716663002967834,0.1405819207429886,0.1400122344493866,0.03504450246691704,0.011093886569142342,-0.9993242025375366,0.34862661361694336,-0.5802394151687622,0.4665158987045288,-0.14851491153240204,0.02825796604156494,-0.0988306999206543,0.05148228257894516,0.08495265245437622,0.0515444278717041,0.024747349321842194,0.024219810962677002,0.0031409263610839844,-0.04259307682514191,-0.013198494911193848,0.012939989566802979,0.0,0.0,0.0,0.0,-0.03319308161735535,0.040787603706121445,-0.02689070999622345,0.032606761902570724,-0.00977425929158926,0.026750952005386353,0.08085139840841293,0.015657607465982437,-0.006277584936469793,-0.06086956337094307,0.03322727605700493,-0.0113416388630867,-0.1374811977148056,-0.4377627372741699,-0.8344289064407349,-0.26553595066070557,-0.21512344479560852,0.4881848394870758,-0.559585452079773,1.3815422058105469,0.4018900990486145,-0.14582659304141998,0.5090913772583008,0.015148080885410309,-0.05655035749077797,-1.6709909439086914,-0.1150120198726654,0.36955487728118896,-0.459580659866333,-1.9054909944534302,-1.2370028495788574,-1.137287974357605
1760498893.0977888,0.02,0.1988925039768219,0.006467275321483612,0.18254804611206055,0.038734741508960724,-0.0015394091606140137,-0.9992483258247375,0.34862661361694336,-0.5802394151687622,0.45994746685028076,-0.14269639551639557,0.04365992546081543,-0.1130523681640625,0.05391265079379082,0.07731527090072632,0.0748441219329834,0.046140510588884354,0.015401005744934082,0.011271476745605469,-0.053999997675418854,0.0035050511360168457,-0.010973811149597168,0.0,0.0,0.0,0.0,0.039600033313035965,0.035751864314079285,-0.030972829088568687,0.010339450091123581,-0.010051073506474495,0.05229911953210831,0.031053444370627403,-0.038492750376462936,0.05220082402229309,-0.020443543791770935,0.049653686583042145,-0.08682658523321152,-0.18429873883724213,-0.413572758436203,-0.63763028383255,-0.2581563889980316,-0.2407253384590149,0.2882107198238373,-0.4585959017276764,-0.30074378848075867,0.540170431137085,-0.4123488962650299,-0.27327874302864075,-0.16787739098072052,0.1056251972913742,0.6547200679779053,0.21189886331558228,0.046012744307518005,-0.6759380102157593,-1.730494737625122,-1.413050651550293,-1.0965909957885742
1760498893.1683943,0.02,0.1659431904554367,-0.15318793058395386,0.16513654589653015,0.03031882457435131,-0.016394201666116714,-0.9994058012962341,0.34862661361694336,-0.5802394151687622,0.45303380489349365,-0.11521630734205246,0.03965276479721069,-0.10427910089492798,0.057245347648859024,0.07281255722045898,0.07591748237609863,0.03827225789427757,-0.003863215446472168,0.029896676540374756,-0.03894278407096863,0.021944761276245117,-0.06024527549743652,0.0,0.0,0.0,0.0,0.08163660764694214,-0.023067710921168327,0.029086217284202576,0.005676672328263521,-0.006044374313205481,-0.022670775651931763,-0.028919517993927002,-0.032956015318632126,0.026718998327851295,0.0730283111333847,0.02980274334549904,-0.09798072278499603,-0.07766681164503098,-0.3535994589328766,-0.22598837316036224,-0.24130971729755402,-0.3096620440483093,-0.11214104294776917,-0.2840941548347473,-2.828707695007324,0.5004015564918518,-0.5190237760543823,-0.5139478445053101,-0.46568524837493896,0.27387499809265137,2.445978879928589,0.3722130060195923,-0.2866329550743103,-0.30299657583236694,-1.3435019254684448,-1.3453160524368286,-0.8128318190574646
1760498893.2425616,0.02,-0.03945375978946686,-0.1688966453075409,0.12152270972728729,0.016755500808358192,-0.018260877579450607,-0.9996928572654724,0.34862661361694336,-0.5802394151687622,0.4476546049118042,-0.09125804156064987,0.03210169076919556,-0.10280436277389526,0.04560842365026474,0.07705157995223999,0.06083416938781738,0.015226810239255428,-0.013736426830291748,0.031918466091156006,-0.003422392765060067,0.020445644855499268,-0.06910824775695801,0.0,0.0,0.0,0.0,0.05289251357316971,-0.0180234182626009,-0.002947735833004117,-0.04399717226624489,0.016697080805897713,-0.041542988270521164,-0.06930214166641235,7.740408182144165e-05,-0.048861779272556305,0.10145881026983261,-0.01654573529958725,0.01222519762814045,-0.08816852420568466,-0.41394248604774475,-0.16818436980247498,-0.19584354758262634,-0.22524523735046387,-0.0037660151720046997,-0.38108646869659424,-4.011154651641846,0.36301517486572266,-0.3184124529361725,-0.32101738452911377,-0.5666534304618835,0.47606566548347473,2.182894468307495,0.24719548225402832,-0.3002319931983948,-0.3580305576324463,-1.6263595819473267,-1.1222059726715088,-0.6825785040855408
1760498893.314188,0.02,-0.04492390155792236,-0.12444522976875305,0.09638914465904236,0.006000267807394266,-0.016116393730044365,-0.9998521208763123,0.34862661361694336,-0.5802394151687622,0.44338810443878174,-0.06424441188573837,0.02115190029144287,-0.09317368268966675,0.02783488668501377,0.08453243970870972,0.04963696002960205,-0.011805487796664238,-0.021068274974822998,0.03365743160247803,0.04694270342588425,0.003762662410736084,-0.040341973304748535,0.0,0.0,0.0,0.0,0.05301649495959282,-0.035092104226350784,0.030950525775551796,-0.051246751099824905,0.01923907734453678,-0.024755848571658134,-0.07199975103139877,-0.022412216290831566,0.011039226315915585,0.13049708306789398,-0.043075963854789734,0.07180112600326538,-0.14579017460346222,-0.4309823513031006,-0.2120562642812729,-0.15283700823783875,0.3542218804359436,-0.08711209893226624,-0.3183811604976654,-4.207077503204346,0.4187086522579193,-0.2370159775018692,-0.21071267127990723,-0.7022582292556763,0.6164337396621704,1.7899651527404785,0.004407472908496857,-0.22938038408756256,-0.5899868011474609,-1.6259357929229736,-1.0567595958709717,-0.605121910572052
1760498893.3876913,0.02,-0.026618633419275284,-0.1245948076248169,0.1062861979007721,-0.0035809376277029514,-0.014976445585489273,-0.9998814463615417,0.34862661361694336,-0.5802394151687622,0.4393712282180786,-0.033289771527051926,0.0031377673149108887,-0.07307571172714233,0.009776744060218334,0.09115636348724365,0.04258012771606445,-0.03887549042701721,-0.033163607120513916,0.044547319412231445,0.10365226119756699,-0.021596312522888184,5.924701690673828e-05,0.0,0.0,0.0,0.0,0.07837378233671188,-0.047447748482227325,0.04772898554801941,-0.04832416772842407,0.011992283165454865,-0.009355134330689907,-0.07216466963291168,-0.030471578240394592,0.025116685777902603,0.13690178096294403,-0.06124955415725708,0.08152488619089127,-0.21093881130218506,-0.45177727937698364,-0.20630083978176117,-0.11986001580953598,0.7600803375244141,-0.21604296565055847,-0.20355331897735596,-3.573317050933838,0.48035889863967896,-0.2850724756717682,-0.07339705526828766,-0.7219215035438538,0.5692822337150574,1.549309492111206,-0.19176167249679565,-0.06627728044986725,-0.7844233512878418,-1.627129077911377,-1.0661873817443848,-0.5079121589660645
1760498893.4647496,0.02,-0.007118500769138336,-0.16654014587402344,0.12430047243833542,-0.01552403811365366,-0.015212638303637505,-0.9997637867927551,0.34862661361694336,-0.5802394151687622,0.43474042415618896,0.006104145664721727,-0.017346084117889404,-0.058094322681427,-0.006284609436988831,0.09662449359893799,0.033060431480407715,-0.06561896204948425,-0.04717755317687988,0.05419766902923584,0.1600574404001236,-0.057624101638793945,0.054261982440948486,0.0,0.0,0.0,0.0,0.10054641216993332,-0.05277470499277115,0.02867293171584606,-0.04225161299109459,0.015024018473923206,-0.033012714236974716,-0.07007379084825516,-0.031513046473264694,0.011392608284950256,0.13103878498077393,-0.0854165181517601,0.11526751518249512,-0.23583661019802094,-0.44378653168678284,-0.19377370178699493,-0.08197309821844101,0.97249835729599,-0.3668663799762726,-0.1873438060283661,-2.6570563316345215,0.5607962012290955,-0.3606468141078949,0.14561066031455994,-0.78476881980896,0.44623157382011414,1.4680149555206299,-0.2679685950279236,0.22933606803417206,-0.9222918748855591,-1.6324117183685303,-1.0531705617904663,-0.36639851331710815
1760498893.541269,0.02,-0.004655264317989349,-0.20390191674232483,0.11833275109529495,-0.030676744878292084,-0.013289215043187141,-0.9994410276412964,0.34862661361694336,-0.5802394151687622,0.4300895929336548,0.03314521163702011,-0.037833333015441895,-0.05826479196548462,-0.025181597098708153,0.1039978563785553,0.015886545181274414,-0.09568136185407639,-0.060459256172180176,0.05581009387969971,0.20357517898082733,-0.10041967034339905,0.12630081176757812,0.0,0.0,0.0,0.0,0.05904156714677811,-0.04787766933441162,-0.01952112838625908,-0.04492248222231865,0.017325377091765404,-0.043649330735206604,-0.07067473977804184,-0.03075866401195526,-0.009475096128880978,0.0961049422621727,-0.09166844934225082,0.15025560557842255,-0.2093355506658554,-0.4552936255931854,-0.25842249393463135,-0.026370126754045486,0.7827887535095215,-0.44921401143074036,-0.34845948219299316,-1.5868604183197021,0.5252099633216858,-0.3609572947025299,0.43189576268196106,-0.8484730124473572,0.3399045467376709,1.0398708581924438,-0.2968093156814575,0.5948649644851685,-0.8382455110549927,-1.6877561807632446,-1.1042122840881348,-0.13408921658992767
1760498893.6095266,0.02,-0.01554824411869049,-0.18759045004844666,0.13420772552490234,-0.04636857286095619,-0.010325887240469456,-0.9988710284233093,0.34862661361694336,-0.5802394151687622,0.425101637840271,0.039528001099824905,-0.05008012056350708,-0.08105075359344482,-0.04629577696323395,0.10605981945991516,0.004210710525512695,-0.1294824630022049,-0.07377243041992188,0.054998576641082764,0.22195030748844147,-0.13244310021400452,0.18055665493011475,0.0,0.0,0.0,0.0,0.00606110505759716,-0.02451413683593273,-0.0647534653544426,-0.04991064593195915,-0.0016513681039214134,-0.015689143911004066,-0.0831262618303299,-0.033697452396154404,-0.0040798066183924675,0.022674836218357086,-0.0586375892162323,0.09315355122089386,-0.17145536839962006,-0.4103263318538666,-0.21362541615962982,0.03049534559249878,0.25662410259246826,-0.3451838493347168,-0.5190683007240295,-0.46616771817207336,0.4535832703113556,-0.2070261836051941,0.6193968057632446,-0.7929506897926331,0.3698703348636627,0.30285248160362244,-0.4687420129776001,0.7635677456855774,-0.697655200958252,-1.4901865720748901,-0.9271586537361145,0.13605113327503204
1760498893.6755629,0.02,-0.09348935633897781,-0.018265606835484505,0.10363167524337769,-0.05362994223833084,-0.0033574458211660385,-0.9985552430152893,0.34862661361694336,-0.5802394151687622,0.4202030897140503,0.020367726683616638,-0.051452815532684326,-0.10635256767272949,-0.07242777198553085,0.10324355959892273,0.016381025314331055,-0.16788484156131744,-0.09126925468444824,0.07569915056228638,0.195912703871727,-0.1184956431388855,0.11359542608261108,0.0,0.0,0.0,0.0,-0.06420879065990448,0.009588663466274738,-0.06012725830078125,-0.06832902878522873,-0.00794653408229351,0.06280329823493958,-0.09542597085237503,-0.055908191949129105,0.09796882420778275,-0.087998166680336,0.05507154390215874,-0.19448988139629364,-0.12171124666929245,-0.4069421887397766,-0.18949009478092194,0.07502856850624084,-0.0728309154510498,-0.2338491976261139,-0.6615080833435059,0.1414792239665985,0.39188218116760254,-0.027965836226940155,0.7210217714309692,-0.6458594799041748,0.44363847374916077,-0.3389194905757904,-0.6168243288993835,0.7890924215316772,-0.6685312986373901,-1.4244585037231445,-0.7111525535583496,0.4212051033973694
1760498893.749846,0.02,0.023739177733659744,0.11526410281658173,0.06845106184482574,-0.04770587757229805,-0.0007963906973600388,-0.9988611340522766,0.34862661361694336,-0.5802394151687622,0.41692864894866943,-0.002500860020518303,-0.0452418327331543,-0.11153829097747803,-0.08556301891803741,0.09994429349899292,0.04918992519378662,-0.18142709136009216,-0.10180288553237915,0.10320556163787842,0.16725967824459076,-0.0993773341178894,0.0637480616569519,0.0,0.0,0.0,0.0,-0.04405434802174568,0.008664204739034176,0.02208988554775715,-0.013344458304345608,-0.008991259150207043,0.091059610247612,0.0030754057224839926,-0.012613276019692421,0.05541902780532837,-0.05818771943449974,0.03653186187148094,-0.08605775237083435,-0.1690017431974411,-0.35415253043174744,-0.19241218268871307,-0.03950594365596771,-0.007105592638254166,0.09959593415260315,-0.7282605171203613,0.7566738724708557,0.03423834592103958,0.09952644258737564,0.7093162536621094,-0.20550760626792908,0.4744073748588562,-1.3116852045059204,-0.699052631855011,0.7207526564598083,-0.6408859491348267,-1.4082119464874268,-0.31512853503227234,-0.10363368690013885
1760498893.8129904,0.02,-0.043557774275541306,0.11641250550746918,0.0848940759897232,-0.03868089243769646,0.0027563096955418587,-0.9992477893829346,0.34862661361694336,-0.5802394151687622,0.41383254528045654,-0.02497156150639057,-0.0391920804977417,-0.10357058048248291,-0.08986819535493851,0.09591203927993774,0.07340013980865479,-0.17528130114078522,-0.09402972459793091,0.10398370027542114,0.13853484392166138,-0.08810120820999146,0.03797262907028198,0.0,0.0,0.0,0.0,-0.05544149875640869,0.020689548924565315,0.014999309554696083,-0.0014815563336014748,-0.010264025069773197,0.045297231525182724,0.023751765489578247,0.026196269318461418,0.0026833766605705023,-0.07297486811876297,0.02176748774945736,-0.05112350732088089,-0.20069018006324768,-0.3103337287902832,-0.28030192852020264,-0.0800505205988884,-0.17863792181015015,0.32119765877723694,-0.8456926345825195,0.984185516834259,-0.004771970212459564,0.19466246664524078,0.4222979247570038,0.016426287591457367,0.4892251491546631,-2.1904118061065674,-0.6538228392601013,0.46656423807144165,-0.9286887049674988,-1.2048044204711914,-0.20584198832511902,-0.45950210094451904
